Bachega/quantifier_recommender/data/test_set/puma32H.csv
theta1,theta2,theta3,theta4,theta5,theta6,thetad1,thetad2,thetad3,thetad4,thetad5,thetad6,tau1,tau2,tau3,tau4,tau5,dm1,dm2,dm3,dm4,dm5,da1,da2,da3,da4,da5,db1,db2,db3,db4,db5,class
1.4424807886274893,-0.9330534001873534,1.0697276562276274,-0.7202346959896978,0.7036265740541652,-1.2754731534682835,-0.1146343343554118,-1.4820489289299446,0.6103590907308445,1.5759980927632578,-1.2887970731666396,-0.27698521727814385,1.1387863077412343,1.6731365626485264,1.2976432820240777,0.14628444127616128,-0.6211877206180068,-1.7116140747171271,0.3552627477540835,-1.216036543942519,-1.606376824439046,1.6284858585359208,-0.47594375728708516,-1.4799723279830113,-0.8882460321918304,0.7540295541838334,1.6721449865403883,0.6983181141372828,1.129376699616036,0.819911820856418,0.5355139818209835,1.6982665479107155,1.0
-0.24274032306984378,-1.0069939800257217,-1.0411153852811057,0.31246564138077276,-0.5800697510349166,-1.002299480733744,0.2956902196515337,1.4148447753347762,1.3905699304807486,0.09782130668724887,1.6504011248102883,0.9126083900014689,0.8772953069518263,-0.18040772211076084,1.170629610193919,-0.19230414119717912,-1.3687029050457835,0.2992570910634443,1.0760242577609085,0.8702784819400806,-0.9872979550695068,-0.21508653515363424,1.6089137163328544,-0.9051602847552211,-0.426149221089908,-0.031520679405102524,1.6444172482255162,0.21736914747104705,-1.0939018619125813,-1.6948728853509496,1.09931516109235,-0.1564411710504623,0.0
1.3074820210304954,0.16239085011646248,-1.2950419106986728,-0.37095721642432966,0.3171730479893002,0.515166703356143,1.6908819142882905,-1.1508822036200612,0.07145464922816835,1.305243240910013,-0.28930650629732324,0.1681515166364729,0.5524009852277659,0.13016962914966135,-1.348931062099082,-0.1321407281652791,-0.5890044997004281,-1.7079290070283966,0.27945041135933874,1.342318052599597,1.423417633173634,0.5274426389934055,-0.6835741770806482,0.6652667078352279,0.3706345558587079,1.1418434201745007,0.8316368075452331,-1.3112844678434772,-1.618840164667104,-1.480593180064547,1.4660481067176465,-0.1834252239563658,0.0
-1.6336077000526206,-0.06829888741454757,1.4863018866900237,-1.3623326340800328,-0.24852643676061378,-1.5126882859645434,1.146003956293324,0.005908171480208039,1.3853680622951705,0.5612979009570024,0.95442644244962,0.3398789065847125,-0.2865242870036273,1.0265125409446973,-0.056566647725551464,0.8177109299204051,0.7776637790401185,0.44598310566774607,0.6810356014020134,-0.7034284972849901,-0.42709030805050674,1.4606021764122954,-0.6510210800051969,-1.1508074151792536,-0.19918770592478036,0.06817064837974646,-1.5669213710522458,0.7071603980651316,1.12193911923269,1.015114842770789,1.3564126301471058,-0.2466396569033316,1.0
0.15425681660403068,0.036576128265814724,1.1236552106674056,0.9368519495685028,-1.3361331889622354,0.77310319862985,0.862606229096492,-0.0014343757792398225,-0.418466279635441,1.5692715061239504,-0.04323960171077382,-0.5635186231111865,-0.5481660804636307,0.10304739859523625,-1.1330150320694867,0.6681602410975751,1.1893233563618923,-1.5186065494230359,-0.6923263211460436,-0.7093775387027419,-0.3856927078378091,-1.652884487658319,-1.5670230135178902,-1.1960014258657596,0.34970672603790814,-1.2993213089228173,1.1066321543048936,-0.23559666352637523,0.4176997956198774,-0.6228774453224347,-0.9134762554675752,0.9208340629194289,1.0
-0.26484850732030085,-1.179075439551125,0.4441362476832223,-1.6334964317449474,0.27802561618856336,-0.7776240139707549,-1.6386714453381217,0.5974315356401879,-1.468405773321244,-1.6676559261129658,1.1777044272313597,0.4928709231752635,0.518952049762024,1.408162406563189,-1.3309181511252635,-0.3087462382050663,0.30821421965791534,-1.46229712292054,-1.5908025810647408,0.9916680587660623,0.3490220537575485,-0.840591591186285,0.289320396987562,1.44073917573217,1.1635343267881435,-0.6905276752347199,-0.9065913828181786,-1.35641759880251,0.2483696457202256,1.6371264310070415,1.0923741375122618,0.08657309753495598,0.0
0.32728696442437444,-0.5523304090532137,0.8708136653051995,1.158758647835527,-1.0037420170177596,0.6174090484285958,1.5345550918897037,0.6792067777833699,0.45166779008153585,-0.42750592462667714,-1.460829895588036,-0.32182034899035544,-1.0666091136731286,-0.4067481324066696,-0.20117317958013772,0.7509888956586751,0.11764776017219646,-0.5292033839969735,0.6407640562362169,-1.0097688653629568,1.50910357714172,1.4419010719452885,-1.083833198059169,0.01549627251572826,1.1877544165587193,-1.691270824659026,1.233290537985855,0.8866206643992411,-0.1721272227733913,0.9984503655008201,0.9438793182747687,0.05760116937914793,1.0
-0.7253594440867177,-0.6367565214140063,1.2565229716164479,1.7277297955653614,0.05988215939859386,1.7077146399797587,0.8888328334871793,0.8571017001481931,-1.3925116207341806,1.067376700652865,-0.7527110550356769,0.29650897525525294,1.2507069791375205,1.0132983710922676,0.7493595242028749,1.596648464205919,-1.3318038262395089,-0.18235385132034276,1.7077263951697732,1.4421224219309638,-1.2455043962431223,-1.465316982440908,1.5755669049223724,1.475841275228716,0.29830627914695773,-0.6246875197293639,1.4452731741100988,1.5428468641932744,-0.39907852743013983,1.6169679376464903,0.6483579438676822,0.6814505672612684,1.0
0.7818162065615073,-0.963963040640158,0.5024493282857542,0.938602423128756,0.2284052989923415,-0.9255873922797989,1.5585374610877019,-1.5475279633023835,1.5949364988559211,-0.20252508689242882,0.6526044430625302,1.2715234328786738,1.6517960048580769,1.3113447448943474,0.24968398982263026,-1.6667232392147964,-1.4896346769520796,-0.3561322739262513,-1.3500013462055838,-0.6695373603009747,-0.04812151775142811,1.5431520910910683,-1.2887350318021498,-0.6153310988294337,-0.9426943555909069,-1.3678446678675171,-1.5943441226368136,-1.570348332311219,-0.6266882712480077,1.6124995253251133,1.4918855819020784,0.9126520612098996,0.0
1.115331958275174,-1.2469805299503793,0.12740813434257278,-0.5918804278577965,-0.8981358146911647,0.17851343941480874,-1.442777572994663,-1.3216211286809136,0.5687821967776977,-1.0078065178675908,-0.18577988790608177,0.5177276601471396,0.8761235391487827,0.978180530964199,0.3037363251897289,1.47800495636226,1.283811937675876,-1.4745893574335507,-1.5109703373970615,0.08592956942958045,1.7108313475352366,1.414158646106043,-0.007904002803044997,-1.242013907134166,0.9417601959976631,-0.05235334610852046,-1.049037044433116,1.1550230007219853,0.2631845268454073,0.2680935888114621,-0.21966113330138526,1.338162559644341,1.0
-0.2570644229905047,1.1920470986920906,0.7086779237305608,0.6801012955364711,1.1555007979495808,-1.41449768974541,-1.687350692940569,-0.041201959766365905,-1.6680084391770649,1.2969494941007786,-1.1255940305968313,0.0831270825365038,1.1625344954058272,0.8253051342826261,-0.7743287771346518,-1.4436594245183838,-0.899944818664857,0.9958803272872815,0.6841657938700061,-0.1420919750353062,-1.3532599370560197,0.35838093454114944,0.2585400315397669,-1.660240089748531,-0.544730522390181,-1.050110571705454,-0.33902027330229084,-0.3120987030689157,0.4273831790574636,-1.3226166976132934,1.5153976690414084,0.7626765422585372,0.0
-0.04440527203695789,0.22711848431873521,0.627000625162993,0.5986137587284127,0.03828243230028157,0.020715215449357935,-1.6968083837329504,0.3518293023596386,-1.3714504711153481,-0.04507841454844897,0.4275129443573198,-1.7104856022278037,-0.40903091459718377,1.1650936809694563,0.8039543093177808,-0.022608072999332547,-1.139876449693211,0.9405660374684892,1.0884077925936422,0.8123335919247027,1.4467480862445121,1.7274924351397847,-0.052927988924620285,-0.5502097096413886,-1.7054980751307218,1.404866157318378,1.0687846804111416,1.609111763344018,0.36518077154553696,0.018951981214153906,0.4568969205537555,0.4288403530142485,0.0
-0.7756252717663427,1.4425250153483933,0.6133821026240429,0.4937538161861327,-0.44608907019155725,-0.5437699913187256,-0.8275836760570543,1.5621455050013657,-0.39777818424678496,1.2001508912409335,0.026817373230062336,0.9936609131394286,-0.39451474906198664,1.655348985958585,0.6545006875539826,-1.4585786342924905,0.09396181643882243,0.11697407726065254,-0.22319219443077865,1.4951056887432892,-0.802679388611907,-0.6625164658906268,0.8631094609882788,0.08647287432813704,-1.363621010290072,-0.28643265059700324,0.16418177755647664,1.6896693326936325,-0.6233651628057396,-1.60942370659814,0.9626352076582515,-0.9837407055986939,0.0
-0.6935373589901829,-0.3456032273451145,0.9044105324567611,0.8001406295301158,-0.9068576896808576,-0.4823922813713368,0.9989701641292537,-1.3310584918435642,-1.7188669223769977,0.9059430317039674,-1.7102236551382002,-0.1664707253355676,1.096698364409945,0.39939978170003154,0.7940972947618472,1.4254739607037328,1.1939958035968343,0.7157799704149556,-1.5312626196033592,-0.9500331298898637,1.591927992528451,-0.788290499853856,0.4508011151921617,-1.5505880656551825,0.8222182679613448,0.06494927536168518,-0.6522247867614908,1.297412037774155,1.5498457467366482,1.0153588254490509,-1.4278805090581512,1.0516300664246299,1.0
-0.8905642595906578,-0.42822948616123174,0.6025521627222948,-1.2839285612512636,1.2817939901608582,-1.598082693389887,-1.3997805848221172,0.8148064748670937,0.07251710767571042,1.585753150275032,-0.14386283641879005,-0.5343489562469075,-0.7411635395796905,1.5583519422808965,-0.8258394282176282,-0.2134325309623163,-1.2844340653862567,-1.5097819835078543,-0.487110594551092,-0.2644981019798368,0.9430744646691939,-1.1980454164859937,1.6220300773479333,0.6254380558976144,1.2407856233967811,0.815335019432156,0.012879239989646452,0.15725667137989946,1.3356026270158663,-0.3690817530511103,0.6853884498132242,0.8372566712841407,1.0
-1.237261689310194,0.4451574684301812,-1.69824035992264,-0.24140665589308263,1.413450803720404,1.4786907053817677,-1.4113193204328751,0.8668406401163381,-1.0142592529146195,1.5091842918038187,1.532480886399984,0.7462937529029626,-1.2285755605794288,0.8557005664347014,-0.8391065480412504,-0.35402214405945864,1.466051156595609,-0.21830278127426103,0.32720049518019206,-0.9939119101200736,-1.0714662586776802,0.18044531188967128,-1.4625723688956902,-0.2924667203550136,0.9569596164660744,-0.4968875336924721,-0.6505465934465015,-1.5360806416269732,1.5712635670550248,-0.6915040951331933,-1.1517047742220698,-1.5849515304013562,1.0
1.5878070208713484,1.4178864205320003,-1.103839001756142,-0.12513205925253643,-1.2567641265560294,0.6118437404347237,0.9882326785545361,-1.6709923277092653,0.9109900648776259,-1.6098371246842011,-0.4182120447507307,-1.325182927873016,-1.3743239230129631,-0.05315190304777225,0.2540584295643189,-1.2684924858942468,1.6313138049001916,0.03807810999710901,-0.00827595511851544,-1.5513140920919357,0.41215097231538056,1.5368388214272375,0.709732658795821,0.3126210564426571,-1.0958782004249388,0.4796135224359737,-0.8477488676257625,1.3886507051345987,0.33880301867309576,-1.620304720255723,1.0931732031808474,-0.23930694975582367,1.0
-0.14342621988670615,-1.3865865931232946,0.9890536883688815,-1.2728707998206221,-0.8869971767077088,-0.22132269675163782,1.1681699137123718,-1.5715516158691711,0.8863856461805794,-0.28072358612195725,-0.7935910789333839,1.4844875405008802,1.675652365336498,-1.1732261050189572,0.33522006769870044,1.3843636013218281,-0.06798962530649463,0.03370869446589317,-1.1241417689892097,-0.1901749489684733,1.2472237389875251,0.7305011378323061,1.288455414042497,-1.4771376249920396,-1.6263070810166604,0.9205013053459452,-0.626730041743367,-1.2609851449370233,0.4021940170650706,-0.3903159184711689,-0.5682661359863904,0.08433925172883752,1.0
-0.1007330806055137,1.1060661695739042,-0.9951254713683778,0.27519584994741925,-0.21482888661024135,-1.4684705801794815,0.40868485202763455,-1.2469672283163766,0.9189405966311429,-1.5982179404412193,0.8804789627300232,-0.8939932777025299,0.15068692238036102,-0.23718197932118568,0.21089949440680184,1.0447712259004809,-0.4423020556045456,-1.3359132331106554,0.6035409793015641,1.3444538811292173,-0.6456935626892544,1.5589515405591337,-0.800088044242264,-1.4542941571189647,-1.2131176983003027,1.23485502384169,-1.1171073239630207,-1.4882069556770992,0.8205409116781317,-1.0950069449931688,1.4975615454944238,0.05019730093864731,1.0
1.5685272699882664,0.20159819463382003,1.2853930036251289,1.6527431732288556,0.2597657110431935,1.5192483898361258,-1.6561416364909074,1.4220774572054256,1.3337500406825988,1.4378329299958996,0.8473021529726428,-1.6784504905847624,-1.139506993199806,-1.2535114297207823,-1.4536432689626695,-1.6787770997994118,-0.616630549703763,-1.4021372829418672,0.21689590493493974,1.2341604931538204,1.687926817848042,0.4676704060504524,-0.8412453753153633,1.6702840875411809,-0.21095038818231432,-0.5077181964641593,-0.3376485993142402,-1.3921492742996884,1.1174892451837177,-0.7379528729381633,-1.521342163128403,1.2695646201840147,0.0
0.7672866032789979,1.254689732374012,-1.5148235620892587,0.8795060219460057,-0.6325713097746481,-0.9276410384338081,1.4777111799291824,1.3876578843925085,-0.3704967283939932,-0.848220069137749,0.9053257914953393,1.7014523463974018,-0.6144971397635549,-1.6654819068828424,1.1625976445905122,0.5994523920485905,1.6442252382410383,-1.3899583409128473,1.6985285636074205,-0.5018403224185667,-0.08618707474231108,-1.6783359700742544,-0.38930844784630364,-1.1928718891942536,1.1034682582366713,-0.4133779866495116,-0.6108967859103501,-0.6743251070041134,-0.7769345048980383,1.217273672739007,1.70899462697232,-0.9513715991947999,1.0
-0.9131887802448986,1.107460545577721,-1.631898426910438,-1.3919783705557276,-0.5646461141131603,1.1003842354256272,1.4401082952102737,-0.15681647901115867,1.0527081441623742,-0.08618696637920555,-1.154166232359127,0.6044623558525679,1.1919598659605504,1.4604738533626094,0.06655261606237739,-1.5969259611247435,-0.8707718653815049,-1.038348992929086,0.06428128950286355,0.16564212465315953,-0.552737706237209,0.08839991723038503,0.014994810181721675,1.3999599922932502,-0.11571001106378824,-0.9642771105725776,0.9229994907292073,-0.28001393202703795,0.4795776204467449,-0.47000465084539084,-0.2905197711172183,-0.17143454608709682,0.0
1.0996812936423663,-0.4997233445075475,-1.6361221255395104,0.41269189050965127,-1.3745028035090308,-1.3333340857312974,-1.3877434569871068,-1.2654120786573173,0.15245069146712256,-1.5384607706409266,0.6852418223327592,-0.10590738719732085,-0.1797746703072388,0.41181931691380547,0.353697527724805,-1.4048168698076229,0.17892021052440665,-0.5125983801947422,0.6826700861389948,-0.9873664313024496,-1.456019719480511,-0.35049090165341706,-0.23300231473253613,-0.8111528728352315,0.5653405307315839,-1.3771785464983968,-0.2246548472282047,1.1067099657096782,0.5214967014061662,1.5786872088754105,-0.5627872650732944,-0.6617637005301004,1.0
1.2433576064219236,-1.5401677752089387,0.6708522088920368,-0.7266565472822943,0.710647572830737,-1.3886992167074996,1.4245383162989236,1.4227528712734767,-1.2351319787581716,-1.3298167691058482,-1.5720039502733136,-1.2257065248592427,0.9037934724691914,-0.04095420076554561,-0.48971412927297414,1.4600917708374068,0.22483215471083007,1.3752294930741629,0.24237690519778737,-0.7080298048351635,1.5868661160696536,0.6411264437943756,-1.178130784796492,-0.5075816733307839,-0.45214147506314134,-1.1365051357797773,-0.6697255077330538,0.2523250492740694,-1.1829488031107003,0.5482854448026769,-0.3667778316343569,0.39937957771527327,1.0
0.02500846028284295,0.6024652516557326,-0.5870096718596052,-0.412551098729191,1.1380695815183626,0.9107121076470777,-0.7038148035174265,-0.14731939036869146,0.8288345700912838,-0.6408940404847902,0.7350499712320927,0.06119262683178905,1.2138174293587556,0.14720305616815327,0.3511865533990186,1.6278019782688884,1.567816708792955,0.767439812135285,-1.3280637854951733,0.29227391091401056,-0.7899585793945222,-1.3669846686172473,1.142722358850821,-1.344179919807695,1.023385802511559,-1.0843561978238934,-1.4114915507481862,-0.8532308103608162,-0.5530760095403493,0.7767591109313648,0.31754475707308566,-0.6056530210053616,1.0
-0.2829305934493853,0.3529368525501461,-1.7307919683225628,0.34353968743518,-0.622468532683882,-1.3752978965914613,-0.652210625737544,1.159927579257621,1.2813560662712604,-0.13144496434468939,0.25210703007340995,0.3622813406484523,0.5599338941881825,1.499986106938452,-1.092994106842083,1.2957674421038965,0.6231989414150622,1.360729586102843,1.124713399322159,0.388528787749992,-1.00598015402892,0.6323765279455357,1.7200182813240177,0.6364160037212641,-0.8111407508470716,-0.1790112506814865,-0.4315124802060336,0.3782507859692632,-0.0675265884336236,-0.6727941530196817,-0.881217225780148,-0.07365738253050566,1.0
-0.4246019594513396,0.38816453710263593,-0.7522826608485587,-1.6292484484195378,-1.4557194583686746,-0.9581007766568684,-0.7679618522743343,-0.9511668352772462,0.1461908414847645,-1.2706674986772863,-1.6027368096603352,1.0293025583190576,0.3543584527403253,0.288920855323525,-0.9672984794973535,0.3851568396785358,0.13487564102569244,1.2218988328490952,-0.14593195127374553,-1.0301519985092427,0.4626913177966107,-0.12101835215373978,-0.7121448047591264,-0.04451773739389204,1.4157902966654405,-0.8600831992385163,1.1332671512192292,-0.8827947009430689,0.3023245617679926,0.8073582215428251,0.17182756954780976,1.3875515909505307,0.0
1.1787720982487742,-0.6102845263499171,-0.6059243682281136,0.6001595547132375,1.64070246369065,-0.8020529023493722,1.0754020666497457,1.5727250257965615,0.20785819794982505,1.4323875629514249,-0.6010474213767257,0.3926785280349059,0.12218420911657855,0.6993947602958068,-1.269272563845269,1.6388910591806447,1.7273214585958325,1.3337399482612846,-1.2395780245218904,-0.9087348230375085,-1.188086233811649,-1.691594921388865,-0.017650938372526723,1.6820666856179558,0.8841610169043563,0.18260812839962126,-1.177437990487724,-1.6757644559555607,0.8105484018738227,1.3604163152483824,1.0647246319589148,-0.5485661941789184,0.0
-0.5729680209939371,-1.005896419416023,0.23652182008634792,-0.40938413812165814,-1.3360122770857932,-0.6470727778749746,-1.273718225940796,-0.4531027867564526,0.5888734053980716,-0.8719097679916001,1.1034171430008093,0.4729139343851042,-0.9711136434855394,1.1020357042216462,0.543145705469847,0.2198164875536604,0.7000185313826917,-0.822612545779202,-1.3433755151538769,-0.3181483360645134,-0.3534609173368035,0.37113922636609215,-1.530146180765229,0.11942207371994684,-0.40225036489986615,0.4788368458848699,-0.12671885707803088,-1.1956081610243439,0.0482675116451706,1.430743171395709,-1.1873327136594627,1.2405648463048615,1.0
-0.42492015820516926,-1.4730050879330554,-1.2017571644879899,0.6830997850710882,-0.6744739103696776,0.09052018297748737,0.5833933793814746,1.0464299964641108,1.3340693751036297,-0.2050081389815535,0.49171544719474647,-1.7106391345601022,0.485756792877908,0.03109802236698007,0.06617620435839167,-0.9656508915365618,1.6023033757417302,1.3413228897911067,-1.2541927852172774,-0.21649179095153748,0.5236983075837438,1.1698182147955465,1.6924174057902852,-1.1443395013125293,1.3922633951475956,1.4151678238564396,-1.2400552911913896,1.1340340977848418,0.05220114466171602,1.4657032805708208,-0.5589447217530386,-1.4119955547672447,0.0
-0.7425767956394225,1.526495330113796,-0.5610076650955699,-0.1524687075577833,-1.0774857280992522,1.5231992834690702,-0.6861483428604,-1.1373105100212062,-1.1714986265000822,-0.7034238782780305,-0.6274751117329587,-1.0948312836180107,-1.3006834887130312,-0.6184659257583833,0.7663521589040623,1.6788604929178688,1.0453590427188488,-0.9519772527016575,1.501354193525071,-1.1029296273584686,-1.4928167320976065,0.4871155246197521,1.5979545905824406,-0.944910621496443,-1.6988674451478394,-1.264458010901532,-1.1790043042483804,-0.4003448810111091,0.07906268029807811,0.854485240503718,1.584910270807482,0.25595089771923907,1.0
-1.2337313035993014,0.7585303483172132,0.25697534918422243,0.19239379542568816,0.9438784725445507,-0.48704843071197496,-1.493391582152026,0.16379358340321198,0.30202007008016074,-1.6271008787887546,0.400479036882193,0.4656292680992707,-1.6590402646060407,0.7460189493107203,0.5609796491127748,0.5125762423808737,0.1959926174390584,-1.3578077711316505,1.23118466026917,-0.3693530234839029,1.5028085217886467,-0.5742949937112501,1.3704411634389648,0.563659650681046,-0.5473664821538906,-0.41206466941053943,0.8317195677635065,0.08363805208276777,1.4331072656075168,0.3977665461020726,0.6159247392544064,-1.3133892074488256,1.0
-1.066962010889032,-0.9077081367790679,0.9125725247918691,-0.6797233142191424,-0.8898548256899615,0.38250700848658464,0.32707569812747944,-1.100531412079726,-1.516179844146079,0.5192881585219631,1.5449442993697846,-0.7592893239246055,-0.3100664709644574,-1.5702715738499191,0.005719670453870362,-0.3630395901744578,1.6421508192372083,-1.580516298985514,-0.9042573128632163,0.4711621996490394,0.9880547417193756,0.6003436207830681,0.4355414166342371,-0.9265280486335377,-0.2391390191248423,-0.48981029795416886,1.3453310149651114,1.1604826041062055,-1.3153924493011748,0.26199555633716587,0.8578094036014942,0.7586853219124255,0.0
-1.476448451650721,-0.1353091559745326,-0.990854695638598,-0.7480893189533396,-0.8537537833615335,-0.8552284518745379,-0.6597004758450812,-0.016763178247271717,-0.934674101774192,-0.45672405295427204,-0.6544877355562113,1.4367633436510912,-0.3926710344638469,1.3431990531826021,0.7093874145781773,-1.666869866597761,-0.4999110905949076,1.2573838760104556,0.3100430313420858,-1.4136474473043943,-0.676200132841909,0.8711988546640264,1.4195649774973234,-0.710396533696758,0.989954455094387,0.7096015150135256,1.4292422133112064,1.0766237720462108,-0.5121538611136084,-0.0042187008094681485,1.145570826706959,0.36495452873774287,0.0
-0.6650210053917671,-0.07629758825652476,1.0785980118124388,-0.6833979047700667,0.027681999620500906,-0.9398766768360942,-0.9886172910985461,0.479022453821253,-0.5623294207437026,-0.852971534118241,0.7181500177251091,-0.38369240263420384,-0.9149437099172577,-0.8984391335451075,-0.1803904299907664,-1.59805578281427,0.8401788651348784,0.5433840223096383,1.4762062580765516,-0.48178683976321274,-1.1332820416049496,-0.8705040581572178,-0.24377304914272876,-1.1819415447252737,1.6864349677748214,0.27425596142983355,1.4637041812389204,0.9442260857005608,0.21212303359016452,1.0606168450255222,-0.35356345502326686,-0.9696615984785524,0.0
-0.48403515215449233,1.1370560304034976,0.929408472932276,1.5257307624145653,0.03202524269440464,-0.9019134563841321,-0.06978270963155404,0.6534665706855526,-1.3238233836572024,-1.1990779755677459,-0.3720426664028204,-0.05777721543039645,-1.722528732501546,1.4999599322984456,-1.5396262080692174,1.6256181314532772,-0.6639712314289946,0.41115485271762975,0.9338210017100569,1.281814154819727,-1.2179177845944944,-1.4347364528072915,-0.6012209101516177,-1.4938648295861108,0.5754463239947858,-0.9851357684204219,1.2167170379782815,1.633305149302963,-0.888946443879981,0.06547594864953185,-1.3570081205902773,-0.6767679044591468,1.0
-1.1732676478021495,-0.021529678470634448,0.5450769073964111,-0.16582077899458217,0.8447329456646743,0.8228818273992025,0.5998748720952928,0.9256739244938581,1.005557073901933,-1.4455587512992727,-0.12954921357401206,1.411243022223752,-1.472977923423495,0.9682069644241367,0.704649747755583,-1.2144612838226205,-0.6653365172933859,-1.7173261592815863,0.8010252846972471,0.23170408303595436,-1.0970139735509847,-0.20810055273898048,0.4467815852036695,0.38216034406246036,-0.17131723455723047,1.6023957971795373,1.3343790794135926,-0.16992319580583018,1.5800025694422737,0.11029357181932878,-0.7758398677915367,0.6320599889704482,0.0
0.8074665616618876,-0.27479561785841766,-1.5676926173428238,-0.3213572636148908,1.736104146006058,0.9446425809539066,1.3215865077690465,-0.33542736978218035,1.274573194258195,-1.6045850799308572,1.2521773929765352,0.17484788836056672,-1.691241606952293,-1.307483537413881,0.14427817429310827,-0.9649927465507491,-1.1452218082920682,1.2491563921054964,-0.1867555205299565,-0.20038798115497933,-1.3595703687045324,1.5491305544088676,1.5315080383716024,1.035886464595797,-0.14267057678695563,-1.077996011893597,-1.1523049382753878,0.04040211025696845,0.6131913099352646,-1.3928054503578302,-0.7983680193848451,0.14053192143898105,1.0
0.4156534100191548,-0.9709516940107512,-0.1105879415435022,-0.4332294451131875,-1.6734692142926677,1.2050492982918666,0.6663859760044077,-0.110356691878145,0.08702220225342472,-0.7190697526762005,-0.3337687889811329,-0.0742310097537844,0.018215016340391545,-0.6223941334347254,-0.11750507031869782,0.29584664786613846,-0.838306405868433,0.2336959553615308,1.5015669849342246,-0.9934503994327687,-0.23510495844767634,0.2723310535228402,1.353325346922466,1.26417679767045,1.592062997225681,1.479517310784382,0.12410744075251516,0.5902259552944853,-0.9813273129432034,-1.5213367528520452,0.28374565435710275,-1.4856351171376403,0.0
1.3537733105720073,0.6766275314444987,-1.6500054567699387,-0.6853478835482467,-1.4158789950810136,1.5640675727687854,0.8415862797565146,0.048473267447886964,0.9866790376380923,1.1866036295468638,0.9552396247350127,0.17320110646942327,-1.549542223664281,1.093545313942066,-1.5986195505726075,-1.0034893774246536,0.15465880980210495,0.8588301032076071,-1.6917844404422666,0.35241136000861173,-0.8710931399124142,1.6142999896522037,1.7303643631230556,0.8214441009537462,-0.618837111315699,-1.5766728111000448,0.8697770073962114,-1.6968547471378808,-1.127797568023717,-1.0524250624663132,-0.9651099538803156,-0.6207407621044428,1.0
0.15419347148174053,-1.0234362401627766,0.9996695745783516,0.375017177374728,-0.8509462685719519,1.1533405344717174,-0.5247148378926642,-0.2633202818532865,0.5049764934652665,-1.030918455045287,-0.6717267596551187,-1.2605037422112302,0.4304689373027749,-0.49790279069541205,0.5332334919109486,0.7492027681477502,1.1396731723800735,-0.3762600615887939,1.4128622646848557,0.0005562253105535372,-1.4907901363586349,-0.04769421234339783,0.5198357320440721,1.7115485180793137,-1.1466592351964868,1.1660549356533878,-1.6177422754586768,-1.7160125169197087,-1.6696790869383067,-0.45250234626516334,0.3841804168622043,-1.3564247728784722,1.0
0.3401902185206432,1.0965381766398752,0.3971518300180552,-0.9723597845986879,0.8648249606451571,1.4893053519087536,1.3738963736540657,-1.0268898954656633,-0.8100090774592622,-0.7107590993548142,0.7847245468679412,1.4472943330015813,-0.7968235189096619,-1.7074902609974913,1.5056993964965133,1.1538158587889775,1.16179603207857,0.43562449828014704,-1.1779564079709572,0.8640013232894946,0.44037723785430594,-1.5287503847788937,-0.8232601790894829,1.6853267476167821,0.4013730744093964,-0.9580315914559284,-0.7622453013762213,0.494165201546009,-1.3180138408909827,1.4182371410319659,-0.7667552703433297,-1.4143268606050705,1.0
1.0815785835199783,0.6866703933422802,-1.2479633388320914,0.549861333641055,-1.0735708374656705,1.3097735587874566,0.8958463441237495,0.9534035062156955,1.4550046032252568,0.1404117510614262,0.4385063175097542,-0.24239541620200178,1.5989944776409186,0.8304343807461241,-0.28448367915289957,0.26173302166720885,1.7161840601025151,1.3817851473505,0.20044157792708245,-1.2148605349818449,0.915896862479266,-1.3005860600757482,1.0957079101264158,0.6308080214227653,1.6721193239035725,-1.7068915024594675,0.13044932562687614,0.253053201216703,0.6971175728686231,0.6783343502453264,-0.1270550753581091,0.49138030066241417,1.0
0.5902576104712902,0.5894250647706676,0.19402443858233434,-0.598761880059839,-1.640437416730266,0.49931635538882857,0.48043642520916424,-0.8037488667058311,0.3547624771424838,-1.2169150809539802,1.194458330851346,-1.532960890462872,-1.2012087430194418,1.6725712361442842,-1.3866364146857113,-0.14831479981955922,0.003175114452526446,-0.11966942612408929,1.1422208896086563,-0.24621553242693217,1.1841378740569248,-0.9239661214950995,1.0118675869626876,-1.3227691593509672,1.5531537719088815,1.1463735237589878,1.2867704975534793,-0.3050952332240471,0.6239009929103698,1.2233440845327455,0.15536956690534667,-0.21795856185801554,1.0
0.26800329567267406,-0.7512980924973962,0.6620083341763731,-0.31152608982039115,-0.16219019610820354,0.7356303684160873,1.3023947316764386,-0.7307031301867307,1.477914609608843,-1.5508811765467703,-0.21959740897677243,-0.6637110182515441,-0.9322485543612359,0.4113506194080847,-0.6811226840560286,1.6880361301620903,0.07567772525413258,1.397929326319201,-0.6089706834934563,-1.3990354976365662,-0.01263149024671951,-0.5268222438968261,0.5996889532368871,-0.7887286216016666,0.8652174576695331,-0.04571031537122772,0.5361996868720332,-1.106967183400174,0.12998197542462883,1.1283043916973103,1.3679295651562862,0.8025222253805548,1.0
0.5669937460246324,-1.6303340201670329,0.7938109757219154,-0.08696818887958543,-0.5288053272260983,-1.0297342931804894,0.6927176985190895,-0.9488242692355445,1.3111884669499974,-1.498382780985704,-1.1846113954863344,0.7660042041979889,-0.4019840760598056,1.339055299060304,-0.37110324057034505,-0.13417700502616292,-0.3269024375542881,-0.0462865160882646,1.2934523608812303,-1.5856866721185217,-1.1680355445580897,-0.28266471605314336,-0.7100385278077997,0.6026836523655343,-1.120699258281585,-1.6949034693153682,-1.3405047398224603,-0.8867580596181645,-0.6427983918497574,-1.342189018753115,0.5862279143972254,1.5107673697673794,0.0
-1.4704697033061946,-0.30999777774556564,1.3526772142311736,-1.0001501225476643,0.38491835037120337,-0.4447769383461751,-0.49963718194815204,-1.4027452893589325,-0.8271859864334992,-1.092172218703915,-1.3824913783111248,-1.3842648266318254,0.4521349896035719,-1.5549872528623843,-0.28963673123960504,0.6964461070155351,0.7033568291486665,-0.19698236057078725,0.4100580775780198,0.32092743823744907,1.2511723716564778,1.370072710486431,-1.6080058509725876,1.3855684232621628,-0.14388941998965027,-0.8115409147945478,1.7136982790968287,-0.9368254185091378,1.2456684931452533,0.8694188217920553,0.5334513840148821,1.4041600179411735,1.0
0.4858449615149837,-1.3917010067816449,0.948501915167532,0.049410622462256984,0.4221208704033172,-0.5629799874604104,0.04673742290312458,-1.6503848251176758,-0.2161089813439982,-0.8173568636711782,0.04722032226789384,1.5210895008935874,1.1772506357205434,1.2001586917586125,0.3481927386776595,0.07204744327849436,0.013996410341964477,1.4437454192369192,1.272470819545281,-0.3566300477920206,1.4594473686482807,0.6367724112665823,-1.132651262237496,-0.4983358733802743,-0.5566038688477073,-0.04382519295486819,1.2467804535644254,0.005099030523492264,-1.7019379689376462,-0.09259874066592808,0.3646850479689786,1.0230866530114087,1.0
-0.8225065548305802,1.4303760039218343,-0.8255596392586882,0.836177922061611,-1.103023938392403,-0.34821244984685334,0.35005760741809144,0.6637260808851867,0.8783664724487098,-1.4280296384605056,0.04846504894300759,1.6858164069979882,0.9460194086011441,0.09056042653603112,1.6379968292383122,-0.2152897651674257,-1.4641715315662969,1.1147869131537682,1.1964102265065233,1.5056790365826749,0.9535211197910252,1.4049282211494718,-1.7006048272652923,1.6206230394761605,1.2558113625513152,0.8876683743716393,1.3929487924050337,1.448439046078287,-0.6186308924993827,1.4237137081937083,1.4939848481136213,-1.6305984058869083,0.0
1.454388935046851,1.3245558463476717,0.8532656760165965,0.8587005833491078,1.3674976552645655,0.4470441178374547,0.15331764444024515,-1.2596378782567614,-0.09252656040504002,-1.6933508843212075,-1.1437497195643809,-0.7191420953009875,-0.36257028526484286,-0.5470241775266171,1.349288541609238,1.156903333060658,1.3270965895802542,1.3255538008031864,-1.0345797152362919,-0.6418589851274561,-0.5735372210786885,-0.06745398687679284,-0.24614029442600124,0.7303804190628426,-0.5418962892681511,1.619919944086522,0.016621840971567325,0.9953288336407646,-1.5602282599046609,-0.5959380748849041,-0.431162968039485,1.1440809618991812,0.0
1.0478060579138577,-1.1336072592634927,1.7051265488927965,-1.358600408688374,-0.19145308200980138,-1.1927075592870575,-0.44268006585409864,-0.19531139413206594,0.3474535986648701,-0.9965144378814652,-0.9158003401558139,-1.607785758371976,0.39165446795394576,1.0318004583045135,-0.3406341337294124,0.12513579771290687,-0.8790275407802798,-1.098663461838611,-0.9174719677650379,0.40141735531638906,1.7197572870380673,-0.8138876850314902,-0.780657484947145,-1.4954741300923615,1.1598286130911732,-0.7154027293419125,0.6934088518689719,-0.3372045832344526,0.1503518573598162,-0.7910582347576015,0.15310070931863476,-0.54627510994148,1.0
1.4178542674804036,1.6598427453448943,-0.07380086523933035,0.8391195156637082,-0.41191819428096643,0.5069221545079655,0.8881771316228234,0.22588448716135473,1.4605026764695952,1.1115857597991716,0.9876781119480744,-1.0871664771824958,-1.1735367227637181,0.6879751649101185,-1.173366571005565,1.4340163276608509,-0.07552907114905653,1.5983376065810206,-1.266101394296247,0.8448861945897242,0.018433239430401486,-0.8095026519161017,-0.3329253904241722,1.3712966304137924,-1.608364110590102,1.6184812577979626,-0.0777232752635197,1.5750529938922573,1.6961181609424592,0.7068772546374721,-0.30950636588493907,0.43026357887410244,1.0
-0.010531099606697373,0.299451739516721,-0.24618838107265695,1.3933642226776934,0.3670691032452131,-1.6405712437299722,0.862838518097766,0.445035706399107,1.568786143429024,-0.20767348737562275,0.7216875074503734,0.2738312163840741,-0.7428220734508775,1.509814009892383,-0.4979596950552215,-1.3041574242874499,-1.2261445834232871,0.3692825630264045,-0.11603784222104815,-1.6607672546299803,-0.43001487944316524,0.7417450509532069,-1.5650171090019274,1.2254568432190132,0.3814104823329756,-1.003144573726422,1.2758430835481156,-1.2028988975638801,-1.5153013793970285,-0.1702082495870369,1.041217128370265,-0.29703577520383123,0.0
1.0749472331016252,0.3063127695606051,1.681679946001523,-0.2549855721517463,-0.48021865911994827,-0.8989718457898661,1.161609219609931,-0.9788978917022889,-0.32455584605624416,1.2645624973432796,-1.612310049489453,-0.7787547139969245,-0.4979556457572613,-1.20005547678463,-1.4145448263159328,0.8356337480688806,-1.4679511478634069,0.009445731137683223,1.0423446203786924,0.3188790054193779,1.3310676027619184,-1.6749460558206823,0.7954893233793413,-0.25153090652330945,1.4065313919327367,-0.8476838944561357,-0.2963497177991591,-0.39290359828934057,0.7187007757931968,-1.7013085039209543,-0.022916803903385373,0.978811952892911,1.0
-1.317750506034122,1.3502956481545267,0.4369121194637651,1.7473662813668518,-0.69703724614183,-0.4323198569600227,-1.212280725470902,-0.15481751881630396,-0.11219472552839412,1.7164228476330339,-0.10336958784996574,-1.2888991041881002,-0.2704095522052948,0.5719237376860762,-0.5435304877417798,-1.205564348955897,0.5895796322728959,1.4909577654708501,-0.9781869078769664,-0.01643994069866714,-0.8064819464741808,1.1911729695607318,1.3943807613688883,-0.1221910562938563,-1.4755301825324652,0.1497644951893747,0.6751035176641944,-1.0869276431224142,1.6545885792051083,1.7234395232684139,1.6573716235111668,1.1676446317875446,0.0
-1.2783351085458508,0.8412222419870665,1.6644688522148556,1.658599020829112,1.1695332110247139,1.6140559511631203,0.6585837118919923,0.3864110925251443,-0.42285638181615554,1.612634504596905,1.3416083624749495,-1.2223081457347136,-1.117971791743261,-1.0498903554909638,-1.3264226589023043,-1.3439714946107393,-1.3860123137884117,0.6313755388622337,-0.8775658687149628,1.4965346852900276,-0.9452699267437756,0.37739359491349156,-1.0484928356632304,-0.15469339838860638,1.6038256794832146,-1.3711103787201884,-1.4485083572659345,1.1627208264277618,-1.7290421687718858,-0.056954252405880444,-1.3124392016259914,-1.0200840155177666,0.0
0.5211348237713105,1.6225286017197482,1.7048161342600086,0.3676066668910724,-0.04377618208922096,0.15133295752379106,-0.20472203680207143,1.6763900249683867,1.7099215120062365,-1.3996112616642806,-0.34575515458134387,-0.9367741763340367,1.1614605121163772,0.17523897596835472,-1.6810109101452015,0.013341614024381875,-0.40525402139209915,0.6697082039185004,-0.8004120212625069,0.6599200707567656,-0.4061539441796122,0.44748902352575837,1.725873854784011,-1.69154467001611,-1.5225117464376048,-0.9826467341188542,-1.670762456035893,0.3027288327967659,-0.8645671929684012,-0.5421207132999718,-0.48737257788131705,-1.675366594102464,0.0
-1.3128243179192773,0.8421681131570194,0.37300495525376237,-1.2518318662279286,1.0250243497204234,1.392439759418168,-1.1096016359899892,0.481851671920721,-1.6645942468624912,-1.049868449970578,-0.4837554176562192,0.36504197008497247,-1.7376568570356175,1.1568899087129325,0.07156894732172248,-0.8589749644769122,1.3177850968114748,0.8587658020680445,0.7044179849412462,0.24520288732509998,1.5494294495622603,1.103495557693657,-0.44135850444334523,-0.42874130444537056,1.3231274732050728,1.4232373097555024,0.21307161020319415,-0.7868215097699723,-0.8482375926462786,-0.8180160189821707,-0.6395816010200193,1.249557467960656,0.0
0.5459484340005091,-1.30466700289907,-0.28995316639727176,0.6895312421704738,-0.5235692531621254,0.10550229904766195,0.9692261455895264,1.0602479654982595,0.7609886894660437,1.7134318651136,1.5881258933460036,-1.2966310810189956,-1.5278358703237338,0.7039397293584995,-0.30498630192655196,0.3768319079343498,1.611772330370665,0.9923927559557784,0.611364918504813,0.9960117789558799,0.9133659242498673,1.1494988796560524,-1.5033606382449132,-1.357594852272012,0.12112674694789057,-0.9051610170194915,0.3305665986053243,1.4941743617662488,0.7554079862096749,-0.32614233615925453,0.7974119562881625,-0.24769779439044054,1.0
0.20202124852438347,0.9897028666612602,-1.2771562903284355,-1.3445936645734897,-1.5590961636564837,-1.25646998361186,-1.026716362766379,1.0009936533556114,-1.389222028532486,0.1194065123110337,0.7209888165336822,-1.0905508317189785,1.0804039212928191,1.3053035236811432,1.6054961530372087,0.19298174534848128,1.4374260836718296,0.6298292495537096,0.698755883097665,-1.2314473210790708,1.5785613789025927,-0.5607322366382032,-0.8474653779252923,1.3716482810015131,0.8432859650349126,1.390512930031449,0.6123865981792738,0.018130492399784863,-0.42482566251446724,0.13074668577249823,1.1589731288959386,-1.291813412810367,0.0
-1.2399369158701694,0.6045239982345895,-0.3572469395393976,-0.2919073378160499,-1.2209307123443602,-1.643583014477542,-1.557607729535895,1.6748563336348206,0.23963048062547887,1.0138205454836724,-0.24549520979324582,-0.15637376007830572,0.3636331411028279,-0.34255929691084713,-1.5320265495436984,0.5351056616180454,-0.48324687789465537,0.48624174295185807,-1.2970132013927251,-1.7265562930714453,1.2630643985496548,0.5607279698947326,0.7182643158017443,1.2450955304083624,-1.2347894374654962,0.11949245638652227,1.0048953245006804,0.2551040089032351,0.6100567685766973,1.5474712363981558,-0.40855384038415915,-0.4533183504928285,0.0
-1.076857844818897,-0.6114149043864839,1.0282093313023837,1.6860021708736677,-1.3694739016235957,-0.21361896575184708,-0.22295304794320717,0.09216134990644147,-1.4025460334174622,1.1809421531731403,-0.6666627183471677,0.8595777319166148,0.059419374447471494,-0.2726487994093739,0.773218863805688,-1.2667344516197572,0.13450981727366312,-1.441563067370695,-1.025722658321932,-0.9840591935864471,-1.0702499937083885,-0.1469859943531406,-1.2156870617270004,0.6305838249781919,1.3425736323481956,-0.26866999671763253,-0.5910680506506877,1.5412169713427797,-0.14485764033295492,0.2668982271362036,0.3989256994004899,-1.0340826794371336,1.0
0.6845217815797607,-1.3490252248824088,-0.06560871413658172,-0.12160155580344817,-1.1076171151621228,-1.103063346742296,1.2035785494793718,1.2065016558890493,-1.2462631708781717,1.4175017465343547,-1.38464983417876,0.3949800367469567,0.5489454841094957,1.1685799144188265,1.10886127593004,-0.7343647474807504,-1.0187841415833359,0.8319996872354416,-1.3722457582958614,0.18157880931710538,1.6648931272791527,0.8167990235513796,0.8491885762989759,-1.0872216180773255,0.8582886491477819,1.0810807111774412,1.2826631385725007,-0.3617574366081155,-1.1927233788264697,-0.2841328155128502,-0.9244064959896863,-0.601468427580465,0.0
0.28201656255139956,-1.2552950073664426,1.2947598755064615,-0.38199059388389145,-0.5658861981142308,1.1051821667427344,-0.585099686939063,-0.19453422554284538,-0.48996659949948806,-1.1584560372606723,-0.03676276626980752,1.078954766957133,0.04499549782953859,0.7660551447467094,1.279227938285582,0.5210501694322084,1.237517226175548,0.5801566192417604,-0.5408095860278641,-0.7253034905600061,1.0391101930978406,0.6880194826207633,-1.234069115120396,0.905560764247057,-0.005774350387927854,0.007631157446586761,-0.8007870415454894,1.010403422275924,-0.5156825385897472,-0.19747753370900975,-1.5205064290543753,1.5614914488094978,1.0
0.6188196314834499,1.615809051249473,-1.2760080504189992,0.628835104703237,-0.4143578125684469,1.1859175014877188,-0.5954968250214073,-1.7322175806858664,0.40043550654296634,-0.08265938586537809,-0.7499889493528957,1.0898400616898505,-1.3622923467229782,0.4178085774661061,1.5934519534289775,-0.2817014634237245,-0.3470288694873817,1.4745946564317343,-0.4003040353500477,1.5458595982820553,0.10331346551744013,0.37213744528666853,1.2842521252877233,0.8236661027023573,-1.2952289976919433,1.0310584603919999,-0.07588109410861843,1.5114672023110356,1.0630969153270382,-0.28541871164104876,1.617635294814065,0.23462107363699444,0.0
0.14589673360410774,-1.6181215617151954,-0.15613577205740162,0.10960356343538975,-1.1887091718076281,1.3530068299214688,0.8438856468324177,0.5856162135589073,1.5257289702905377,0.4061688909093546,-1.4274167639029514,0.9888556463929725,-1.1564039113542082,-0.04291864750293066,0.8030579174348985,-1.150070298498346,-1.2572625096715861,0.9292980282499367,1.1538534866424188,0.9606303151012314,-0.37797226989746213,0.11317713686611745,1.4122887480291042,-1.3977490497318825,-0.9861561831351747,1.3134400134612163,-1.313304214749923,1.0941946621724676,1.0134079431400438,-0.765625725892733,-0.5279553356040337,0.3673152272835438,1.0
0.9207828831559094,-1.347251625279228,-1.1868300456653196,-1.4916681723208478,-1.2023272405256855,-1.6640727025820992,-1.5342413672463389,-0.5177087968313233,-1.1554483413009775,-1.6577729671614319,1.0193834140500284,-0.8205967033655293,-1.1043750835315214,1.3508285378354232,-1.3956534898294148,1.4875364949102878,-0.6061825900596823,0.816970061352489,0.9540747347480298,1.6735646652110578,0.6597923608922777,1.664060582831178,1.0520150169168956,-0.5850891482854478,-0.5713760025439254,0.6707355807505295,-1.6358146549749806,1.4485988093737177,-1.384428095149505,1.529353604434387,-1.0928993468450032,0.19049333705837285,0.0
1.1674370042147817,-0.2169180745577397,-1.3786795291628757,1.2672591911508622,1.4617211840522026,-0.20445575739634225,-1.2068491323366795,1.0792981815049973,1.2835250035655053,1.137279247875922,-0.16959990896766328,-0.7751075829686234,1.6656155281969502,0.5458237125487025,-0.29207584008466003,1.4770142904502632,-1.5879070584440726,-1.5751257201188664,0.1399286354571771,-1.7151779847309465,-0.7059870923679789,-1.5966959226414101,1.1367617803815244,-0.770052750650313,0.3189420784399997,0.3880421339481927,1.2453490083076217,0.08552756028833663,-1.4039865203720452,-0.2749381978515559,1.6883518425588113,-0.6941297129647337,0.0
0.32115132641650146,0.44775806719043754,0.7937050522453243,1.6103202359072766,1.0649105235955199,1.2152027879778637,-0.8861550536916074,0.9304770328336898,-1.6987197556220972,-1.4947824289630476,0.4437509028991191,1.458499240714516,-0.3061522150876053,1.5634592203347473,-0.711012712037851,0.7228198856497161,-0.8889197608409983,-0.9279270955258088,-0.772110763845,1.0213074710461028,-1.7282016755794025,-1.2395970540696704,0.8014174738310587,-1.380370754093298,0.8446093244264893,-0.5573536378648976,1.36135431278083,1.4780321241856667,-0.9647365008412002,-0.9025383704540355,1.2505219144823094,0.7663135031243159,1.0
1.0055791681955686,0.6966519960432414,1.5706927387655416,-0.7330392364395201,1.379935358652234,1.0272225430628483,1.3121516048217268,0.4449848291385224,0.7125080539292544,-0.8758335489423839,0.9761783346648447,-0.6820463217818009,0.47144804552485364,-0.4514328834668766,-0.2694363798774785,-1.001590187281333,1.0430092734980234,1.1493839881973624,0.5166203145622775,1.103698628165767,-0.35957760766277436,1.3871695345453696,-0.24181192617485156,0.4977612518974257,0.9813026664588641,0.5374315876585737,0.833696617422261,-1.1916555556479795,0.8197696413931588,-0.146950102074981,-1.6235645103987923,-1.4207592226977581,1.0
1.5462695617863569,0.9730454700591812,0.5792386997564588,-1.4218472573122145,-1.1636302791914495,-0.9890019391778012,-0.0705494103541138,1.6240999987130136,-1.5505433615045374,-0.4029716352309657,-1.3152357723083246,1.526050514380981,1.069858984968574,1.463789665902593,0.9450280817702518,-0.137685555990597,-0.6734379207522492,0.798206376436377,-0.9510513773096085,1.5386824171283198,0.23048926747086296,-0.2534978132138835,1.233587208298702,0.5197908559648585,1.5516259911478743,-0.2984038659417677,-1.5409791078167916,-1.2433236198643207,-0.010682886488833842,-1.6470553493761078,0.3288447373500686,0.2290967915222787,1.0
-0.9620433375255938,-0.8140202172799538,1.5469452837775612,-1.228244438203275,0.5064569042216583,-0.6334332055716737,0.6721042549313418,-0.9962816930869789,-0.6226716885831771,1.0653986387310668,0.640936598321399,-1.1765311522147481,-0.4630485685869148,1.108040258078894,-1.4381966241670603,0.2570021160536317,1.5170538898762076,0.5552567684359802,1.2154889808939493,-0.47422481082704,-1.6658861630503383,1.2907313566237957,0.6378937905189773,-1.4371446647012112,0.26647802562689915,0.4627804341925689,-1.6766093121972478,-1.4111887577954765,-0.8902803241523891,-1.4651670299729265,-1.65921842329004,0.9672327729352956,1.0
-0.37866864350788626,-1.6282453732659183,1.5384250641292594,1.1623497417582076,0.16194357939632625,0.762972364826691,-0.657708377131623,-1.1856151508641153,0.06353918457228795,-1.5943419387639088,0.21149782229782385,-0.8367271940276348,-0.8959055497533045,-0.9203786482185892,1.437628324940779,-0.8492230250633337,-0.315232253034146,-1.5322047094609688,1.5778079880807443,0.1771108952214025,-0.9755520029830085,0.012809634466809617,-0.964864066709423,1.7150343121147995,-1.3083196503493868,-1.0971942942798303,-0.45777352354150413,0.4094030923926204,1.597356923670082,-0.31575542578720855,-0.7043548113827395,-1.138521158811693,0.0
-0.39072778702107913,0.46017472296500933,-0.16424921613240542,-1.0687126768669302,0.5970051543259804,-0.5296042178656429,-0.38203425922715467,0.6551425708784351,-0.9441787774506234,1.5056728827363979,1.4018220153835772,0.919545394130992,-0.7898469637160596,0.7310788991340988,-0.2318586024465663,0.33973416850384763,-1.1871479009030041,0.46531478398332554,-1.6708769135095014,1.3231017288654012,-0.7294267171364802,-1.14105393625036,0.41191220115828436,1.4971721848969657,-0.526993510335831,-0.3578609021540979,0.2260082583966405,-0.5963990234724981,-1.046169659626941,0.6458432230156458,-0.668031700092179,0.9267327153146712,1.0
-1.2816216891930452,1.1438514255936454,-1.719688392772954,-0.21144171106870496,0.1357020158707015,0.949504825744876,0.37471185049952166,-0.6666744664167553,0.44103201397921,0.12544360728083262,-1.7222958892649374,1.0028699005324837,1.3343078919326412,0.892556105479873,1.4075871612531938,-0.8818127885968797,0.2527280997052362,-1.3135241887068354,1.4516273083525097,-0.7266987554286025,-1.7171276676036251,1.5390894640866735,0.16692624930494052,1.2164613447785406,1.203620896232641,-1.3100984605148025,-1.1359414040067672,-0.7961430835841116,1.516634755527803,-0.7350480980328177,-1.038067857907692,0.45377465128503636,0.0
0.5834494829674763,0.7020821862756778,0.038115379155919366,-0.40523295177235347,-1.2082511852038076,-0.4860040675966443,-1.1598157552211081,-1.7073076314926623,-1.3938866986266103,-0.9121325655987348,0.545687118752052,-0.740113283247772,-1.5103795607522257,-1.5250603581963964,-1.3868094628636352,0.41964022988304783,0.36172654178663205,-0.1211606001701315,0.20571973005414604,0.738774001445824,0.16354395238486097,-1.0106112137952432,-0.907291981976059,-0.030907784734637962,-1.3451800509635476,-1.5823358228033662,-1.4373326626057508,-0.652205571514695,1.1567328374391546,1.544963892396394,-1.1232149510440146,-0.5751263732961261,0.0
-1.0335128400350673,-1.0310097730077743,0.8661750997261447,-0.549270546757938,1.4273659912567918,-0.8838808353150842,-0.06931739653722965,1.542979524793008,0.6333638528888953,1.460359754839983,-1.5741257101894421,1.1693535708237608,-0.6817942877971425,1.1326857961900278,1.3427422137635086,-0.9098050549055825,-1.2346468766414986,-0.3644240589707734,0.537427613657398,0.40834768191645027,0.921166318926501,0.7870927104879573,0.29841413963152263,1.3975445059417884,0.742702966261194,-1.4604618176957602,0.09951539515222585,1.0700934473455013,0.3455373365721481,0.24212247667571324,-1.6931275312223484,1.7012243825238031,1.0
1.0517710206265083,-0.4587562566339089,-0.41786826923597864,-0.04316570992145392,0.9523858026803129,0.03798776819094358,-0.6782314044308999,0.2939354039239278,-1.4839882485157072,0.10364008713056166,-0.9988095181405222,0.5109951197486101,-0.9700805177519237,1.0750154747534293,-0.9818815314812283,-0.9691688222395112,1.0970199166457117,0.4770344321583284,-1.0393428504745332,-0.8982228055220176,-0.4591990881879931,1.508541485070032,-0.5715091250926188,0.9888789196555874,1.0075792659459668,-0.4681749635552209,0.3279412605700945,-1.247219386375965,0.17214372058192734,0.3085778340981658,0.04114442825367334,1.670693093860677,0.0
-1.0222727636845101,0.4323375229432085,-0.6530581085720863,-1.2589586359571994,-0.36496383650678427,0.9971779190801714,-0.8408388509652014,0.4804366941951857,-1.1185391018757962,-0.15029205006557625,-1.297962987934031,1.3091587839695438,1.1239172414442673,-1.2354101916897693,1.060716974807524,1.3559465340124321,1.667775818402323,-0.85193233444014,-1.533035881346311,0.46017333886527007,-0.8751693958335173,-1.203737124368534,0.13109792245400279,0.12861719913161493,-1.3554088044489636,-0.5971399644187679,0.010138957206814578,-1.0701862931839683,-0.40904012459777644,1.1240508068913848,-1.0678792715318788,1.304131991747531,1.0
-1.3483528292409765,0.7349601430644138,-0.689701746835041,-0.11883212781533958,0.16008050432456344,0.7198063305062621,0.5362967843731513,-0.7159310281787192,-0.4495006610438061,0.3457472216749092,1.4544594221440923,0.21288257114265527,1.0054425033148195,0.5571561886740729,1.6073700640171709,0.34961025151542086,-0.722358237113044,0.3487107913049785,-1.4045052443169828,-0.7903994963414651,0.565255821269016,0.7635849649142623,-0.6984215765579246,1.2769867068528378,-0.7793340153659003,-1.608883483498959,-0.40482690760275325,0.6069427262644036,0.03286219915954856,-0.1239083165606294,-1.0588374538900205,-1.4503948072599542,1.0
0.02860366425840453,-1.4383506144365277,0.4610097103882551,1.191876514011361,-1.5044661135308484,-0.3060651994191964,-0.7427467341676759,0.22879997539833574,-1.6854099267978677,0.669978841596806,-1.3805619051808924,-0.07648011079471406,0.4768997466482812,0.7245347362136636,-0.4959574196991469,0.9891674003169253,-0.4502061232002043,1.0298007093859578,-1.0711135330412933,-0.5912108703974078,-1.4475350796568038,0.3999310220954463,1.0843457504432332,0.7730238112943083,0.9602195993575199,-1.0459428152520915,0.9282179822703379,1.2055512152728534,-0.8002998213267678,1.5004577691240006,0.07577009794232345,-0.8150451256363623,0.0
1.0498264726864381,1.5490481951336854,0.4652341445970264,-0.6080787737370164,-1.5422068388666372,1.1623773083842885,-0.17873801269752462,-1.5510008893509875,-1.2072804960416705,-0.8611528158683762,-1.6857885549487917,-1.0417238593670073,0.8116743853632631,-0.4698536807054432,-1.2739311461417486,-0.04089414910927322,-1.5658632764061153,1.3613082963589045,0.5244550475326576,0.9372879938270431,0.6036166031323439,-1.4946807390113999,-0.18352796924606105,0.30670288454276257,-0.3720928333991382,-1.00126250909176,-1.491390411104654,1.156018448947358,-0.29038815125863193,-0.8592214709278878,0.7879912317900722,-0.4364871577154262,0.0
0.3772603733417994,-0.6297073381227453,-0.5590444028801406,1.6492015861565492,-0.07145246824628636,0.5580827921304256,-0.2546046296421315,1.5978488069545418,-1.4644581134575185,1.3523565448177557,-1.681951626259231,1.1993100908910694,-1.5627341823657572,-1.4589970298570099,1.41744870222022,1.1940528679589901,1.5343226386934081,-0.4559735719124879,1.6533473963637473,-0.05885905922019157,0.3788766689835535,-0.7201791088477039,1.2735184514690496,1.0813046717268764,-0.3878670929063995,0.1633349303618052,1.7127066890741816,-0.34259659445522184,-0.5973861829463704,0.29056915037437575,1.1943978642531747,-0.600705764157739,1.0
0.7998393669954381,-0.0372404746266077,1.1144023536393481,1.4048874962834974,-0.9608743332138113,-1.5375001318466133,0.85579339851482,-0.19253968945760677,-1.729247529385883,-1.2493667634971046,-0.373473074592559,0.1202125221487086,-1.6603026749662666,0.4032359095074254,0.10648535751675182,1.011279421190173,-1.2485652614726712,1.4735811479938703,-0.21672672791930378,-0.8468540594862106,0.44171651318711663,0.22691674272475934,-1.6155229742856798,0.14483305156100912,1.6887896560302171,-1.6585296271356371,1.1151380656274414,1.3283170183267017,-0.9563576306711835,0.7991564138993639,0.41409572430180935,-0.475184978241779,1.0
1.5496791498221845,-0.7103944516490359,0.8119290392768944,-0.6214773963913316,-0.39789831475400106,-0.10475379454144691,0.7170176273643991,-1.300496742615848,1.1881327985840482,1.156200575237129,-0.8400239342131135,-0.7641979297408779,0.6711202194234533,-1.040222495030207,0.019034561323792762,0.5728803974696114,-0.11294477834265924,0.34273997120275623,1.6146378634984815,1.6066885467785652,1.3013467613062393,0.4696885443029217,1.6590335337882844,0.633274182313069,1.6526039996354545,-1.1634289036241325,0.9089716337318592,-1.5780523027591276,1.250299206118758,-1.2767909196031308,-1.653748719478304,0.0524249588062445,1.0
0.4938382320625752,1.0309237426360118,0.7716700267955677,-1.3174033200947226,-0.721368549473178,0.5823552818339688,1.3107784533838154,1.610234101824691,1.7198828060604037,0.7349417470084605,-0.6918317375667142,-0.2193950918057536,-1.4123140529123592,1.4190224818713268,-0.5301943575582692,0.0838267855846557,1.4363886430162738,0.5306677064714185,1.3352412013123003,-0.07970216979568526,-1.5018103273003724,1.5604194183817823,-0.5397003282301729,0.5566604219525251,-0.7151272613313759,-1.4639752088659095,-0.46394375759277967,0.16026298646794665,0.01553721193657907,0.8304046105039363,0.8076898047634548,0.6127366039536717,1.0
0.9755491608028938,-0.7014892605493473,-0.7427009996952495,-0.025322554356660396,1.390990685403751,-0.758365051888743,-1.691290049769138,-0.4332547563156193,0.606148800689075,1.1356356408684374,-0.08015866460282692,1.4749862511674876,-1.4866425265974832,0.8713574817082304,-1.7392103897800475,0.2537682902736486,-1.1219472024626094,0.6240161203413664,-0.5583802969504147,-1.137363537708949,-0.63753797558796,0.24268519160522875,-1.6525542261696702,-0.3089605149519952,0.1661716873531619,-1.2035974528901605,0.01912457127602154,1.6904620044286518,-1.1315349057973936,-1.261703890089472,-0.1237839480226549,0.46166736686870413,0.0
1.0301762264950776,1.0411110012120128,0.16313156240264168,0.13946506110973134,-0.709202897807504,0.07748428032657499,-1.559077913088263,1.2068224038362134,0.6860144886105951,0.353475702925666,-0.27736344191989043,0.3053075589138947,-0.43746471261923014,-0.18539930596978882,-0.45190524954033023,-0.24899217719277583,1.1052076559894373,-0.5967302973940807,-0.9894617686286723,1.3033640973781027,-1.2663515776004657,1.0625034807160796,1.1374582106638178,0.5023895264449821,-0.6939458260522601,-1.6892205820310144,1.2769925310241357,0.8893811898020109,1.3043375862855402,-0.7108339680770058,-1.4695312340893605,-1.146768133875694,0.0
0.41567992658197395,-0.5254405387536711,-0.8318539947391784,-0.9675221525180724,-1.392798097496286,0.36651122436815,0.11200916207759355,0.7479707135457306,-0.914426210377144,-1.1843906269020268,0.5416784530094391,1.0681108078523422,-1.3285993557662297,-0.24522897805704252,-1.3276627562674825,-1.2955264325950968,-0.997794073417251,-0.04739953819449924,-0.1888880605216976,-1.3493395361849776,0.3697216226786691,1.1012588652986388,0.3221406391602125,0.6046446034595055,0.7278401494010935,1.1643257601035886,0.29056582643982815,1.6494458506980127,0.8051232341378408,0.5962947910591716,-1.3628735376107395,0.4435042203246342,1.0
-0.5904895764478725,-0.45962190742707326,-1.2277540221941354,0.5127570576477593,-1.3983902717817316,0.19550388987331693,1.7257796612708425,-0.039660157565170336,-0.06692832523880372,-0.42679291085330506,0.13021628971005983,-0.8222272462599872,-0.6737699055700386,0.3590259138390541,1.1764571671705122,0.25536505281852123,1.590657323661694,-0.21460699672893657,0.4361373609332717,1.506177345464316,-1.0217869857410817,1.3654923736691904,1.624542476614655,1.1558960573100043,-0.9257473629642811,-0.12443902073052546,-1.7229703603967212,-1.2974081039240442,0.033746300568375284,0.8368939359528038,-0.6054494269546066,0.8099044360362316,0.0
0.1268902506323005,1.7113165147493834,-0.9904714586156536,-1.2466934985039937,0.32832864312615934,0.39387076081707945,-1.5471907439755939,0.0773177247929704,-0.6992589759299079,0.7043696275772043,1.6076452038715494,1.68819763442104,-0.7767994441265528,0.8901759277353652,-0.9122059052240871,0.15516213388519579,0.30874284491920423,0.4751406105002647,1.5967433395620003,-0.7534449096789267,0.6892564182141107,-1.3498862945289292,-0.9400890612790097,1.181053662456857,0.388243996682511,-0.29309861469702553,1.6305365205050988,1.4041984389139173,-1.025170705535473,-1.1424255155821736,-1.3508417170751474,-0.1661577815132255,1.0
1.036747178075898,0.4234257683581464,0.7944398963641754,0.08532968967942521,1.7185321114748373,0.9297196625130826,-1.5426155327606257,0.7604430159049956,0.239804323896741,0.43569795204739936,-0.47212353494756487,-1.2856764014822588,1.7175080327672259,-0.3189402161670189,1.140179421430117,-0.13628084818973307,-1.2065918054807225,-0.3962623089312386,-0.6399487951594535,-1.6260128933371518,0.6886690437283087,-0.8372187272558906,1.1769632570316977,0.8447467108605698,0.584877373038589,-1.5673618658318946,-0.8691898945451224,-0.33528127894715815,1.3838356140155974,-0.016517576069026728,1.5910843135737456,0.8891193310141419,1.0
-1.128253572703093,-0.14562330860109018,0.9364487062270958,-1.4890021914827754,-1.659849671039532,0.8145919667853493,-0.9769256563983418,-0.4719753010269455,-0.41381429338514275,-1.0753487689810626,0.7914509147791545,0.3588984623843956,-0.6421651484658398,-0.6145726938018752,1.053346491957477,-0.6354451285073613,-0.6193181268553453,-1.4963828508066621,0.8044762062457042,-0.7399829035841178,-0.7377929594853003,0.0954339505558124,-0.34344596584161197,-1.6976808959922332,-0.9989793973093031,0.1993892343541725,-1.2199399603610395,1.2603761407594745,1.2431151093561243,-0.30284122314410894,-1.18741368972148,-0.13743955883678277,1.0
1.1076082727829102,0.8239697560444467,0.3675528385281116,0.7093990062431161,-0.8749649704666448,0.48775747013195636,-0.9357950662455269,1.4777231706045768,-1.619488259891877,1.0788187340511226,1.0448129745252737,1.1871699645962974,-0.38372865576800597,-1.3653725371092575,1.0515741350725407,0.8984993074380191,-0.09939799610453745,-0.8109158622968999,-1.1020022106367764,0.6810207686926154,-1.096481953728766,-1.6656675799533385,-0.19415818224674428,-1.1647045235586115,1.1873409628115255,-1.7199604614335475,0.6302076318474878,-0.4715409357227271,-0.6160620523919176,-0.6115821214564822,-0.9630687459773886,-0.6839861347440144,1.0
-1.2639712337809612,-0.7004449370987902,-0.37968579824365795,0.41934280334875623,-1.0250807514071665,-0.16394557721245076,1.1918310478041776,1.2082049380912308,-0.41420898476066925,-0.6829787596258954,0.06792637986517229,0.21337121731564357,-1.2099965493729503,0.08417132264019232,0.5382907929937726,-1.2794906431152497,-0.4594393011154594,-1.5736973162328731,0.03945716706827456,-0.7273105254094485,-1.647905123162982,-0.9818178680365092,1.7328690414332113,1.215833287615319,1.0251103196281086,0.21498086322849017,-0.6159436266283953,0.7032892105220151,-1.7432496165864575,1.0908967833283127,1.019266504162665,-1.4121595351380538,0.0
-1.3710753138634102,0.6410527114433601,-1.5775074572605734,1.1127874732677103,-0.6238973571750085,-1.0636523422935042,-1.1242277570607193,0.608494759086739,0.33567478440128407,1.4080943751203177,-0.15478648726336142,-0.8183697464109888,1.550229245640201,-1.352567948938045,0.21903364083907806,-1.49440102814915,1.5105508676131818,-1.242829678696524,1.1671128585794972,-1.6968908154037503,-0.36831441873169485,-0.1827808228203264,0.5258688875050934,-1.1162397017286765,0.3321818203668773,1.5666182224307723,-1.428454330300972,0.27750927490178845,0.4215375994627385,1.2631193990184613,-1.126295097101126,-0.7830457485591042,0.0
0.8270637747276101,-0.6501081092162417,0.226928389657862,1.2878163565876735,-1.2220624180171564,0.15838989961030842,1.3138180578783356,0.7353280829662475,-1.457056717530821,-0.7916846925010543,-1.4705161589477949,-0.5625014714097093,-0.8394631551855619,1.5935924031679116,1.7124145558796824,0.5306356644662535,0.25900743458999925,0.19437580851912697,-1.4509354046143865,-0.520079960744745,0.39886431542580936,-0.3869723931358436,0.45685588933156906,-0.5555658548377646,1.5484782094591991,-1.33437724719103,0.16860638404083642,0.1859019230134287,-1.1373449358599454,-1.5511348637273246,0.09120291308264297,0.7611775141517998,0.0
0.08524746186722172,-0.48353633102391097,-1.0620036419808232,-0.6641212672690591,0.1753647976813956,0.5139739807499711,-1.1492002948812372,0.04381836678019321,-0.8149595070937017,0.4541539827915502,1.4255848457413798,-0.8961434684909211,-1.2064955066884724,-0.1997559245636661,-1.7336545799555612,-0.3737072955292432,1.6686569760812917,0.082412214745866,1.0616747153435977,-0.9039311254184837,0.1955866144519563,1.3066734087948002,0.04749694894383467,-1.2558373070933904,0.09439980564692942,-0.550750358289669,-1.2038170437640656,-0.17570078959537813,1.2778253634435743,-1.162800370940429,1.439277115044676,0.21580045862505706,0.0
1.0897626260056297,-0.5886673226338442,-1.5750447364298286,0.9154310004288903,0.7660517538726176,-1.3272506157718762,0.9982571251063552,0.5525924473298562,-1.0676567432051323,0.6389303995623076,-0.16491677163635382,-1.618476923280681,1.5785766213520354,-1.4337516924406473,0.5072096689483946,-1.3808788575347613,-0.9676673570963354,0.06511214624455558,-0.34473772215961057,-1.2778053796527098,-1.3740640647861313,0.1172041131947774,-0.6527490300847676,1.048430716347286,-0.07285068860836838,0.05356209632109711,0.5945793578807719,0.7507757777175775,1.4093091722653754,0.3448437876707675,-1.5472346409209967,-0.8020798474500197,0.0
0.9258202935203563,0.0037244254185730724,-1.169436528113412,-0.32819290350763164,-1.718513311872573,1.5528017523189444,0.9167722017163753,-0.6770298323247375,0.13337493646128842,1.2805472370502378,0.31963932355057195,0.9971692745596907,-0.5575430054683992,-0.959342354491731,1.5134720799875916,-0.5050294510987584,1.5334360720192433,-1.4804713807239964,-0.4638438585168347,-1.262109416510049,0.2559262730170003,-1.7436387078442512,0.6639026048087086,1.3698178552348617,1.1930955012111346,1.6058449749340442,0.812677054577442,0.729802236635764,1.4426020819614018,-0.005518407277945565,0.03089408108246223,1.2683239385105332,1.0
-0.9965347566125887,-0.8400779834893526,0.03384607458553658,0.6395537072634032,-1.322153121882391,-0.5048179512061323,-0.5245942828413701,-1.70972909415585,-0.3883264822710386,-1.6441845417856007,0.7811577003814714,0.28529890058882734,0.67711783963712,-1.1058618627813335,0.9681436972120078,-1.5873545127089161,1.3811492564598515,1.3545306500531253,0.26833591514786514,-1.5506961890786999,0.4496122408954774,1.473058212508182,-0.5609900938664921,0.5949058784493522,-0.561459260622377,1.3597654061746727,-0.14086778920951995,-1.0544373190998293,1.6088997022035043,-1.063930610400957,-0.9703978435150692,-0.11197000388391987,1.0
-1.6352281566693458,0.4586104256176314,1.0401727995195966,1.7087901002101855,-1.3916228930386723,-0.7150396955535192,-0.18909398564040272,1.0587607273156618,0.08162261532585317,-0.06224072958008965,-0.5120032272071939,-0.5832180023630181,-1.182353352012744,-1.3778471190768615,0.5522207418879,-0.45126929588275366,1.5913123437338066,0.3883570367837345,0.11550388240643547,0.6269350893082891,0.6345952255550017,0.23799635273140418,-0.2603175148733103,-1.279491567587935,-0.12114024187730801,1.1222246928048945,1.3373967621873037,-1.1580914379378395,1.5322842778431358,1.4460588387650986,0.723755824707165,-0.6401167445986491,1.0
0.9514087766408253,-0.3256465854285659,-0.4821049731509318,-1.650642796863427,1.103003662815085,-1.2694357261094682,1.4923909626995742,-1.31544802106331,0.06629008646560787,-1.0761419049207208,1.3159850473757477,0.4564357815666881,0.34774544167859944,0.4450935251275751,0.6725120665117393,-1.6608234296678794,1.1267565380823075,0.9652362413472608,-1.1137674168095768,0.6998568444186667,1.5437494460267813,-0.9577242113572585,-1.3656172289081963,-0.28370923868788894,-0.4263413464371174,0.19641095498104325,0.33787555195617647,0.20293822057420735,-1.689589916218911,-1.214251560890896,-0.15076883872736901,0.7066834335656993,0.0
0.9519700438871638,-1.296510778408126,-0.6713240236464739,0.253287221386208,0.6678727847367383,-1.1369251215656813,0.3338583899463278,-1.41004359552222,1.6259149221297597,0.08746937578993023,0.8712455274118591,-0.4415017545618472,1.429329419110189,1.4064909329142943,1.4800714139870965,-1.2838922003612583,1.439612866460483,-0.7482023484898922,-1.1577905670367654,-0.22296520663858563,-1.3546284273501659,1.596950510804362,-0.3875511581317803,0.5346707432793312,-0.5957651626200451,-1.1581832791224869,-0.38303644865068365,1.3271848495888934,0.7581561196098391,0.6663147507558541,1.5741649001628062,-1.6263519330768008,0.0
1.6421166243808918,1.3250298758468773,-1.5136311873979096,0.11894114654257444,-0.9444406397632403,0.1732791996443409,0.13351133162274745,-1.5960788795805865,-1.3559620055868893,0.08473713641299824,-0.020545357460852013,0.4279592246063911,-1.7170307477904656,0.013709557502253507,-0.7296589027420681,0.7033660550841949,-0.24472780365024915,1.0683768001848537,-0.3004771090555398,0.13465037873124905,-0.49754295612633725,0.5665467801864148,0.882756207067258,0.23722502060640402,-0.2597686704067734,-1.392479686111475,0.6020584294580753,-1.133941065173818,-0.4435432640195222,-1.4627977893739548,0.17930028500680406,-0.23821941956073983,1.0
-0.2897203066734637,0.768931284805933,-0.21185446306314853,-0.44895710645974335,-1.3847869484144597,-0.47020633974430803,-0.8316656406902032,-1.2405906116564343,0.363445687404067,0.5365813152563462,1.216663785027196,1.6296841005462201,0.17370013780334392,0.4529273777119741,-1.4265111252286424,1.6579200657559174,0.8388295751024347,-1.3181446848782474,-0.4357862318431418,-1.5184425717426633,0.902914656239404,-1.5230230262206186,1.2693259720534695,0.12672227849734674,1.349219632358855,0.7737415438952062,-0.7322799719746971,0.6534261643069283,0.11078213678748677,-1.591527040078835,1.3724779752812966,1.6517796597709231,0.0
-0.41451388044103615,-0.13449309595974665,-1.0212032428413638,-1.2635309999887938,-0.6154829227491957,1.3571060830452544,0.8614697772105117,1.693090301417396,0.9326816761454563,0.7733827452479105,1.0929947588538218,1.6973446183722052,-0.08496698443496982,0.8114617443724018,-0.2605935599546569,1.3591101037117723,-0.3477997668796588,-1.062982453299536,-0.6059021696947835,1.6043150632438539,-0.6309538458806179,0.18497294770799924,1.3929446634475293,0.07464420848877862,0.20999471055018318,-1.2822909937599398,-1.6266083469903778,0.995124520964878,-1.544328345232283,-1.1474417380679498,0.6505840216480452,0.2682308617143695,1.0
-1.4911673537289112,-1.061754597050086,-0.37273604125175985,-0.6426449000133557,-1.0008548773339356,0.5060531917758954,0.04409917851840074,-0.9563835978661791,-0.673813692998044,-0.5686995582665022,-1.7128679654037868,0.36427652283211914,-0.6904673127083247,1.4463538352264316,-0.6589140685477667,-1.0657091831782235,-0.7030109778725704,-0.40364622312432014,-0.7343310369197337,1.0802505120828614,-1.164720415261259,0.07378779026722933,-1.434599343255455,0.8032304432203136,0.7499514713607016,-0.6722971807556687,-0.6552256109722201,-0.8703807856510354,1.5635276797277915,1.4345885839222783,1.2905897866786138,0.39446790151414723,0.0
-1.406114741915334,-1.6424341700913658,0.18956903234821848,0.7940047357165477,0.42825346179505563,1.7393663699740605,-0.9619746247625385,1.4059154474263695,0.7194886446843132,0.40981040661377244,0.8838344405358133,0.17471280943359263,-0.4808434718191999,1.1559304081321582,1.1060125849120184,0.12526249315152688,1.2618449679927775,0.31614532607565293,-1.0191816354405405,1.38412846765647,0.3554770225831958,0.3966015589876857,0.9249651324247073,0.8336244173808254,0.23075347006543878,-1.655765392481316,-0.584549917163337,0.754474912481,1.3642354567335497,0.9266580788016682,-0.71053038199923,1.67216737021333,1.0
0.7731688607977103,-0.5274059379849921,0.5069187105341425,-0.21127028436293088,-0.46340453561910827,0.2804027912159496,-0.6410519325750731,1.643817517920173,-0.23514220816759226,-0.760063634250621,-0.000930637461388524,1.542581813006731,0.6454563178923527,-1.0728846510068324,-0.2996575090276316,-0.5811698693178998,1.2086567694992782,0.9426451076476735,1.5671237005877778,0.9928456009848342,-0.555121032030385,1.5607464745809154,1.4556295656191944,0.8647170859405199,1.0892878706098574,-0.11777611441220082,0.20965545230446264,0.4307222752193546,0.4281312648649322,0.8149631155897834,0.2254413618544076,-1.6657257858865844,0.0
-0.6538855221501076,-0.3490031127686464,-1.2658776468105721,1.0404084580203283,1.6004985275061234,0.9614810177469223,-1.5510514459841112,1.0085883748631745,1.1946358799244812,1.465111219820475,-1.3839724269139428,1.4080203195179106,0.02416273561185904,-1.5151094001445145,1.308295064730774,1.582580373743841,0.1758580720131705,0.027819016277880703,-0.20265319754720057,-0.2457202900614852,-0.8505765489070276,0.45287382559110295,1.5641506985432247,0.705728023712322,-0.25255859037670797,-1.2295412017005445,0.8747364901060791,-1.0779793623927898,-0.032420652596768865,1.6163203861356317,0.10630112902330574,0.13578422560866418,0.0
0.9529334790029259,0.983475577594006,0.6095519391336942,-1.492968650778444,1.3102974904969966,1.4516344654288929,-1.5412813411868518,-1.0656782765244357,0.5286654370814606,-0.20705088668897723,0.796407069989675,0.6538325964572874,-0.3852846515507149,0.28543409609536,-1.2813070374727424,1.3258162390716004,-1.2766698226279558,0.6789216386300835,-0.9613100819842664,-0.8560444085217784,1.2378119085487955,1.693599492721585,-1.2147003234778087,-0.15508190318639403,-1.4581804951780888,1.2350690685604981,-0.9510811305266914,-0.8028792571462409,-1.1173058191371512,1.3871178409366638,0.9897163529272506,0.4296973824994213,1.0
0.5426110299412448,1.5829485970884,-0.2511844383852069,0.6060397862845737,-0.5073906542801455,1.0189633775160658,0.2569369163028972,1.3250147042839615,-0.38763633194521246,-0.6099286608795608,1.5820409706671312,0.1988454347805419,1.6200709707152225,0.29163110785148405,0.021990423829067962,1.4969101411933108,-1.6970596568885599,1.5480127789963671,0.31986381746457154,0.5902687551680542,-1.5627527366466587,1.3489907608920868,-0.18775287667922064,-1.2178989690137867,-1.4589274785280382,-0.9419170819113796,-1.6769587442299583,-0.3827739908848524,1.6014126616014825,-1.7073021916020317,-0.6435509559090946,-0.16186644614884027,1.0
-1.1069762407543022,-0.04856467472454913,-0.20787718363309,0.5468650608310817,0.7927312543165751,-1.1096722870165685,0.3180134867106849,-0.9800496349056689,1.1849252783129924,0.012502960644440014,-1.6920217292717519,1.4235817071598138,0.6757821778473369,0.7663955065065825,0.12421558831474806,-0.4222398328023613,-0.1976541737263062,1.6851181183385242,0.1429925233556507,1.2035551282724446,1.3070160014349108,-1.118845115296918,0.5071918935708596,1.1556795388258616,-1.0904910056891937,1.0853386721908724,0.5928352629104907,-0.9747830268436082,-0.7396878689716294,1.262659054342495,1.4835267133115737,1.3981453416986607,0.0
-1.724557300808699,-1.4106898992436618,1.4213222472795353,-1.5812408428124398,1.0614689587221564,-1.0201150438285072,0.500178785042134,-1.5473790182786429,0.6114685540113888,-0.835534304497692,-0.6456601574617137,1.0892259323606566,-1.2450067211478588,-0.5032938978587117,-0.9440209113879415,1.6316602233572293,0.8893466776989448,1.6806935875448266,1.5875516758665797,0.8724357760830646,0.7603979243256466,0.7586171207520774,-0.4734329022116766,-0.9681180246939275,-1.3187282331597903,0.3080276313851979,1.483598818153875,0.8202666664875845,1.0658496856227035,0.7598383751251075,-0.9578893337087337,0.4320317823065077,1.0
1.710651627271714,0.8187051114986558,1.253618167386875,1.4288983187150845,-1.3149721360497952,-1.4016240324490137,1.1627184731001923,0.3490258915662644,0.1757389748401073,-0.42147250498560695,-0.506369664731856,0.7199651723224177,1.5039727649580092,0.31362802385339894,-0.6165170096204061,1.18187238090442,0.26729549461385904,0.7954705160459485,1.3227497288082564,1.6147228192087246,-1.6556855286555443,-0.25887176507356946,1.6080057318406402,1.1926304911940921,1.4741841061948047,-1.5605307815202205,0.4147490665557597,-0.9038419789304654,-0.9019915765556757,-0.07734138362216142,1.3044168312306277,-0.9978785981347855,0.0
-0.96399304146399,1.1082539980317756,1.4242329361466968,-1.1835404912234004,-0.27676746985276834,-0.19720222071358703,0.1662905441063378,-1.4578733819330056,0.3930908148592557,-0.46252519181968693,-1.1645570579878184,-1.117387988150262,-1.2693131871973897,1.381220540995358,-1.518937631042936,1.1576912540854856,0.7729257304018997,0.5609887557341136,1.1131579006250472,0.45822763433972163,0.9250103927864628,-0.33629263253466146,1.243982704219766,1.5232879995055557,-0.38022818910136297,0.5808459721962405,1.2161760313662346,-0.5576441348464095,0.5171318371080429,1.2409906304447753,-0.17702036132324733,-0.5142571690486587,1.0
-0.6721650093579569,1.3273941891336833,0.43123932882854943,-0.010047104837405117,0.4588943007275695,-0.9231924462133616,0.47738358906267264,-0.15322188994811306,-1.1033446030807164,-1.4205613704837423,0.858677164020749,-0.7114927897259451,-0.4949296591149924,0.931777351922719,-1.2364412507231262,-0.16284378488396964,0.6567006627001215,-0.7328803055198819,1.4842368208220227,-0.8237800583790603,-1.59696653162986,0.632990339579927,1.5569331483449107,0.9864096875811114,0.9573469411660483,-0.9183461716980674,-1.1227166276459983,0.7864659762053653,-0.1764503550120071,1.3735468798891863,0.7635089597567609,0.5977107422398013,0.0
-1.0154167590533838,1.116672761937664,-1.440900009124104,-1.1150540444502326,1.706803659459957,-1.6034448292731494,1.4874033649981666,1.4745724672063423,1.0495289760128117,-0.7630252141402253,-1.2720960117168232,0.2852088479708446,-0.8418901450160796,-0.9005207146540145,-0.8862357260360713,1.392052320115847,1.5731864772162876,0.866910613079281,-0.20568933004448006,0.7604634704910594,-0.9990961865605008,-1.3110177578016462,0.13588954809913953,0.7573715211605191,0.48543021931757147,0.8150766368787375,-0.874319495481441,-0.36484209715834487,-1.1968193031855445,0.43280491387209846,-0.890396549942413,0.36246697745225903,0.0
-1.4459131564221037,-0.6303892113254485,-1.727687086414984,0.5410446808251236,0.4755123110629608,0.4192848146816771,-1.4730133679326574,-0.27908264706369185,-0.3506741188193462,-1.691311076876767,-1.5075027423906209,0.3410171126251173,1.4447641376302072,-0.028423771945945645,0.9624180889406384,-0.3377845522642046,-1.5196726071595397,1.0137529821266005,1.3621839860380334,-1.7268721442395012,-0.6010208115478696,1.6180557108394027,-1.3915472894409497,1.688596023168125,0.049311829163883346,-0.9720117693757913,1.6312844276628289,0.17594897694523334,0.9553091881463601,0.0013560732164801604,1.614607095664663,0.9102743458331652,0.0
0.1978927670076814,1.02311829997448,0.17604025053249134,-1.2807416501219382,-0.8594145235281321,1.2717197148041435,-1.552772295832158,-0.20358374176248825,0.312555121540339,-0.3829043403721431,-0.05151380485654764,-1.2987952963954332,0.36639455072349264,0.8344601318188914,-1.2173254970958747,0.7760253948573473,0.19779279576336878,1.143272317979908,1.1536591988340603,1.1596763480422343,-1.3509350411855148,1.3812639226084198,1.6397465842853012,-0.3893886860544533,-0.6575972473630642,0.5606401507407608,-1.2814951715968628,1.2097803340451545,1.154726607319125,-0.8817430669583979,-1.3894795214592217,0.16321535707271706,1.0
0.27602750221022126,-1.2547334647289223,0.4222012610724685,0.6052787108235941,0.624130701631203,0.22946725075200733,0.842155975883057,-0.7781627660929731,-0.49259812403915154,0.2912501823511638,-0.006715387256934854,1.1435379949112325,0.23811712959684211,1.368014349264642,-0.5763240343467555,1.2246836225266264,-0.9333077784193063,-1.482908700109314,-0.07897667179336082,0.1864070390656879,0.022855461998901375,0.8720172701765486,1.214871609581636,-1.3105919141080602,-1.105502911818729,1.2382675082158294,1.2013328329592294,1.707983736617853,-0.43507320157132245,-1.6920156793954542,0.7832579517876259,-0.9293672898137547,1.0
0.5395763566408321,-0.7994397991605473,-0.8577861214318516,-0.04681961104237092,-1.258960446555547,-1.5443378234540548,-0.41983782400096165,-0.7928965258176454,-1.4364924761465834,0.25045917892256875,0.2763410364485609,-0.44041743246498943,-1.2193323617520129,-0.29732126653878527,1.0147494828103394,-1.700112441540317,-0.5620986319805651,-0.25982294567740627,-1.7010439506739399,0.8450625192709204,-0.46797433999551347,-0.694488921907283,0.587190268747124,1.0684118405718392,0.5965263170905749,0.549642838866573,-0.3457912852343661,-0.3062949941253068,1.2058669277978824,-0.35579313673822516,-0.3795414924285585,-0.9884744785673382,1.0
0.07045784895484701,0.8415438527703736,0.18691506079585096,1.2460325748716745,-0.11804777672883869,-0.8455390423692514,0.317837799776177,-0.4784204913859366,-1.0363283950633881,-0.2059306464924627,-1.1489407288645457,-1.5113563816453561,0.15069640634195927,-0.07973189564503519,-0.7215306058256653,1.5152248163099005,-0.7879091333193459,1.2317062876118732,-0.6678429733594481,1.381584792472952,-0.9941035034311828,-0.42193950591422885,-1.34480770677031,-1.4311850318149917,0.22501583869638403,-1.2636691032236396,-1.6875566499588623,0.7909977235276644,-0.04528030945242983,1.0919862657280994,-1.3719993870150686,-1.691472251088267,1.0
1.0875219764474124,-0.07920010734396724,0.40027877931659017,-0.4159508154243052,-0.28620744342572085,0.949192028394728,-1.448298112233804,-0.5738743431103615,-0.007297844870505687,-0.2698835715694643,1.267341627977243,-0.8917397478443224,-0.2408958810985762,-0.7589315255638618,-0.9178761520059397,-1.1224954765326776,0.11007012774816408,0.39775265805741067,-0.41470600463628027,-1.122417337775897,-1.2819692808787173,1.4940874611036141,0.6245596985287245,0.2853781172428574,0.5584916463542715,1.0779801205364214,0.7785967032117661,0.35389917290042083,-1.5054046987664036,-0.7469786975516033,-1.3210532212043617,-1.434477882399045,0.0
1.5286448863659023,-0.19774394595295633,1.2904537919511512,0.04429368307654409,1.4685755603648971,0.33422878382904014,1.7011026303443504,0.8968051345458864,-1.2342717157033851,-0.9365786471049568,-1.5776323753154406,1.021800141850397,-0.5151879344167872,1.3116095773873375,1.287479075035328,-0.0703467119632753,0.007974973574311943,0.7976047014876145,-0.7404403091158851,-0.9670277626409871,-1.1589804441735643,-0.32148985195779306,-1.066431706149712,0.6272623392959211,0.8004958077044878,1.52596348587488,-0.14807405858584802,-1.478630375064485,-0.6739722403019004,-0.16569840624482324,0.8847759601034875,0.2097919703210653,0.0
0.5770000656329102,-0.0828545101447648,0.8407976001261781,-0.7101434265036789,-0.30908559243714623,-1.3741877583324078,0.7965155976833541,1.1784992540742218,0.6884662010113136,-0.6084916073466305,1.4859731713791804,0.715589500851912,1.0084133021120913,-1.6544051878512631,-1.3031243621513247,0.2472317160272402,-0.6293563204402687,-0.3181088667316895,0.43779960107144733,1.685094766103195,1.2439316741338542,0.7472802058683898,0.7890268827332255,-1.169179238897556,-1.4845862028985162,0.10155703784125611,-1.1467845251972224,-0.28162999920773585,0.9645752509888708,-0.7535524195243979,-1.3047388364832124,1.2264223128148792,1.0
-1.0504105196915636,-0.4082290876755256,-0.048961074399003636,-1.1117245240355,-1.520258384222245,-1.6686945026810156,0.0038617248736490277,-1.7365605816256282,0.3802256666773963,1.2724923866083704,0.03780047151607487,-1.182341022347061,-0.71869670701035,0.05334719789070288,0.2507589080014766,-1.0162100960364968,0.16034285471555432,-0.6838950850094451,1.4925372277457687,-0.10852588876793057,0.4805185947295681,-1.5183481376112118,-0.3767757911476478,0.970140089428703,0.4908527651172028,-1.4063329660909019,1.6911461196173159,-0.6559646175139038,0.19941175739053021,-0.43583633451294074,0.8300498928318215,-1.7465712026648053,1.0
-0.9718029057854157,-1.6900369416777279,0.8714609754399233,1.643277759000555,1.3423995936923654,-0.9698277539476985,-1.5509874929995835,-1.3842060580128492,1.5439937053999682,1.4725177422745959,-1.6023830606878084,0.057618571288572305,0.27553017550529485,0.6211920682604785,1.1477672648620663,-1.423729963045657,-0.44072540285094947,0.8774575309470272,1.3965652182837647,0.1866462273288759,0.5915692756552244,0.16580838445643878,0.14829249272747874,0.7302468225513501,0.6626358805638589,1.5508415977637704,-1.706079612885766,-0.17237033935987162,-1.5431598475660713,1.0872431810833962,-1.6623535719553142,-0.1998542007298961,1.0
1.2400327240728792,1.5510814170472003,0.2679884484309094,1.5851160767092018,-1.2182595920495456,1.5248685104497666,-0.18840299937078991,-1.1798291528379166,0.02386710551842113,-0.35175886965920633,0.35838437698960796,-1.4894964776981516,-1.16093221316525,0.36501615736910176,-1.0490476922162806,-1.7026499136937714,1.632102177507718,-0.5769408562039974,0.9326120997913839,-1.6661198586478592,-0.6727466168861195,0.09537039935124161,-1.4044582730113613,0.12330097932947814,-0.8747127227344168,-0.03968342764593266,-1.3745529066588076,-0.7045679915919446,-0.9613113806979136,1.000897864694706,0.646718560574388,0.6209851260023028,1.0
-0.9114106973936376,-0.2341975437180066,0.32252506286108684,-0.41555254389666624,-0.5558711558606392,-0.7887641308125924,0.5597542980429542,-1.3617448534921321,0.28719191053911375,-1.2190702937205027,-0.3857023673917456,-1.3733581259489318,-0.5996078997585427,1.5773678753953804,-0.11081094934770445,1.3743587768012235,0.7584568994057408,0.09784601922035385,-1.3585484678066104,1.3917794255622895,1.3199121004203096,1.137591553960607,0.6345645140475256,1.6396305983181154,-0.6089464984413714,-1.3487213011328665,-0.10484104011778377,0.99597556775015,-1.0632226156471947,-0.7859606847124045,-0.4817409219455465,0.16940329559382084,1.0
0.4039050995478975,-0.5757197538201623,-0.4656552043522636,0.9967862726665453,-0.3229056724609666,-0.8682015027214486,1.7233104879946408,0.030637469530756585,0.03311362766757052,0.3441131705221193,1.6990518833990949,-1.103753874160432,-1.6956659561964766,0.8228752818719752,-0.46021411544077995,-0.6182584818949939,-1.436182940192633,-0.026867571940421546,0.41945019694873115,-1.3866329728870321,1.4429501412708698,0.1429919519861241,0.31107959678312136,-1.1388359392758862,0.596763015518337,1.0702699239867863,-1.5335674704914144,-0.8090178545360399,-0.6040617668357454,-0.6283294607681253,0.6684644528516049,1.7283492110310614,0.0
0.4265914921820496,-1.0875184649699774,-0.3785346160154276,-1.0421607490855282,1.152556888665232,1.1970210765830438,0.05532329484895199,0.6355068976991726,-0.8695791230422718,0.1302193294309341,-1.1324899338040064,-1.6961605927426309,0.34491590521398446,1.5681327080228682,-1.0353968023691016,1.3774107322101448,0.3240157669704681,0.585931473966269,0.05732393560356131,1.1742070350309022,1.3829426106873268,-1.645399395783377,-1.3352923998978214,-1.3507322912391557,1.4569343240209776,-0.9988361593149857,1.434679866171098,-0.6501240401175035,1.598019999726702,0.3824063787473401,1.3815610448792763,-0.4186628008053867,1.0
-0.2913105638714226,-1.637400706085957,-1.1389629323618928,-1.1759895881789815,1.2794856054953696,1.2628802663227405,1.436290963616551,1.504563506293587,1.2819260931349699,-1.086187313402064,-1.244985042743532,-0.5982169302106357,0.6580992271006174,-0.7601392623156659,-0.6379881915184115,-1.0319474581004984,1.1976317810215122,-0.5770388388928545,-0.7263544430099177,-0.162829290802082,-1.4282332159911653,-0.41768622529612115,0.4025791088607641,0.9891200076131074,1.5982279153669283,1.3445529422308151,-1.2797480114333124,-0.46905845990142686,-0.3576865069259808,-1.6993152114740218,-1.0368822461317404,-0.25697970217209626,1.0
1.1266118094699598,0.8755157237880453,0.6761020412005864,0.8560013516413807,1.2659987703993043,0.42949311698744286,1.3632889993237327,0.820921331708086,-1.402458738727601,-0.8275522255646534,-1.5738504905531405,-1.1323979880410742,0.3758768427734995,0.2139516114369639,0.9225110899985801,0.9308351513345557,-1.4909979748951596,0.9933052197457594,-1.293523730675943,1.4050605072016105,0.2698541214264129,0.5699568448219237,-1.082526812208126,1.1189205354683958,-0.4398838779111967,0.8521996355742966,0.3911056982723458,1.7231151641177325,1.5674211263166629,0.7917755542613757,0.6733749634803529,-1.7300571417366095,1.0
-0.5449223363855612,-1.6841137607661179,0.7561397326200867,1.1101089309899907,-0.37406024340643196,0.984359074403544,0.6966886642940346,-0.026919459222531292,-1.3769224305635739,-0.595453011148616,-1.057021773853964,0.8936906969991761,-0.5326521511543223,-0.019264385299740217,0.5942778789483903,-0.41370785712418656,-1.6430501001629834,0.8577078952242918,0.13721477400709473,1.233867640857225,0.20242599066359987,-1.3998344412628572,0.0842579673479992,1.5822009898894303,1.5971228103697817,0.07724002889381297,-0.4773999560453868,1.5927083742228283,1.1926888707844965,0.7406404676550721,0.9351277921759915,0.8221921349545135,0.0
1.469968888845474,-0.5904868666346405,-1.2228168112574693,0.30024779405329793,-0.4888719682284881,-0.41026910544444667,0.8951788807909746,0.1325881262263599,0.5056606749234099,-0.09355379528305612,-0.2722208712757147,0.27598214530867826,0.6236157746110498,0.5220358339517679,1.1186369079357656,-0.08898181550002225,0.6186080220692525,0.4877191381822796,-0.5909312146840734,-0.05403849576209591,-1.4069908638410176,0.2811104199298959,-1.055120504779868,-0.3496199222081982,0.9006069466254605,-0.06199911847252019,-1.4755847420110617,1.2799671148616032,-1.3090800888926988,-1.4234321816498485,-1.096060468964132,-1.4150988059355782,0.0
0.39099447973973445,1.0947222790198419,0.8127801049881165,-0.18146420480468006,-0.9124999981589742,-1.5013946937873528,1.5376667353782898,1.0118585292210427,0.563841466553243,0.31241934076285727,-0.997535434704203,1.1757561643350911,-0.9018622428466265,-0.1766868084392901,-1.483062828739239,-1.7095722756657254,-0.9278224331755427,0.5459744396462948,0.22767887829881828,-1.394280864276657,0.5540572653001762,-0.6313763756509109,1.0839010233450062,0.2452239197829869,-0.5672768161358703,0.4059133390778163,-1.1357452316375263,-0.9379760214733418,-0.8301645196158405,0.37022258965677346,0.3392830100991687,0.34796090257416157,0.0
-0.5814842570860171,1.6170925772780906,-0.31939106593323296,1.6172061215586064,-1.5835491161318132,1.1839873664369223,1.4151975050989554,0.31950085869191097,0.8391808561109929,0.9403095605147562,0.8656090292604007,1.6740268954043784,1.070521888377305,-1.2686463380907786,1.3915491118328838,1.1321702500113064,-0.5599080582722016,-1.5748777014376973,0.856465156615578,-1.2718900699131,1.4655778976401472,-0.12620630048785272,-0.7295154128423175,-0.12712184248237773,-1.4374201986600554,0.8781816066558967,0.1850404177546528,0.5218103963975662,0.1514724404391855,0.6460427057085647,-0.7878411313225938,-1.718493431625297,0.0
0.18799766964900608,1.3312724797133364,0.31997848594470757,-1.6242150056620681,-0.4193601728224678,0.5046061386139956,-0.1594712572437459,0.10888669630994176,1.7599309237782885,-1.2117218414602957,-1.5729154777087448,0.752838806703397,0.9536871567710811,0.2657429715684501,0.4077571053496517,-1.5878014526512518,0.7628554064608963,1.2025794023696221,-1.0671568464044117,0.002181478893753802,1.7021621921662515,1.0221515658723501,-0.4743918450172296,0.2649086747349192,-1.4188747231446495,1.3308005690473979,1.525613422297358,0.057650401421298667,0.16306158792761666,0.6965593959668207,-1.0747102898956415,-0.05805758951880304,0.0
0.21658105122565896,-0.718457328792444,-0.6907219958769295,0.06906336424446725,-0.07447084155210232,-1.5224748965155537,-1.48158086258408,1.2167088141248934,0.056997305591916625,0.9236889889377291,-1.360713798929845,1.503735180390372,1.6866855981481175,-0.09919864978621373,1.3146430197088257,0.347030892392421,0.7642064994917387,-0.35042937523887235,1.5067495351238422,-0.6089552663581396,0.459949724319686,-1.2320825116365124,1.5401987470827947,1.1776047226314386,1.164886889232496,1.2877286560598242,0.002043781782364356,0.8282870911552875,1.053558821281812,-0.6210007735267465,-0.4418563917764511,0.18711317564122007,1.0
-0.9791251599794452,0.18006923333221458,0.289892540694324,-1.1895618542637143,-0.48943155429080226,0.5912685446433273,-0.4343852902516401,0.6553836848525102,-0.36266333566875164,0.6947049831521568,-1.4822074890978905,0.07271271870766344,0.038854528347900215,-1.5437166357552299,0.5537245549270414,0.44156638020263134,-0.11017706022378987,-1.6691523579132463,0.9671028116751582,-1.3874333336138533,-1.6779703936365133,-1.1595721372505536,-0.42810779878401,-0.10256926061745478,0.06155098228249574,0.6951794876384089,-0.15023501984076548,0.13020905270067248,-0.4670940562682852,-0.8128494172355789,-0.1318204402153167,-0.5467098126225874,1.0
-0.6995131610499515,-0.12989719764591184,0.6237890841991248,-1.391773692980299,-0.6118002713904875,0.7259541139395453,0.5367018199418286,-0.8379332243574944,-0.881642204629252,1.2885910615059188,0.42424039940193525,-1.3780452909013123,0.6343837811323003,0.630354220960344,0.8267972955375763,0.8863566152121716,-0.727715546355134,0.45747463789525383,0.9351748485016323,-0.2391349465333299,-0.5623571166643767,1.0359437272936038,1.144898124411246,0.4628541725958166,1.664374366906877,-0.4624034006016466,1.0164127882104004,0.7063062789087933,0.5794316194254869,1.5193687284126842,0.2693594166221018,0.8452452999148856,1.0
0.9989404520653213,0.18985466074811994,-0.21090850757081356,1.593776819891865,1.5762792888407464,0.40689862428375906,0.44470728942774806,1.442746159980037,1.2428091187756052,-1.041657765590613,-1.0445620304793142,-0.6732255940367701,-0.847649437216771,-0.31511540403368893,0.2596355019147582,-1.542038076268734,0.907990975602191,-0.47529606435098715,0.7022006367791902,1.129951073308742,-0.7240711534347818,-1.0851908774032042,1.1308351741211202,0.3783106147025653,0.7780939922198998,-1.4604633465866088,0.08901710820457646,0.48872556857371713,0.587337526254418,-1.1903596722082603,0.8973043319627706,1.0916691226254323,1.0
1.3294870853144338,-1.3739307347706622,0.6263283053185186,-0.3013018168557544,1.0604500549828704,-0.775027357463568,0.6822058861196604,-0.9586789734053096,-1.0393829631000717,1.1686636149562255,0.794286777911607,-0.4033046818129046,-0.09488382279390424,1.0898400593347037,1.3221256182797814,0.7562857121626659,-0.5214522521561731,-0.17571552415028246,-0.4308318927300086,-1.5227372276733648,1.1760514802851096,1.5919423658783032,-0.8550102966820238,-0.36217645869637577,0.6301759189021767,-1.0493705885347175,-1.6591576343179948,-1.2096934461762627,-1.6557560353811196,0.5487595998189221,0.7023414759291516,0.41411615330328216,0.0
1.2859314211704298,-1.039565640830356,1.4086460023344274,0.29011145116619186,-0.22706900229738272,1.246647691686904,0.6886916008609305,0.6616533855300645,0.7790489908573379,-0.6001442007379569,-0.2252647317274967,0.9251323471269871,-0.8096251743308891,-1.221950848899289,0.9569986749704082,-0.888343845350044,0.8382883057369905,-0.02188882656287651,1.420282208604058,-0.19716507263433136,1.0657773022791655,-0.9061965846853383,-0.2584027176448317,-0.3675295327085794,0.48481695520927975,0.8821016827917814,0.7261987568682355,-0.9692020648022819,-0.2569453152747447,1.3062276089581712,-1.670503125064755,0.35831332371996805,0.0
0.24564541378900348,-1.6466450105966155,1.5910329885898393,1.4280522688094324,-1.611037399066362,1.2633516548527532,-0.9908210962435452,1.549490339444637,-1.1439799081568984,1.1891146141343267,1.5832071680060198,-0.9627927397051328,-1.338485307482502,0.5450298322883177,0.08713019156124989,-0.4640938123362535,-0.15685668876688239,0.8477442805511477,1.4694293142850103,0.10846693020265531,1.0198483078003453,-1.3293329049530889,-0.7712718901449728,-0.1133291543648758,-1.1071736338380598,0.8228051801185569,-1.7129287872462107,-1.498189089270421,-1.0399670390786517,0.5777751247450594,1.5600322855654445,1.529609642564141,1.0
0.6972143763158551,0.23290310276134674,1.6259465434018052,-1.0705015736543395,-1.6136753423219088,-1.3534890514377986,0.8297799707392258,-0.9367014715359481,0.0384938157751729,-0.626865310727258,0.9784564193343925,-0.4364086146923314,0.06931847385622825,-0.8451020980563902,1.3106620527590873,-0.3987966017361736,0.6959955334171174,0.8975225484495205,1.0378050703167365,0.3666599275073657,0.5839072676375492,-0.6123652653079483,-0.23504219145739144,-0.3690989078205907,-1.721808748607391,0.46758726702065834,-0.010879073041369857,0.8682309873839045,-1.6147921548948712,0.4525260797904822,-0.879128654520192,0.6693330366523169,1.0
1.1393736418978597,0.17377703868737696,1.0863745603855068,-1.7177977310339874,0.6043100011051754,0.6376882560732399,1.4170918366061813,0.9764442690961159,-0.4910327884893319,-1.4897163558433772,-1.0078895643813874,0.0660443961596626,-0.7241910511787144,1.600087188601523,1.1335804711538908,0.36949840075748164,-0.9613856644444356,1.6122098119518502,1.110103264526971,1.1716802256864551,0.3173976269264171,0.4356126984179084,0.9111044711966226,0.6683593902966676,0.5116576347157886,-1.013128230967969,-1.399313537888913,0.39180147855570424,-0.4399203030015329,0.30079954355659355,0.5028088198673477,-1.423271525737326,1.0
0.04908255303786339,-0.8803777836833405,-0.26624616829271164,0.5029554401818414,1.0017429153650115,-0.7615529538545041,-0.15392351960888634,-0.17658561283050558,-1.1417565049450478,-0.09689319896597302,-0.9730900596483725,0.45883250985021246,-1.1041884883261883,1.0133542865241065,1.7036098506594968,-1.1956679891566513,1.3975634302667828,-0.14680450701941947,-0.22432708194626777,-0.2386811021365116,0.1673219081744314,0.22494975544182264,0.19114380167125644,-1.71724126798519,-1.51468686529647,-0.8912282347159362,0.564187966614803,0.31984962056185845,0.01662842801111008,-1.6927829205220641,1.711049585527288,-0.797558011375723,0.0
0.2142844222570458,-1.1322347615442545,0.7087882606853433,-0.9429815328966578,0.17811480560291335,1.552311362080745,-0.43995361045623277,0.5992970351949584,-1.3799247710080327,1.6483653154317954,-0.856533442796064,-1.5690092486958491,1.653672832163215,1.547841418431568,0.8565867443436851,0.1775170164194091,0.14699921029702265,0.41707821245493676,0.5765719811413703,-0.8869610247969183,-0.9240045101504685,1.4576633207082386,-1.2132626813651362,-0.3187637348297654,1.2321246127445922,0.5072329356164552,-1.045754222441603,1.168178893626449,0.1478973940080387,-0.31080978948508015,-0.45062166852726887,0.6935093124542694,1.0
-1.3664548027921752,-1.508043160685863,1.0283696876766673,0.9161122738026991,-1.7038689667398368,1.0016769389108053,-0.9904829540265007,0.3041233910181025,-0.5019640235419573,1.0919021692596276,-0.7553663740867157,0.6400973578062802,-1.6574681298568954,-0.6369588232716924,-1.4684655243635136,-0.11779995858916162,-0.9556665304083033,0.6557211750841667,-1.6410568188599879,-0.5390233645376113,-0.5897438364722865,0.8727581842200819,-0.2666039177097108,0.7658495250679702,1.3214075670968564,0.19039935616423426,-0.933047065926255,-1.1503751780056672,-0.12467632548146863,-1.3563077899649922,1.5091747350678888,-0.7278044743965805,1.0
1.1764636841411302,-1.2259190346626057,0.13116841776155913,0.22204174862602669,1.3052988165806723,0.8327480989576101,1.116984738244914,0.7126250271198526,-0.8060949924762527,-1.7208790964993361,0.3521034979296885,0.16145588304859207,-0.6755942348579187,0.9922484284198403,0.1400263654734816,0.6777168612503089,-0.2766377085028717,-1.2612228665703953,-1.3887448023389757,0.41929667798968817,-1.3645907291656423,0.1882047589648337,-0.0930445350525624,-0.7461543310140759,1.2076801205684762,1.1822688231030982,-0.8475404344834442,1.4413418689159065,1.0809937863284447,1.4110680399449222,-0.44083731567521434,0.1046032034008221,0.0
0.7806575800805488,0.3702039240158185,-0.1836126161170292,-0.6707884360888839,-0.4572247591048558,-0.08552406585664529,0.17233740905722614,-0.28408778974265675,-1.0851328416719705,-1.2360157643571488,-1.1480380084574762,-0.16203305042317206,-0.8467725069973995,0.49884615446372954,-1.1892692691280247,-1.1959574506459754,-0.026876222666103795,1.026530537145356,-0.8953339513793375,1.2584381018673971,-0.8223226060363104,1.348910159364339,-1.5382253897163585,-0.15618752948839829,0.6757787913157433,1.1215642119582867,0.5572958795485871,-1.7274233030587045,0.1275074188590143,1.2712475515137678,0.8116133241457277,1.2722439975636528,0.0
-1.0508937103918234,-1.5693628874269248,1.429568095700278,-1.6515427870687405,-0.10086354492327967,-0.3973779081097243,0.5883758314404488,1.6456247666983321,-1.1373611800051107,-0.05925268732363859,1.2213146299211795,0.2435130095724085,1.018972499160989,-1.5764344099843752,-0.7142038086457526,-0.6687307628867774,-1.409141246593399,0.24423521833170958,-0.5165744948852818,0.6747696754296844,0.7826689506407195,1.4187684334814992,0.7200385916207138,-0.19015943320956202,-0.19524990480838142,0.5371594450875178,-0.3214934981879379,1.1542564441410268,1.2056381742865072,-0.7116303643664271,-1.0634179488697926,0.663748422137021,0.0
-0.8637155031650903,-0.41190172238013883,0.08898954226701758,-1.5485101645410264,1.006442995927927,-1.6671180917364607,-1.0525482228732557,-0.1641936817959323,-1.345111350247982,-0.37612482899914235,-0.4104185585696971,1.712448361562065,-0.16040747000861733,-1.0163112870159499,0.7133242316104899,-1.6560529360402751,-1.4723155366411709,-0.5256851930752028,1.2033228633705684,-0.260523896991483,-1.265413623578635,-0.491641227064032,-0.9804125290429327,0.9803272073280018,-1.05595762728043,0.5129509873903272,-1.266426681484558,-0.7269102739836455,0.28918205428678,-0.9885614455695495,-1.3565833782272432,-0.4038179362932588,0.0
0.8890285626088013,-0.5111518310953141,-1.2498501007588714,0.04408531096004285,1.4518034611137962,-0.13628639844211773,1.1215114334026541,0.5825628405722258,-1.183681831549179,-1.5252112105738838,1.6793322129783215,-0.5121627960935689,-0.04752439679772445,0.554111449392775,-1.608480163045051,0.38481266304787337,1.2534745941574064,-1.6594015493924636,-0.5299263848263409,-1.683979248965893,-0.7072233465213424,-1.612335719083358,-0.14709895197425382,1.0595791148924947,0.7165954370796355,-1.0490174147486844,0.8478884622595213,-0.5853477047482202,1.5271419607327048,-1.4975492089626283,-0.3951500103449531,1.4086571022613856,0.0
1.5444303435263738,1.3005495339556035,-0.5565728550930135,1.5911551735466651,-0.6925170588584989,-0.8957291312043363,0.5497254409404779,-0.1741405549160319,-1.744932967547875,-1.1762064048889083,-0.4593555455802571,-1.120062993786077,-1.012360621449386,0.04614000504996687,-0.8831550738588285,0.9449699804753333,1.5963523714884487,-1.5735212535888337,-0.4573660562714958,0.06923698852363701,0.5948321255475597,-0.34762954741834906,-0.9560513668844811,0.4414894799016723,-1.5464336576693118,1.5694604305183735,1.6369458396313858,-1.2341157237796223,-0.7923320892244922,-0.19778596464190681,0.20189718986031566,1.4293990721841257,1.0
