Bachega/quantifier_recommender/data/train_set/puma32H.csv
theta1,theta2,theta3,theta4,theta5,theta6,thetad1,thetad2,thetad3,thetad4,thetad5,thetad6,tau1,tau2,tau3,tau4,tau5,dm1,dm2,dm3,dm4,dm5,da1,da2,da3,da4,da5,db1,db2,db3,db4,db5,class
-1.6611083219808254,-0.6290495310330786,0.19279013584816782,-0.5386443077245896,-1.0359230078398312,1.727916379121796,-0.5459464936641824,-0.3089417002140575,1.663814247481829,0.6636212579618626,-0.8533607108287782,-0.10474629893431384,-1.5299801267954067,-0.5343343005724807,-1.440775842844704,-1.2946592435839943,-0.2123762566513943,0.43815826937480795,0.07401418352156793,0.6606821000311531,-1.4022395885501053,0.5542271466759486,-0.4201305064595576,-1.51595125056073,-0.9534871890957289,0.5201918144494339,0.0420077716286278,0.0591696889134188,1.5064057640529513,1.2325402366762925,-0.6494102615286496,1.0477842626337643,0.0
0.8536547312368805,-1.4860948655964987,-1.25295498266645,-0.14633429156064415,1.0480720702658834,-0.355649426097102,-0.6590602109080251,0.35192147130997314,0.20008150946757025,0.8368990412719399,-1.7321348077829648,1.6554930332328317,-0.8622581467391042,1.0899657661865771,-0.01401473911409576,-1.254233030374816,-0.10997001590766918,-1.6568080700967802,-1.7317244627604675,-1.2974954801389895,-1.1068947810006298,-0.1983276174994877,0.8067804502621124,-1.5599858892222176,-1.6623590181697652,0.20469295670806614,-1.513229913149034,-0.3713217277364661,0.5094593206859873,0.9731636324500069,0.6117644030869883,0.9810566275914412,0.0
-0.9474953199633489,0.7137783172114572,0.7349300275921031,1.678124670398421,-1.4437219037019566,-0.8180157988959454,1.4141022183524414,-0.7801543527718011,0.7896094100051683,1.0713041569323773,-0.5543386125416642,0.34293331423399603,-1.1282391888587784,0.27807479316326833,-1.5289010742904567,0.8343151821312917,0.5208809782467825,1.4848966175773377,0.5102334883541861,1.3068231276457438,1.678701040584134,1.0976829475194936,-0.4878093233384,0.598265753933776,0.6341183310269086,-0.5040289828464176,-0.2717714655685819,-1.1196668292013423,0.9728119230301953,-1.4269676287612674,1.6110349818345406,-0.6994204004002775,0.0
-1.306726245042065,-0.7762407954694335,0.7197542828313231,-0.3480229832613323,-0.7235855129637956,1.5315848834587866,-0.9499889533518607,-1.5369300087171212,-0.9943389031316663,-1.177898526235612,-1.1950976305889436,0.9178166791202086,1.4567070191693037,-1.0270869176776392,1.353513516935413,-0.9326314302270682,1.361327554371507,1.0742649473933525,-1.260550314057442,0.4827520976069736,-0.8739669695301213,-1.7430326463567583,0.3907984733316804,1.022261156015682,-1.1161620260818932,-1.5361052213225248,1.5827348314690135,1.4530076618533776,0.1425155039633975,-0.32987573148133903,0.18622450223439804,-0.7316085096024291,0.0
-0.27766926544335446,-1.4550196794570487,-1.347814605011728,0.05774255148944814,1.1749395938902607,-1.2926083092429814,1.1950683919864913,0.19242863289313542,-1.4391672749769473,0.9885034110687433,0.311657220178793,1.7275004352170165,-1.1118207354076,1.4267779934152878,-0.4842616144708568,-0.8868886524859955,1.1584929852428265,0.39860082070782915,0.06802826866405674,0.6768518399258974,1.2863302711796856,0.6358687441381725,1.1165992744039066,0.8514326788035228,-1.0557470578998887,0.6021418928267929,1.3629221591381213,0.23834729710945948,-1.0629598582354804,0.13726823534868343,0.30689869669314873,-0.7847443376831473,0.0
0.6428981436656068,0.2132520275527474,1.2642428805527277,-0.25974044651233297,-0.3052473776276499,0.5819869410291216,-1.454875713447097,-0.2736940815513355,-0.12446671748427317,-0.5786244159655434,1.201994211452801,0.6307584584397418,1.390504538272955,-0.6652228624890321,0.152557049818524,-1.094801706608486,0.020417419293212252,-1.5722275759000188,0.6308723396440131,-0.724785249323099,-0.5859335904622927,-0.8412085028794363,0.39016381070191825,0.7798003791703422,0.8455007860375399,0.5642834976330435,1.4942779515044178,1.0088733814850734,1.4523179236674935,-0.1376235189399097,-0.2411503467405092,1.1136579621601745,0.0
-1.1768193940775353,-0.6954479369010124,1.140911910395383,-0.21431458620684962,0.6020112009176977,0.223484636012961,0.16964109242218378,-0.5710355394400588,-0.9489725243083887,-1.6634535552445449,-0.9283312736763871,-1.2485415067437848,-0.26501700410396306,0.7676860419886075,1.2573909295218382,-0.8852042997358712,-1.5834649789276147,0.25754096128258486,-0.776671901441218,0.6876383106408154,-0.28148755364197203,-0.8466010550916797,0.4342798123312797,-1.2751919097468076,-0.40030913039166477,-1.4654872819152034,1.644342150990416,-1.061585190384798,-1.007256832583897,0.8461330535994417,-0.6868517591851852,0.880055548065355,0.0
0.9849978960207801,-1.5581582886180136,0.7173739469268161,1.2492209638174292,1.237902979012388,0.7268464633893836,-1.6916156954259878,1.0215075122936612,-0.5950141940663677,-1.673443833794957,0.895814934783783,0.9424925727199062,-1.2172775188645037,-0.5405326153456183,0.7158176341762913,-1.532850139612489,0.14598458450582,0.6989085761773942,0.8384349396065929,1.0044738303952023,1.6821545565399234,0.3235192237605893,0.24530631198487782,-1.7055124156314292,-1.307813976435532,0.46256638947376116,1.6021451678474048,0.10526293583056562,-1.5255721029313876,1.087207887991572,1.1681035618509477,0.9267110575298474,1.0
1.3235171758241804,-1.0559109072391117,1.6273720968575944,-1.36975644491155,0.3309452056230672,-0.7838821534785061,-0.054606004820462226,-0.6124636392364113,1.2090850163676692,1.702088330525272,1.447733788151909,1.3135831724301057,-1.0445696622681342,1.2939681443424274,-0.3432455247443603,1.4863977072942396,0.9531841937730802,-0.2540098164650635,-0.44884823203839613,0.9583917582790874,-0.051485851193666554,0.33542344939727503,1.5186186734795772,-0.18977707078011902,-0.6703144083455331,1.240128168378611,1.5166461993877676,1.083389133133467,-0.8604449928681551,-0.8062634194047585,0.092982858596797,-0.278040350928673,1.0
0.7620900935376362,0.6905720207588172,-0.9769522393360076,0.6731274798076108,-1.1367738345380642,-1.260856454863235,1.0319647585032656,-1.0295023321939445,0.4707271307012423,-0.056977658840559615,1.3466415791836348,0.3787639222841462,-0.6818328497241299,0.49392203031008036,-1.6601254922673045,-0.6266158748910999,-0.5080386606459164,-0.1087749759068039,1.6942974068920642,1.2502612364341836,-0.2481701966829135,-1.3509666650066339,-1.6483416722670168,0.9952055590503888,0.22919341224610007,-0.21231966670971603,0.49478279541608056,-0.636814528659741,0.6098341975926568,1.2860460983638213,0.9462123455710036,1.4947498909055024,1.0
-1.2108592950254153,-0.10061238446115292,1.3798664466286683,-1.5968857464389667,-0.7231461015103843,-1.4796582012917856,-1.6608182903709887,-0.9771105514174022,-1.5762975333389873,-0.7814591929120037,0.6516297985905071,-1.2916243030863976,-0.8529524557930884,0.9724325571588565,-0.29956514702897846,0.9562421272150212,1.382374185833511,1.1396086840043655,1.583655125932285,1.2884240304774401,-0.5203536904113492,1.2000019369079404,-0.18222930435158463,1.2784915870972318,0.3312980437697152,0.5559296380361348,-1.3295635324473847,0.22658933304000953,-1.6575103275122707,-1.1114412499251551,1.5025790056390445,-1.5798774208140511,1.0
1.4776063955085754,-0.6533234877731599,1.18877387464092,0.009199237426806285,0.09315578071387978,1.5758522860191058,-0.8599115421900677,-1.393827021724566,-0.339781681406659,-1.4552057541464225,0.5408586654527752,1.1288911580372032,1.040508651332511,-1.3570871091198928,-0.3044520925681696,-1.076307988836122,0.4877555519736834,-0.47249896478002296,-0.5352261244876664,-0.5526831609269797,0.9681455143838632,1.5645765971783436,-0.42517692367138665,0.5147341512252757,-0.5315292055327447,-0.5130509677441771,-0.5383482590138715,1.388205211330034,-0.2348242324720739,0.9828354740920533,0.9026029165491113,0.7464564084100941,0.0
1.062095538988616,-0.4846426429474412,0.979658864459004,0.2847152044753816,-0.39186304267744765,0.5592302029709219,-1.652765359962895,-0.724791782388077,0.050657622004300844,-0.12367237914918791,-0.7476183908855505,-0.5799185334910274,-1.3798399017440932,1.1350248031689012,-0.5218316621843647,1.349307265423016,0.42493924956951545,1.2902341034292721,1.2965116228795053,1.2360647997107397,-0.8285930593166796,-0.27325603771789814,0.4974140741751119,0.11014709751980077,-0.8058365542613211,-0.9434673772318892,-0.20699320360999854,1.3963608203246396,-1.4282792159009425,-1.667130980694985,1.262792079653273,0.722669972734971,1.0
0.43569330236971904,-0.8461893176483396,0.42819255771715636,0.7839430225591103,-1.5446744733206104,1.3751781692005363,1.5328739369975712,0.14052645358077,-1.6087457902797204,-1.1621864959203252,-0.3733475744384055,-1.2428268561829454,-1.617555700650664,-1.1193880251986599,-0.06812624279850192,1.5127363808776544,-1.2325656154898992,-0.05980047225296084,1.5317232283315327,-0.6815412379451955,-1.7143952999039644,-1.0096718959910984,0.9200298969874345,1.2893436163698202,-0.4163323843489088,-1.0293879851431376,0.5076182922316373,1.299768546381751,-0.3308589751899578,0.5565302179492282,0.1020384268906959,0.6740064772203805,0.0
1.115810729548297,-0.14770830912144148,0.25409555466440015,0.3231569043370009,1.5205072112967648,1.0953414744068855,-0.6629054759892428,1.5415372650581736,0.7191946779509342,-0.9983535723773177,-0.6556664095186128,-1.09866663938062,0.32920480689374704,-1.576423460069473,-0.5274303916709546,1.2623916426890478,-1.6904147987515008,-1.1749690117654978,1.5187475782733257,-0.2005796384171494,-1.1415990798083624,1.2052224358590287,0.36413801030774084,1.1404234314502903,1.6142450213130617,0.8117207214659972,1.183646667794868,1.006478468239153,-0.7903830474823059,1.239511389552671,-0.8644505973918831,-0.15989868169912902,0.0
-1.2972804561089362,-1.675622069244967,-0.8775070131499706,1.270364822376588,1.4288331536599606,-0.5455612677327742,0.06399737780792143,0.9364355711349147,1.1897630455699186,0.43750768391342215,-1.230111439678759,0.38080486891301735,-1.1719814690024546,-0.9746932207867403,0.6730913078574016,1.0841084238805847,-1.4063608150242821,-1.5557006520529701,-0.6433827550738477,-0.356249799783876,0.9424363484084405,-1.5496463308476651,0.2211381737405872,-1.3932251954461823,-0.975673824191443,1.117264970891942,0.5350180548666845,-0.27130068768396004,-1.723663369990912,-0.07660943558737572,-0.20862547111362897,1.1623431154595885,0.0
0.2008817728943499,-0.786698615498058,0.22960663534028167,1.2360063293085355,-1.4958445069264974,-1.3214192838633925,-0.8810630729579819,-0.09181303642244562,-0.9859317530004135,-0.5319176034151972,-0.10443156868657517,1.63494701174472,1.658947027844015,-0.2173704743101942,0.5763429847319159,1.0617024125756416,1.3587727981019646,-0.2472903473807934,-1.188050122205184,1.2068761653113231,-1.5189948750839446,-0.1186034063800476,1.4935518158909522,-1.058206605610147,1.3607394681775165,0.7192916252121356,-0.8306282306196033,-0.5178692190264204,-1.5500332723301486,0.34260958151007936,-1.124704605015088,-1.5607412209375375,0.0
-0.1961831313289512,0.4806440460168525,0.20500517232228507,0.24546735575169543,1.54414400860611,-1.168037495381457,0.9152410055465843,1.3058170179566884,0.10634268083425448,0.5191602570822036,-0.6120180430392259,-0.7010666157176971,0.8136957445330515,-1.267535161757653,-0.5361087984154751,1.6382927789965314,-1.4485244180012045,0.584281078050834,-0.11318674573172866,1.1352837449713558,-0.7886592824298553,-0.27802547811947137,0.5519302042994766,-0.8655251174204583,-1.106377466399225,0.373607875446287,-0.5585616760288421,-0.4054911025466012,-0.016057048374306583,-1.547930864782601,-1.281559820693312,-1.1344835289266728,0.0
-1.4752780400307317,-1.2763601490349794,1.224967338128362,1.7186227518211143,0.20691616202492136,-0.7696710682597481,1.1662866085817887,1.4312493737911125,-0.8962562310421779,-1.68103485775126,1.4746891662908113,1.287364574145294,0.05218424796833815,-0.13766343770290249,-0.5405091199436675,0.8091872074925414,-1.104899482756802,-0.6331063706322347,0.8024469780250741,-0.15269445477854132,-0.15363673231873984,-0.5064176571414443,-1.7078316426114861,-1.6798710989774492,1.2183008097621988,-0.13454346034911416,0.4797740765725288,-1.1584340073116948,-0.7859115345876633,-0.09322020597848217,0.2736267023053915,0.36583630997700006,1.0
-1.585678276185838,0.194796965234451,0.3883116332008842,-0.4950132554722322,1.0369503894358312,0.3313536792134272,1.592099546312928,1.3631660135580217,1.49456252768469,0.46364588676634794,1.611951840740398,1.430815442046952,0.5110379504722339,0.5801582794320745,0.7139405198900176,1.7055169971017048,0.7634406412488324,0.6405935665123569,-0.9692512106592236,0.9804062780409631,0.8300463921499733,-1.5181435337330813,-0.4323342504084827,-1.634634091712532,1.3801764053039731,-1.1273944752127976,1.0868570599274452,-1.5598285337813533,-0.08020386073291846,-1.606775190229082,0.6138407515451306,1.5176669212184106,1.0
-1.0510947943265352,-1.4861947764294081,0.5180472957935018,-0.3533638118360518,0.048189833493138184,-0.2318182171849928,0.41409806786745246,-0.33423212283424253,0.5089353449558973,-1.2895528078169518,-0.3175807369333829,-1.2261863133976751,-0.20774827590415307,-0.17164022354632738,1.0778626718407345,0.537810566701906,0.15182119082223872,1.7035618285363374,0.11640439097850848,-1.5564137085237504,0.9313792543576469,-0.5648940655229039,-1.0468822441234698,-0.87014724959967,0.660325765389016,0.7639398246646459,-0.3453498974035743,0.20531623577926444,0.2661845982344506,-1.4567381189559887,-1.5601801158921802,1.6680523910967957,1.0
1.3208375298370685,-0.9747862280212468,0.7380349094996816,-1.6148412160523709,0.43001921755163336,0.1581056048224402,-0.035565657633748075,0.7070661333872782,-0.4111812766285585,0.9530122316669655,-0.4050646192448417,-1.7023535555694769,0.6094598141112252,-0.8582093290739294,0.46009355951483066,0.5826976502094682,-0.6419717153132624,-0.8362642901001036,0.029326445632455695,-1.002835472246701,0.7467130213841834,-0.911940993566791,0.844097377539061,0.1970570028177583,-1.6162719898812314,0.13827946713447428,0.2899160054667182,1.0569575248529663,0.7856930963574901,0.9419998323693621,1.649350409820772,0.42443454078722265,1.0
0.22672584621754788,-0.3064666226145615,-1.1740765648518638,1.4269697682751263,1.0856933582603088,-0.3730535291261331,-0.43506083959395303,-0.307222196276617,-0.7425198366780706,1.409332960901897,-0.12401032665356192,1.118497462022326,0.2697330865872315,0.5803126069383479,-0.13447430695639137,0.6030817301359622,0.5648736768684871,-1.1158640166715512,-0.6463988420035982,0.9693944183857336,-1.4371899080848756,1.2976243372756635,1.3930048869087472,1.0837232292625103,-1.1883857866047616,-1.5443902808312449,-0.08529277004227014,-1.5107842744553466,1.5854231002827548,0.7996213620220898,1.3196892220971392,1.3262863586377123,1.0
-1.2051096203207987,-0.6401461969714015,-0.7409003005931996,-0.961129118645843,1.5844061889262395,1.4937970633900852,1.0852280384219954,0.4445711748894211,0.7063257992267731,0.6773478756978938,1.2222056076237668,1.394924306827338,-0.951424962395724,1.571513648553575,0.9543178557730096,-0.6826036720253416,-0.07005528358733587,-0.010406480212449002,1.5232331594996271,-1.1210972025540713,0.20247827006809546,-0.5075615788237194,-0.018952691649629816,0.6769080314400802,-0.9176780983814963,0.6310501609926685,-1.2505137306265368,1.20733165430558,1.4973143576076386,1.4294557407852575,1.3159123763366334,-0.28149786157733975,1.0
-0.5453495476754251,1.5158675887416102,-0.4799798834018215,-0.5922365816172064,0.08064361330474376,-0.23954021905803982,1.5068928532601291,-0.058446401698150116,0.40362437410251323,0.7610130588785236,1.040297904651866,1.3922338003310504,-0.9530802267349175,1.5772123820317792,0.7176839315006719,-1.5031225756993738,-0.24783161916293284,0.9130512736538385,0.21689436296820688,1.198683967297136,-1.220454873342069,0.9371200541565541,0.3182647189638564,1.4762819901574318,0.7837455514334044,0.1230914654441947,-0.4350236590961161,0.006049929368408464,0.4690240462868344,-0.46771827228809304,0.15241164886637423,1.6577866010902849,0.0
-0.8877571867877762,1.6005307158520055,-0.3043984805173918,0.5611437231689179,0.5212103649502083,0.6488429896136825,-0.5411323776219544,0.9369907968917298,0.08499054891588467,0.2791892235949894,1.654367223249153,-1.621275935800276,-0.2480605155404022,0.5441150686250041,-1.597109493407395,-0.006450277950122796,1.4607095195703694,0.152159048437389,-1.3669861097695937,-1.612612217566237,1.6647824179519852,-1.0413622466606351,-1.5759762347523414,1.1809738116683794,-0.9574034721732405,0.4095184636988834,0.9911831824100791,0.8260826649154572,-1.447741811949799,1.5753604513504293,-1.2278726915758305,0.5439329155375183,0.0
1.1990609516613624,0.2154996566551338,1.2456091756290653,-1.4698696410836032,-0.45285128806184155,0.44776983692319533,-1.4378090876794365,-0.9470221819186042,0.31032052670158305,0.7162615212118576,0.573425588496111,-1.4399594183093,0.07397931924794372,0.9428913326688924,0.4157674602416371,0.7093046710002627,-0.43997135655909125,-0.3107739438830365,-0.2869972358756419,1.1745428185542235,0.1325084376690757,-0.21893370807424042,-0.2641903466870397,-0.36648225890584757,0.8090661351927941,0.3429215072234559,-0.30303030652978735,1.117650679075581,1.2224592855317191,0.306995782895096,1.080606635065896,1.700181714882997,1.0
0.909279850890729,-0.30078264428101203,1.5856706125874118,1.4373558621387479,1.5343073850970244,0.26232485838122577,-1.4095131999387915,0.05081067202836996,-1.4454248866339243,1.2881779545568106,0.40465210048755673,1.443038239597577,0.7181431850705116,-0.29310086301217153,-0.07824683375421096,-1.426439649956996,-1.1569584494839584,1.6252583503444757,-0.07069322650367729,0.6286952696040566,-0.8301291512311202,1.6160313724694142,-0.5549615709794109,1.1719583505307871,-0.4562729385295272,-1.3862035891778535,-0.5445046996954349,1.348576233135678,0.8269753770014631,-0.7600586242780507,-0.1798545234938537,-0.0005577177960763618,1.0
-0.43635616249211234,0.6765640844192204,0.7364144274237765,-1.119670004066485,0.7344967031913954,-0.1090226013690513,1.3077778087534329,-0.327940301608608,-1.492200664338808,-0.7801537161475617,-1.645655660623765,-0.9402603936679096,1.694951276473978,-0.30384753012024684,1.0561807913094607,1.713863056247105,-0.3560967032033277,1.6318354383340006,0.23883963351228224,-1.1713742688245588,0.42002209795103757,-1.1372114134178934,-1.2721859334976287,-0.42708747176862266,1.4795559309027728,-1.1829497819794266,-0.3902840981361484,0.1908699470270948,-0.5936488451726938,0.4938757730680017,0.11294727750963252,-1.6440463432778973,1.0
1.7022922808429806,-0.8175951289801153,-0.12376070278513121,0.023774201958674444,1.3224424986715708,0.5999208993825856,0.34063005538853347,1.5563690925460019,-0.188407466428028,0.6279720394247498,-0.7494429135944731,-0.10888945749773299,-1.6058100808751774,1.4716965102996913,0.09158796369177105,1.3215187095628003,-1.087324362904002,0.026638631073056647,0.6208433880125726,0.7191099663471991,0.8433084469668405,-0.025922499675052835,0.2530874920125425,0.5072527465817142,1.5858181549399946,0.28907702931644247,-0.5593524958923438,0.09408104133598455,0.6694476717832812,1.6565990108004036,0.3642587777557174,0.7439533872783074,0.0
0.7256165613799106,-1.4010320951544657,-1.2397211683098412,0.42723582089650863,-0.6813422947656185,-0.6925540972544432,-1.1229700150316688,0.9736850993989022,-1.7059644687721207,-0.21137601353693738,0.8520190505793386,1.5238139616556718,-1.738222277376967,-1.353661111632459,-1.0276164587977128,-0.15396689690936657,1.57279164368233,1.1635822922045445,1.4811868106241457,-0.05611299396782241,1.6975031746479776,-1.1916437951475154,1.1179612511422274,-0.5712396432607594,0.708168050849653,-0.9106910152189824,0.2630833035865071,-1.6265496800353927,-1.6087781014302827,0.6825342281723896,1.402344391513646,1.7019947808696803,0.0
-0.468083229905212,-1.4694476788605566,0.17799174347274385,0.3267339590036054,-1.0286579735077572,-1.2208907467023815,1.1621267242203643,0.7965474371300272,-1.0463061035036831,0.8417607661142935,0.3120946359207551,-1.3219122463133313,1.4205862036079115,0.5569551582948452,1.6584416764365317,-1.291807573179838,-0.5644538101965868,-1.693857774320826,-0.9271925260498785,0.0975884640018959,1.0145388729849667,-0.593041049030271,0.2111889491090644,1.619365389557631,0.8527769571870453,-1.6151672248868236,0.6086056822814854,-1.446663890308647,0.8452787491751095,0.8267924392798565,-1.1836444832121078,1.3552490048857384,0.0
-0.5084274436633425,0.7556628344850966,0.17543560402028346,-1.0434752667992009,-0.04444857008504513,-0.7139522131773037,0.8655759998722746,1.4187180833036335,0.46139256775377124,1.2630997165092483,1.5111098981614006,1.259627629670396,-0.015608825460608645,1.3016441718485696,-1.6539134921085823,-0.6764657136762717,-0.3640527803681805,-0.31552151135405987,-0.8534926840793456,0.17917466062044698,-0.799571839303514,-0.3177945819164049,1.7400757822923323,0.7392162159263589,-0.6095121154635552,-0.4958218967709779,0.0750842721985794,0.8041551526176618,-0.13256213909656267,-1.7228664450964424,0.1773247746636269,0.97398536084645,0.0
1.3728372460965892,-1.7052788132675643,-1.0072250218298229,1.4366302542720664,-0.20386940463883088,-1.4132406536653759,-1.2249485620498783,1.720044189253218,-1.2707847715361191,0.6566021151557491,-1.0559957550498313,0.8467348999470922,-0.12265518117062292,0.4285231263477982,-0.089196825708632,-0.9295520022997023,1.3906204532791029,1.0431003284187799,-1.4428647507338574,-0.1760398425689241,0.7781590831882126,1.7290502146664606,1.7058287073462028,-1.556440207095374,-0.7922786527594649,-1.300088812128829,-1.474378588459558,0.865894449188238,0.6016964459886839,0.15762928036665977,0.694680834892268,-1.1574577976709008,0.0
-0.9833560248914767,-1.4951335142321174,1.502076393325423,0.32386477840653344,-0.5133772666991063,1.151142183001518,0.4207719661034256,0.9925620377790112,-0.6298335836941014,0.24962781956413185,0.1631083388837467,-1.363313568362791,1.2571664149482311,-1.6873557677868058,0.4192660046183654,0.32172332334857195,-0.42917789156801306,0.7878860435366127,1.30065488749108,1.4775928147552586,1.5508071656336704,0.03603837475214506,-1.1489254944882517,0.45055868676227856,-1.1238147629119286,1.2485798769898315,-0.9321121819790921,0.7631282455882917,1.6132460189196245,-1.0490016325593794,1.3290641110884267,0.7653389028072423,1.0
-0.10452421251746112,-0.1253282825497241,-1.6525071633247062,-1.1324915394052417,1.124674167597168,1.600811029722156,-1.5428492919454517,0.2949109200942682,1.0372241552846773,-0.14050170939800635,0.44467710871515304,-0.2789036332956615,0.20647835544700846,-1.6512152650427339,0.9084394064063436,1.1919367483729517,0.44703975671094054,-1.715623710062696,-1.6009163408664964,1.0271522509132338,-0.0802010829275791,-1.4064763171552006,0.06371095773337201,0.2347250766902058,-0.8177790658438425,-1.0873742283590868,-0.5432464378583514,-1.6411541958974596,-1.6481345248095736,-0.029419502854100565,-1.1748394823553947,1.539666589645565,0.0
-0.35651184555892745,-0.6433827245367456,-0.15335160289839078,-1.6368798924593417,-0.875645468405401,-0.5184969885956667,0.3332284162941383,-1.6147206027994416,1.5614160840576614,-1.013219542019253,-1.0982445379387453,-0.2455767832799167,0.30885528614234553,0.7204560186422981,-0.46673490968547443,1.1885116494938364,1.5103220023933637,-1.61963894947069,-0.5033089550812713,1.565197049405943,0.8211173773880546,0.6685232130819304,-1.0885676886257138,0.3544229442109308,0.07759882828418253,0.653202260498453,-0.4560202329914149,-1.1724025423631068,-0.5200103077238638,0.09679780040225859,0.260225927966639,-1.4331304587860747,1.0
1.516850908480901,-0.5651583765778653,-1.6781722745868057,0.8165177911972553,-0.7402396494086118,-0.4131485950696412,0.7221132835569055,1.211211120575341,1.492774851813685,-1.430729534944625,-0.29553160751095225,-0.7082951836513447,1.0709671476208498,-0.7488849214912052,-0.07260701838231921,-0.6556840293928673,0.6271847005290934,-0.9813353158504302,0.6682480712852332,-0.5004327914851915,-0.5591127183265692,0.19504813867654838,-0.163895120888901,0.18428855462169658,1.4416150173359077,0.9028150960090058,1.4167668767048025,-1.7181677852224833,0.14782165804819136,-1.5574860857734023,0.37809040585841125,-0.569120978961395,0.0
-1.533717598199356,-1.1729502491452382,0.2902058976459062,0.6173236536288657,1.106342747500488,-0.7377087334200887,1.095518588196793,0.19372047290102387,-0.566571047340807,1.657608032118786,-1.3865602254142089,-0.5932049853245469,1.4063728291987536,1.6544803308095883,-0.2427781629910265,1.343253931626579,-1.3185506091252828,0.6516992919024901,-0.33593771801437194,0.8860511079876093,-1.5365207766262812,-0.6041718100064482,1.4513181834724902,1.3674453654618108,-0.6726475785620412,0.07568820468245463,0.9656041445770471,-1.4887446206136432,-1.3143676953954893,0.11970608596058015,-1.4022217923502487,-0.8697913647171979,1.0
-0.5554781381011468,1.3631031959469047,-0.8243790338425158,-0.1252318118614998,0.553296985527252,1.402845387155102,1.5987866762008724,-0.5636937295322136,0.8450102015117277,0.4789065867137477,-1.683112686164909,-1.02950549063366,0.9334118149760434,0.36279835383242376,-0.5977869526429713,-0.8514128031841823,0.8199339669608425,0.08621822981615433,-0.4224327999353502,0.8624190009330203,1.4567888071667319,0.9527164497758683,0.8664140303987176,0.03915974656278939,1.5702068177271669,0.7415354581688378,1.5128959354226728,0.12477710065604555,1.5749993591968683,-0.5010871233666152,-1.351481886320152,-0.622490401721285,0.0
0.5945282502275504,-0.5096553564301303,-0.1530632556565593,-0.2435103275798876,0.8785661530422744,-0.3154513124284283,-0.06669017852914857,0.6684090009137822,-0.3536824281314877,0.45192893877918183,-1.3249785474334042,0.32798605592128655,1.572016363377439,-0.4036733322942727,0.045836137773874255,-1.5932858869151008,1.698560906523144,-0.08022067700256107,-0.6639849725934788,0.317253751836178,1.6120248106683297,1.4014949060732669,-0.1267804826739935,-1.396308664355105,-0.9648610096505112,-0.4189186870849429,-0.8690749497975203,1.5761836264445324,-0.03627854965346695,-0.6114961904503019,0.48062290672482944,0.4218773751933767,0.0
1.3957018889585813,0.7539205937564786,-1.6285684576151032,-0.8826371157395436,1.1056003190884323,0.6582217942736118,-1.3317588673129446,0.9188873403428279,1.6078949105953244,-0.3876440443007031,-0.04174607648444334,0.3342675950936894,-0.6842207906760867,-1.3530542943233161,-1.1173654183580135,-0.9144261164244897,0.4222445991165228,1.0775825799988694,-0.5929573589712372,0.5777711684164839,-1.1486890896356754,-0.34453878883507405,-1.3283003016312476,1.5103521717721073,-0.1200843209690463,1.5874799380603137,-1.679637723147402,-0.5865996959576011,1.2127248962436235,0.14970367952877828,-1.2933563522939857,-0.00037672059433385214,1.0
0.8500308009849316,0.07548228173213868,-1.4007976751185682,0.42330556810335235,-0.5759985596830075,1.3893103242468272,1.4070894428076475,-0.8614997189306228,-0.8421484454974096,0.5535642742460253,-0.8547382768483468,0.9582945927672387,0.010597261865334313,0.030733726241965898,0.8127068331423966,0.8347669958593265,1.2213710056691052,-0.3336590256491949,0.9038497943207096,0.6207131279492075,-0.43197843237083355,-1.1459892297955694,1.1563544797645393,-1.5551549165192942,0.06954493372917459,0.16058598461597046,0.22659064511782404,-1.1526932819749383,-1.0797716956896901,-0.7053159698944268,1.4929046580033152,0.8543601333564715,1.0
0.9305314028478902,-0.6424572730990661,1.6739740130795158,-1.5200533313825317,-1.227856603608365,0.0628851217598527,1.0554141861635307,1.6561121185431933,1.4146222289171346,0.010272036106105704,-1.077644898600837,0.12193902275085317,-0.46774897299693496,-1.3354898078620403,-0.799395832854058,-1.4414890725716658,1.1039244527829162,-1.354966273154798,0.749915255365184,1.6197519057680607,0.07098941724379555,0.29288599312806035,1.5586888938681205,-0.7668725394399648,-1.5164482704796836,0.6200941291713936,0.36404617209020007,-1.340402864621165,-0.20333816638954086,1.5598023357850321,-0.3311529478974177,1.0011318471385326,0.0
0.7444985638207058,0.07920013155821451,-0.7702433103480479,1.5650702357568544,-0.3664619641466031,0.1511283237433204,-0.20276522249387002,-0.085566930996177,-0.24231007214619937,-1.6784452211290024,-0.030978016474261186,1.4735616482764493,-1.0803782954945693,1.1929336681587455,-1.0902158653505534,-0.7367082797466709,0.9858371420042558,0.7037081969518727,-1.1670053602331816,1.0287545056249736,-0.7668480073484336,-0.40483493170839163,0.17108012393768882,1.5352349059355448,-0.007853915146119732,-0.3654182096188709,0.4795411218840552,-1.6402662806593955,-0.5386027130503962,0.5944242571924964,1.7193152552539612,0.6503546292080917,0.0
0.3259920722733732,-1.474633561581864,-1.0726143791324034,1.2607619712203821,0.21169881655223652,-0.28994371169275834,1.6000054583657852,-0.8651687805055388,0.03790588230841507,0.021671435691110144,-0.01221831214490826,-1.4311600965144455,-1.605318027904236,-0.6627627663677015,0.35423570639753005,0.6566528192501322,0.8948512549256284,0.5862300149713799,1.6528570509426528,-1.344951351510337,1.6706838401417983,1.2970880271102607,-0.6269826538312226,-0.2006644186706878,-0.5473295940872264,0.20893562881301136,1.0062792592618086,-0.6340463223293059,-1.2657637567556912,-0.2613380816412671,-1.059621241056339,-0.8570055367479672,1.0
-1.6707191028603845,0.9608198846365968,1.3057795949704354,1.1195470056143533,1.546702326967415,0.12790238965989853,-1.393254440033157,-0.358226281336923,0.3008389803874226,-0.4056377186907807,-1.092842893876931,0.6214424412958057,1.3386902474006521,1.4953443031377098,-0.22782819316027808,-1.5402826398139802,-0.6326654235014025,-0.45671609697648197,-0.5171696940442203,1.0810202076477355,1.4197565372294063,1.283378017246135,-0.8783167761734989,0.5394725397326188,0.6470890974676937,-0.3639397721682468,1.2444830912090201,-0.661284428014623,0.6601058729809237,1.1507507980974128,-1.151390037075361,0.31251329675601836,1.0
-0.5798512787590718,1.3027723676688006,-1.0009394933057152,-0.3937569682922802,0.15240997284588503,0.3596289518299629,1.5496906315613292,-1.2870548228990641,1.2524137729857239,-1.3500266667193452,1.684084338698464,-0.18412103846018527,0.11247351359042781,0.9645917780103336,1.6809465745662586,0.8864723446329689,1.228059528728923,1.1170221432433178,0.8893136739287056,-0.8176439594734308,1.5146021403910088,0.4307704066354858,-0.24633331834016264,0.9392209427747391,-0.9273750489058372,0.17879966129568658,0.1947724063849556,-1.4478452169835108,-1.735220059210837,0.4185112116833541,0.5683016476868634,-0.7129534219459315,1.0
-1.359945723191266,0.2732422838675763,-0.8633529885904759,-0.020125073975562267,1.689407094603085,1.3028094327370814,0.9471057638606019,-0.07725624108241552,0.45547667377163575,0.28965802994588136,0.9453963027028042,0.7530019348064639,0.2066053802431827,0.4534686784112846,0.8477608462346402,1.5471200883708875,0.7772874377974298,1.0517182120996538,-1.277749410997339,-0.6250698089613789,-1.310856727121556,0.3370432300991417,0.845657010765483,-1.3755873847450435,-1.6878917083124743,-0.09584723297031615,0.6717425332443121,1.0624217367937856,-0.7183365108220978,-1.5430481422528552,1.3619908113249404,0.689767156633632,0.0
-1.6105883772408505,1.513160515663071,-1.3062646501594464,1.6624280431968759,-0.6244318761409872,0.359712997846942,-0.49181507035777977,-1.5675264134701627,-0.9736739371052813,1.5287377757063658,1.0951488112072765,-0.15815193021535845,-1.7029606067084282,-0.02789984480681413,-0.5414841785301021,-1.6276323973080462,0.31791969069218096,-1.3064694351091328,-0.5585607070581761,-0.7030697148902083,-1.3034607290149902,0.07798371979828515,-0.6655874366634547,0.7026460903954853,-0.22669544463679947,1.1387153094982059,-0.12742078633672052,0.8022487463712301,-1.0625440832722384,0.18827595992796972,1.3345979846096858,0.9574032325945223,0.0
1.0618289002180459,-1.4745584461381438,0.19593032558127677,0.24043686862708413,0.5760335791711354,1.363747180056458,-1.1850073503909289,0.9818107140603919,-0.6432956186442428,-0.9684518329061806,-0.35828755593997735,-0.5969938385057388,0.33255243664440093,-0.9728880393043109,0.1438767164477436,-0.750693262966758,0.43042205212322976,-0.16802082111598243,1.462731010796853,-1.458150263580229,-0.004385183002330045,-0.2966366808824516,1.6111249982934845,1.4993389053304766,1.347172344658994,0.9330351525230051,0.19178231035066884,0.021428682739098648,-0.2979571103478353,0.6041452022666454,-0.6129771450217636,1.4827174444512166,0.0
-1.7464658742668229,-1.697380752534649,1.1570755386913152,1.0849284168547815,1.2076610018186253,-0.2890805956401302,-1.1327364443700474,-0.3681053181095764,1.0536557019070218,-1.7084381087526117,1.6102829088658648,1.0472237674338367,-1.0644098548618197,-1.68593568498171,0.28181064519329974,-1.4039923034318318,0.24413782941131257,-0.07146806712450864,-1.7094091202004722,-0.9592771429588391,1.4685824257690931,-1.5141429079038773,0.5391829050082734,0.28290888516838136,0.5211148128068122,-1.1594461429634542,-0.9736945938715915,-1.55683450817757,-1.6299037973321069,0.3373708590975862,0.5914042709654267,-0.903753865290276,1.0
0.951654791418092,0.32868404481849095,-0.38118490966930235,-0.5185977278640277,1.602313680187833,0.21002046409292074,1.184782987854127,0.5371537794730256,0.07437790217582972,1.2191324939932917,0.36200846916042856,0.6285750515217668,-0.5231747054318804,-0.7203899282232241,-1.2335132198429792,0.2984105120289441,0.8809470860433688,-0.7830627520097898,-1.4543924940297757,0.3683127797363182,0.7520701227154258,-0.8384463505246739,1.4706391051843657,-0.5036075610119136,0.6847425915151341,-0.38765592701217866,1.6965209360151852,0.03650787993085728,0.8424502429195975,-1.4967558816377136,-0.8705956110038388,-0.30746399859652124,0.0
0.5786507216684016,-0.10193383284970711,-0.22100654567250458,1.7345654354581024,0.0458357382402143,-1.5580862901619632,-0.7490905761961425,0.9922287548546015,0.7430611953806922,-0.6935365089320225,-0.7254892642888349,1.3003269841813183,-1.2243484035343448,-1.1130171406810614,0.7204360822944166,-0.5213594149267425,-0.509085116293466,-0.358586434086216,-1.253690104062319,1.289296454334837,0.34930190233455355,0.4098419099497392,0.24399683775120856,0.5764618819030022,0.4136106905252309,0.6885914969716667,-0.8019043044921808,-0.5278943658146658,-0.684072944334562,0.486059120470099,-0.054630391059865585,0.8109826843235343,0.0
0.30828121802375663,-0.6420160610267287,-1.2422537692119482,-0.5489971507185569,-0.9416124814825588,-0.9221349280692865,1.022478399131613,-1.1284681896019153,1.5349478864266537,0.6395463846572413,-0.20664153633774943,-0.8056420636906901,-0.19985059383884113,0.3838386496069624,-0.1530727498266729,1.3786883767395055,1.110944080317906,-1.2649676424601481,1.1236186029417277,-0.6415661328308607,0.8959614954415054,-0.7766761297111885,0.34756729332483355,0.6034606619611093,1.5736404819324885,-0.3578242087737311,0.8344261334203752,0.7443314794067147,0.22799203562587045,-0.015070559304240042,-1.6835158254459155,1.6782067982099271,1.0
1.661587147202034,-1.1619155716798883,0.17094415438093866,-0.2700282655834204,0.8854618163371685,0.9168094634701736,-1.5568050093163024,1.3064658873670432,0.592418912801667,-1.0450030497994958,1.6170452388095544,0.5668019081304568,1.2934351478471178,-0.8204954675760778,-0.054261381374649226,1.2576847841501935,-1.4832044449705613,0.2266733523336092,0.570428785677093,-0.05650397478264871,-1.45172050727553,-0.7552361233301158,1.4562086373616778,0.1790306873188322,-0.5370624155323688,-0.14411431706153113,1.3080337432632145,-1.553820512161858,0.6655047649757343,1.4533783191129575,-0.5591036181766198,-0.621419888357134,1.0
-0.5475924069472106,-1.446640296463402,-1.4186457809241795,-1.4549148777294598,0.18784821165649965,-1.6004557144084168,0.056695711195087234,-0.5477448143663312,1.3646993657264836,1.2534321318212176,-1.6308481102717043,-1.0871605720927922,-1.0790495901558363,-0.7945062217447924,1.2850781969547318,1.346453388021562,0.7395685726038359,1.6236079544290414,-0.2535057184348525,-1.4339600505782015,-0.5426385553923179,0.3031766381803983,0.13859188289739566,1.0058441410230063,-0.6375762491810918,1.6177779680075928,-1.576596653607065,0.15574813718651034,0.16424708754399822,-0.2584517205229602,-0.8742318945434844,0.463005508573893,1.0
-1.5344917345194373,-0.31168386421043176,0.4992135131918338,-1.4625211988899693,1.1850335237705554,1.558755864495711,1.1081504052787365,1.196742807427632,1.5473086652893149,0.9355874981640941,1.171523361159539,0.36764611464434227,0.2906173265426816,0.2851898146952658,1.5135999104793192,1.6227066192369766,-1.3231318431335404,-0.05990610983938492,-0.25879929022924586,-0.21521305369834037,1.3088119527422846,1.4072145144846429,-1.6412136851648735,-0.806733438811387,-1.1636016168147796,0.012382950204125628,-0.056509072646094664,-0.49391855038168664,0.037795855972441755,-0.667090482484463,-1.674729158791923,1.5298710829666577,0.0
-0.2920213550692134,0.28664856738125855,1.094943328293913,0.18684607255089644,1.7101655994390779,-0.6952808423792148,1.2871129087413524,-1.2417231837181446,-1.3140866682496013,0.679507498858891,-0.5714785575715029,-0.6770897371116853,0.3024260413291923,0.49267348855180354,1.405208984865154,0.9132611077277797,-0.28596482725777334,1.4559672286923147,-0.0034526831776871634,-0.27735907090048095,-1.3361968620064224,-0.007808856342981315,1.2603217925056796,1.6586995808435154,-1.4253716338858746,-0.6502765658628662,1.3662019159363654,0.1825223148408667,0.8340729183814144,0.2710781567939752,1.595947460845465,0.11445594851104937,0.0
-0.1575897472880734,0.05252029279062758,1.0373540581147542,-0.6055738748897145,-1.227389175988461,0.9600076545275336,1.2610031839430782,-0.13262397292735828,1.1249202514975976,0.56859269341777,-1.1406349672004759,-0.23806993799397821,1.2580528986937114,-0.7151927191355,0.4162400639844312,1.6794857858293233,1.2105246064942692,1.1283820112326743,-1.1142639300976032,-0.712161935407545,1.132558091003961,0.5600444069382507,-0.29275479760026496,-0.9658591687352495,-1.366143231848234,-1.189339016835847,-1.1445653252701864,-0.9126489305910556,-0.298026663780348,-0.5704932901620097,-0.8852003313212641,-1.7159238901544087,0.0
-0.7681542301920503,-1.384746629390225,0.995767324277545,0.6532072532517358,-1.6679463431559145,0.23892717808919461,1.4213039124837148,-0.9813075567398342,0.8858141270999493,0.6563705694458396,-1.4791661286369995,-0.6823083601374065,-0.4441824414574297,1.6647819604577125,1.4734053567648768,1.5532035614741708,-0.4376111391936987,1.206889109699816,-0.9560072583894748,1.5346346157512931,1.1849236027539007,-1.5620589661209177,0.8462901292039318,-1.1510008997821044,-0.0062047111656761255,-0.3218402337604007,0.18178364990592957,0.9564879186248288,-1.096200216449164,1.384139410883164,-0.7186768794082175,-1.207447059013638,0.0
-0.5831047137027423,-1.2821958168082745,-0.63843846206341,-1.6668322758440721,0.5956493193212429,0.995583968097291,-0.07174834504106967,-1.2221568215895338,0.940094263699059,-1.1830858852033304,1.6847155090643824,0.05110009039180505,-1.4477172641715967,1.1774895332775126,-0.04010385845820575,-1.0226628273751486,-1.3978233171065673,-0.23408871103682857,0.24547009046418802,-0.7512968150845273,-1.1580148128199421,-1.402667894969089,1.2865699564489708,1.5509854739628461,-1.3270034561147834,-0.431895912608105,1.1871348577354304,1.01513948227411,-0.40999377943911586,-0.9678045041302424,-1.207533949357443,-1.4002260957001051,0.0
1.2516108865993805,-1.6742925988187338,0.8580057515940512,0.8012844594462291,0.9003207063238355,0.49926300443892013,-0.4188844099672511,1.380063900236548,0.5666065445073095,1.0617306606598023,1.350785286027793,0.8527632583984452,0.3152660499838757,0.6425432821823764,-0.06483528659818863,1.118142506218577,1.6296374555812914,-0.39488136541016056,-1.5724701385760878,0.3538817545239786,-0.30129683505712573,-1.6731418216226221,-0.2645300687759635,0.8738584656291739,-0.7430146397294802,0.14635353970608375,-1.6261991436889147,0.9930860027626094,-1.2303826984524533,-0.29373253648899467,-0.009954522579707711,-1.1974674611637277,1.0
-0.6295263763447815,-0.5283182624519244,-1.095183435443307,-0.23506756232051498,0.01174374995632659,-1.2880398600939738,-1.2468293038597669,1.1498332358169858,-1.6198844434843243,1.4547879564872404,-1.6859001106413725,0.5504256181094311,0.8455353746128708,1.6507576340622043,-1.1010247261283446,-1.3386975986932668,1.0550643057148377,-0.7997887031935792,-0.09484505144267752,0.6289850553844575,0.5988622525823434,1.6722199374863238,-1.3008615661854104,0.5592632505384932,1.5908333950035425,1.5795358212108375,-1.0327455422063259,-0.9127303484243036,-1.6533788536210228,-1.2169415082807906,-0.46659381479762796,0.3703488641435151,0.0
-0.48747346646670736,-1.0965600307102064,-1.1334100412175407,-1.4413810348718834,1.3207924939186602,0.6645924823606222,-1.0270398031478998,-0.9770257559830944,-0.13016101725368398,-1.3463608938453178,0.9355830713508313,-1.6428258225380319,-0.681145645113064,1.5933485789667696,1.033151433014474,1.1504934082737592,0.4923598782306632,0.62446469733879,0.08548949994856395,-0.7538144248803903,1.3921483987671623,0.8606493547052653,-1.4928956537147517,0.808465276641886,-1.1048097235659982,-0.921627171459225,-1.2395280779490552,-0.3715414022676827,0.28268730932193764,1.1435295246137593,-1.665265654487484,-1.0245501601453733,0.0
-0.8970063112133296,-1.100712529123246,1.2648210461957878,-0.9416980493279958,0.8475316132437845,-0.7648979853302693,-1.285076864066389,-0.838926436966299,-0.18892974235027482,-1.0955564613973223,0.6269488355260022,-1.0885054562728296,0.6640810329822302,-1.0874887285335209,1.1589178348587996,1.418021045777238,0.07014356036141861,-1.4463979006739816,0.3906878914780568,0.8916950310439863,0.18082690845924818,-1.153040313444174,1.2222605650157252,1.2539006154301564,1.6373553950781579,-1.547010799745795,0.6110838910397844,-1.1823739226576977,1.2657941652507299,-1.6549165019593537,-0.6034907229639235,-0.6630275869730359,1.0
-1.661047923143293,0.37340471704968403,-1.38473335008194,0.03924472324656918,0.17683712095733953,0.9278991527018238,-1.1423374780587847,1.0805546286359573,1.5473034425300922,0.8587848887857343,-1.0645906808117755,1.6550737718638628,-0.9470178883383151,-0.8449497136456633,0.4294378716874257,0.6661190444718819,1.3683880036394733,-1.598716583440698,-0.2066684789199362,1.6429163691029554,-0.4437920401572675,0.9718763629392895,-1.4424376583617113,1.070025747854348,0.07913122005352302,-1.247363482323012,0.6022576670205854,-1.2423665762772726,-1.2282821847905732,0.23829701241843596,-0.3928047602469043,-0.4570233786823393,1.0
0.29572783524246266,0.09011083207761829,0.4810218916669998,1.303489338726353,1.0332028585336663,-0.11365390232206085,-0.7772166577364891,-0.6162816458350677,-0.436191578328037,-0.968534160269704,1.7118734488556024,-0.027337216143590293,-1.4350331727731156,-1.2560083074978077,1.1983865379329093,-0.2492398206812199,0.38723721236097614,-1.301527433239909,-0.17223019390508376,1.0670629591874796,1.4190646039346135,0.03622902836585741,-1.427378704674514,0.5571610249725993,0.8139614890396836,-0.38213663104862805,1.5910905483213615,0.5213403236244736,-0.8389375259034285,-1.0256360712895982,0.4506281510734335,1.670807570723317,1.0
-1.6502770426403965,0.9027315805278108,1.0186188431926917,-0.05652590934861276,-0.7460294113945846,-0.44320929742078363,-1.7056456570662326,0.7759023296067011,-0.5490203380279336,1.3070448870528326,-1.1722654095613558,0.7564453402399846,-1.0493540310423286,0.8883303755854676,-1.072069158307311,1.313902706731829,-1.4995469149180969,-0.5194510444966772,-0.8047295281149107,0.9661653768326963,-0.49926356358605617,-0.6920414255166154,-0.13498168273887262,-0.2578176205238721,-0.6102053037162858,1.673738430849109,-0.16663686902525354,0.3339180076729144,1.4289340596567608,-0.19628370651600466,1.2726069895098626,0.6828676051826014,1.0
-1.536554870421004,-0.28420400950341657,-1.6135199681421721,-1.0129908694999992,0.4556820260589227,0.6644353528506178,-0.21780373005103928,0.04326019161696746,0.2370079093873396,-0.8458891756579935,-1.4817656698417476,0.5855594255745346,0.024940443651086438,1.0840245572441396,-0.43356295511315934,1.60864496585035,0.2932113544052713,-0.5082167168274193,-1.477670023831164,1.180329334613655,0.7792677140894257,-0.4009149074069361,-0.21529970551698796,1.3709987255490856,0.2986044576858264,0.9384963506343078,-0.8828422653669705,1.2492249699755529,0.4608306519368513,0.9249486655715813,1.6122496227647998,-0.9327165115383022,1.0
-0.6499043548712897,0.6052744233956393,-1.4959713899951272,-1.1829634039078418,-1.0210287290112787,-1.5313516175783997,0.8702688257714324,0.6170635220614371,-1.60178236001925,-0.16998005099959476,0.3469939536418689,0.7548170117541653,-0.5838776248215772,1.6107035997281518,1.2577661341828659,-1.5362081319800218,-1.1236274582780403,0.12557052722833908,-0.4062051420372436,-0.49248591476658166,-1.562615887617244,0.20074139658846865,1.3623048194092433,-0.6853372064434166,0.6490749050564474,-1.5745935195459093,1.4164266402519006,-0.5250647120629117,-1.5265473966183973,-1.3673529932236699,-1.1432267333138793,-0.003315991391858171,0.0
-0.7202336451795402,-1.266675361728136,-0.9748859959627812,0.7409112248687476,-0.5266923184585193,-0.26218806271163203,-0.3077833740065999,1.5414627925463034,-0.5469245193628032,1.3685118197777266,-0.3516110945228135,0.9540325942735309,1.4209230813440963,-0.7194542934277481,0.806533388721237,1.5267052714091125,-0.9491929802344875,-1.4833664629838175,-0.9014863986440128,-1.5325991437555757,1.012024848680552,-1.347500799313453,0.7923546150133637,-0.8127207123551567,-1.5862328075943846,0.09295244014517257,-1.3023415510219614,-0.8773811831248378,1.4191316625679862,-1.4743616476342207,-0.8413876982192151,-1.0091777738743213,1.0
-0.6151131513102007,-1.2439445533270068,-0.40595923391645816,-0.9497388485186569,1.5097866040080814,1.5743591902565999,1.623017506419221,1.3957082891905255,-0.5804135976057283,1.0685410447941242,1.4957438354274049,-1.0894694621669725,-1.6269210083821788,1.439659322430606,-0.006990120496250605,-1.5716941656547816,-0.9574660383870552,1.6106405579506256,-1.1668604153602795,-0.002879806085627107,-0.592282462849405,-0.2825004129388871,-1.4257140664387884,0.7227777026444776,-0.4900577965855641,1.3683669460890595,-0.07391324002967208,0.09932250637452161,-1.1140460816000612,0.5256088660645917,-1.6910252093103515,-0.8106439543632273,1.0
1.7215580368734638,0.170854099867661,0.06387096672094052,-0.8233020472034955,-0.976732220716204,-0.5529302763345094,0.20245485421925477,0.14871769253489797,0.5736505544814982,-0.06372850264947635,-1.266263557184318,1.4753841065862803,1.7207705851215374,-1.125370747805946,-1.1963180053926656,-1.2804392151517041,0.8473915059599885,0.4112849859762678,-0.3375413634166932,1.6802282049021786,-1.1956482959089652,-0.7831568025480353,-0.4600339541862658,-1.6144733032139034,1.6431037854666555,1.6901388429823518,0.2627292737638928,-0.7010931399163376,-1.3178314563346165,1.014022291406497,0.27840276211418674,1.5749749668469832,0.0
1.3376350358118034,0.18510123878531837,-1.0670166176264397,-1.7267961552706965,-0.899948018302717,0.9825334487477734,1.0128964778290568,0.6452436256125095,-0.5338952273196662,-1.1216836382640618,1.424425987592792,0.382363812594817,0.6798090354785193,-1.0921535751614477,1.6308894353283845,-1.275764335084111,0.09997671155843856,0.6536329190279021,1.1827160199507378,0.33500428082929906,-0.1845830645209742,-1.684323733568332,0.12543691709948437,-1.2056126967327654,1.188439919797562,-0.5583214257720795,-1.1577410585386452,-1.6722803871667558,0.6095513469671056,0.016404740673808687,-0.9233797806373157,-0.5453206204245996,0.0
-0.752859329443733,-1.176501094732363,-0.9693897444552175,-0.48575325772757455,-0.012668652804342295,-1.6255043508078881,-0.7784376451767304,-0.35475482999152436,-0.43427781012723266,-0.45663290480179974,0.8812459081165173,1.643678425007981,-1.1607836465589905,-0.6026341776055805,-0.6320003995891413,-1.3656330121605977,0.09088349717272587,0.3873925196902984,1.1433218538560197,0.9006262594611008,-1.5156167029758103,1.3130812302507977,-0.3842110723211357,1.0787648024164394,-1.594097650807739,-0.6668512715528524,1.4382232295905089,0.28852986991540663,-1.0206698256359918,1.4735905193523715,0.8077616137241115,-1.6420909547052285,0.0
0.49379772064715716,0.3493699628876634,0.19087983537103415,-1.4527306650472696,-1.3965729072974042,-0.5259032697788447,-0.16414570584849897,1.226020827515089,0.20125289975032376,-0.5499076024765461,-1.099877507780802,-0.019887207346050723,-1.450116126751702,-0.8505262149840298,-0.7296376634284798,1.05686421470802,-0.6540462337820017,0.7876686444457115,1.085308439460309,0.7738196817771505,-0.7486363230294799,1.230522015395746,0.08385184503260394,1.7032977818006076,-1.6169590301228511,-1.0133529779227175,1.6904978312408403,-1.1888873493175447,-1.050384597637204,-0.6324648904405533,0.22444367565634515,-1.231502670014429,0.0
0.6201344110565655,-0.5591965440301663,-1.1325266099995825,-0.459469553628052,-0.48305935094879754,-0.002504141119691634,0.6868920961928324,1.6011993326371015,-0.7424273192289869,-0.519864730382226,1.555873821566597,-0.36713895992206447,-0.9733209949682363,-1.1819248408609986,1.601220574756255,1.4402527732643298,1.2946949515874244,1.119165514562064,-0.9949650478987541,-0.9759359921866408,0.9162105389062387,0.5276007419901424,-1.519438758198881,-0.5863882591903027,-1.6806862392907418,-0.038419034914116336,-0.7679971365462254,0.36744986548686154,1.605969184246974,-1.6223670644040509,0.9416119885382838,-0.21661423221430573,1.0
-0.9675138517494201,0.9458500330516894,0.5838081208438499,-0.8768071299267962,1.5936058132813866,-0.2203492246245416,0.3104141079284963,-0.5413733591676076,0.7210674101864192,-1.1686719809950281,1.4588416526730452,1.2404316593158122,0.8449480182625434,-1.2231872063054927,0.7482618579067427,0.5675106580965762,-0.7059461668042447,-1.1879149745307265,0.9374739209005372,0.22021384685434878,-1.0075685253478561,1.634822378640449,1.3824225438387758,0.41112775317496936,-0.46654319108993997,-1.104418303539602,-1.4687738825664844,-1.4897707925496757,-1.2673943983401532,0.16687607042456337,0.7463741194638512,1.4098900490117154,0.0
1.2136863091984964,-0.4169402913186162,1.3253923564728674,1.4579839627641555,0.031268806199102446,0.2701389454554846,-0.9481791573988961,1.177775174800394,-1.0760840382648145,-0.3508312166880769,-1.3617295428675558,1.73030904350738,0.8813053995359781,1.112357450623662,-0.8793899354749298,1.5464664033587805,0.13237735559061262,0.843361086204311,0.13574373774381124,0.7929685421550627,0.24308091580655292,0.3357644558608261,0.2981161107080576,-0.14304439682332387,0.4653231489800493,-1.6698006104717298,0.8675578074691757,-1.0592087113652737,0.9233965276777504,-0.8097681768711131,-0.11518062339587135,0.6786149444339726,1.0
-1.2493355642471753,-1.1442882377948198,0.8889493827729437,0.9255163586491928,-0.3508296805112303,-1.1548079214740277,-0.5985195224050753,-0.5695969664632379,-1.0995513876682839,-0.9658489651004997,-1.6369389043028177,0.31072104989984095,0.11071891113023942,-0.6755956322940998,0.7042554857432373,-0.8803319163996907,1.0066268230790767,-0.07687854872482992,0.39170558952183787,0.6524025063054163,0.8767165240689941,1.0085485080354286,1.08002510314865,1.1083433771792228,1.4446060247412595,-0.6892495224852662,-0.05023615462029464,1.4913938659515504,-1.0693881410314772,-0.06905824841927977,-1.0412702319829428,1.637539666249233,0.0
0.7290460368378525,0.6865909022416442,0.8677646874547108,-1.569934069313497,-0.4168099644040952,1.6651303502638106,1.5300607407701157,1.3596245138103686,1.0463871132862672,-0.8292399365168823,1.2285525393963987,0.8504285335568106,-0.6650793272140398,0.3363735116995478,1.0742885015802133,-0.3331996992947126,-0.3208597808824044,0.9542116578713374,-0.39659868929064523,1.3580216820327442,-0.28866520835329235,-0.39659032543735867,-0.7778393358003921,0.7016894165258344,0.9729828704233188,-0.9531529007579534,-1.3131785418258781,-0.2626166308660087,-0.9446448326360632,-0.5491916075228095,1.4955875630014737,1.2789115013201418,0.0
-1.2318375790713014,1.3474660566823464,1.0012827008572711,-0.24341279169556787,-0.9657823232228043,-0.6558113711360027,-0.04786741850818484,-1.6821890117959006,0.34697459703332373,1.4546122757740074,-1.178080250037138,-0.1360727998129009,0.6807261739849603,0.38826707865677074,-1.1779206976614467,1.4930868632184053,-0.42791149323118277,1.2652592346273355,-1.690063605568237,1.519137976161289,-0.5375382381949209,-0.4815319354491278,1.4984499907367061,1.3369577201840461,-1.728259549265286,-0.7509830771712047,1.2546871196028089,-1.5856087993958699,-1.3296771787074273,0.14338928505677775,-0.40144169757867576,-1.2548652319008562,1.0
-1.5251652701189944,0.24015940047995296,-0.14448418963237347,-1.6480595737453831,-0.7510531524072446,-1.4798255624908134,-1.0310284111254733,1.2641116739577298,1.0705184992194503,0.39370291092727505,0.35661636604600594,-0.07494183492687768,-1.497512537879298,-0.9275567632059732,0.8001599465668792,-1.1108189205277446,-0.2045661298953822,-0.05151787308551933,-0.5333140857387448,0.34955030039894064,-0.6577455030550057,-0.3600282324271835,-0.07820331234053943,-1.4561399388064773,-1.1293894719865496,0.941083233950188,1.3041838605168643,-0.7400600221459778,0.48065183457110583,0.19202009662582656,-1.3342981548199868,-0.5885526529022912,0.0
1.6842374478479045,1.1609237803265673,-0.01499347507937301,1.3181729227657593,0.5985806950574236,1.6171568837721815,1.1242790539399863,-1.3986522506124779,-1.5411834308694143,-1.3010021918726669,1.2189235217209904,1.5622834066672016,1.3262474289127575,1.0687537007657437,0.09137705614722157,1.2590713761815724,1.1447662036645652,-1.453028572946475,-0.8353144382639925,0.4030594747386602,-1.729548639059933,0.3472842742113271,-1.3952626137407238,-1.6747898247644888,0.2206568988189028,1.5455225865013904,-1.6545230620946823,0.8234557876540569,-0.6595159457621168,-0.6349446137617569,-0.010619137428340355,1.4055445691852702,1.0
0.1878260485618711,-1.5267345084776096,-0.39189715681928244,-0.30639585008681647,-0.9857327828357452,1.0327491168054173,1.2152694490877998,0.24468105421677203,1.1804508658762582,-1.3367146260639138,0.27004694684609887,0.9937029869035683,0.3147512494180005,-1.0293115791985983,1.6874617978434547,-1.0130849878629797,0.962073553762916,0.053589994426779794,-1.09930685278749,0.8748199924244572,-0.5679279485022329,0.8141314229887839,1.3725613381121105,1.446304161452258,1.4102217356019306,-1.0558240368067804,-0.03271397729584568,-0.5966217703747805,-1.3286292403242377,0.38010005192075075,0.6009258335784818,1.015924114173231,0.0
-0.7672799201902081,-0.58744870218281,-1.7169557141928418,0.6514745134886316,0.5477335646758383,1.7022370321775167,-1.6458312392381527,1.5121051384857576,-0.5503103595558831,0.7301741105815622,-1.1409945875252434,0.6372990834228983,0.012740011105946313,1.2443718192398054,-0.6687772575926778,0.27965381673482803,-0.5633242316997831,-0.05611693554374387,1.4254724686273408,0.31107165518762786,1.1992696863992776,0.8648840349708158,-0.09392163571851089,-1.5865086357336289,-1.70623891046956,-0.6668512715528524,1.421383057768499,0.013468169307182067,0.7260919872215349,0.7910758303539073,-0.7280364898972381,-0.35607799060294293,1.0
0.6507094811294115,-0.3904748597399007,-0.6470896148980536,-1.4707275135206883,-0.9421639576019409,0.2230395575404373,-0.42876771889804305,1.5512813664875373,1.1818975701808818,-1.6321897389465432,1.4660546089012396,1.4286002952718193,1.546064256079334,1.6460831862562837,-0.793045301303538,0.8146036616417108,0.27760848364704,0.7611673890689248,0.02676986478913954,1.119721175283165,-0.16267953166691335,-0.2815223444002479,1.0566954607874754,1.6175487841197544,1.434132887814194,-0.3479598050183771,1.5107426371509285,-1.59260305212754,-1.378022996831012,1.366680071806027,-0.7073952333339558,-0.6525204673642017,1.0
0.8449683472000441,-1.6881918730115897,0.9534030826989689,-0.7682474739542975,1.5813583249188525,-1.0715797087819519,-0.03850455455493112,-0.1899788673415129,-0.37375349182343226,0.6494572761071133,0.09472616716968507,1.0331977031149178,-0.27471752002341054,1.2015508397077366,-0.26657851997544874,-1.708488318138791,0.053407135263760785,1.5636823543159175,-1.5673508090225232,-0.3410414127161755,1.2613314900535844,-0.8938118499409217,-1.3757872728975193,-0.9450380756395906,-0.3724048449630058,0.6538765013626985,0.5534521271887762,-0.8116262975710445,0.5009475261782796,0.5045588385149197,0.13369701143901352,-0.0940682977423664,1.0
0.04839533211813402,1.428074408384154,-1.7133550515684408,-1.228805269538113,1.528610518821001,-1.6542941312153217,0.9602021589450934,-1.6662349351687997,0.9543882095824936,-0.04849573520041477,-1.5762276542917568,0.42062731760292715,0.27504104424379444,-0.6254107092605754,0.6291670842521351,1.0036489349394355,1.5615021923240524,-1.327717899775477,0.5765581034407734,-1.124315511300427,1.3292916406386157,-0.37814652584739467,-1.1900179695261928,1.2125839747610956,1.680983218922414,-1.4508894320924945,-0.6999743675119963,-1.2330081340103418,0.5469656227604431,-1.577090631040541,-1.101462947365891,0.6365725431369632,0.0
0.9067217391498715,-1.6387950820897734,-0.5186573995312662,1.0363385515746233,-0.6374313773935878,0.7582424011580973,-0.9451138246922094,0.733298891355683,-0.8070000220386604,0.6201634360077068,-0.36174284673386625,0.1344061433879723,0.361997679460957,-0.008595762052784233,1.6095204806839778,1.6605414038066835,0.061610523708972555,0.7512374559450752,-1.532109159339777,-1.3050590423332598,-0.5984960238366469,-0.9463407955921777,1.6235603709394029,-1.4195559929468287,-1.258817401888863,0.8778452506691982,1.427468999004866,-1.144162843710285,0.5999066043253596,1.3740563279972557,-1.0075429382276169,1.2779585587878919,1.0
1.00452218853875,0.2875003619275231,1.662921192529107,-0.0990700276173769,1.515473885806094,-0.10623227360534755,-0.02730543134477013,0.9714546108008072,-0.9620697122214176,-0.302682940210326,0.7686979570068215,-1.6276120970524388,1.0912349068842429,-0.9714549034691334,0.22878364639431023,-1.275142858438817,0.20025911264991733,0.9880386502196968,-0.22667087138042977,-1.4561263628917156,-0.48769443889711583,0.02282902437768692,0.028653182347765323,1.6565727858042436,0.8374438174769765,0.030341302112121032,-0.9628422771013281,1.532634302770005,0.795347112790238,-0.24131001927223938,0.6396797545797883,-0.8226516490634291,1.0
-0.8477797854819772,0.1360041803622303,-1.4458570807126307,-1.2385573801536567,1.2804632222524563,0.3330039044859371,-1.6868625920011828,1.232700495683731,1.296975100780281,-1.3045069853483764,1.1986732278414276,0.14465442656889368,-1.3163518280474806,0.3745357024898051,1.2472309471834415,-1.0317187809950812,1.5947685067412574,-0.46221231342955355,0.1157552229839149,1.382650406850616,-0.3324000054728466,1.4649252083524926,-1.2314254595920446,0.18270228799673774,-1.021186013441127,0.4705334396859663,1.3542721837319125,-0.3075976794572761,0.03532129940682687,-0.5077728625438951,0.2162268971369274,1.640471202123606,0.0
-0.553520331879667,-0.4214618034648834,0.939558737192564,-1.2171549037194076,-1.1348274482343628,0.16849223085118759,-1.1133733918935884,-0.5592497114228852,-0.9184178906400302,-1.4654055264343722,-1.1654751906945207,0.7571104009678735,-0.3061288877884174,-1.4788986259215078,-0.4849923629201152,0.7430858682312291,-1.6779027757867009,1.0616971365679315,1.1187166906975168,0.23400703669818723,-0.3305794520927687,0.9342695501271446,1.220265469838956,-0.9850049308649549,1.6457920033248064,-1.5283231669030035,1.6385887832237773,-1.2118348888092405,0.3939387974417428,-0.042235498632993994,0.9334624354288429,0.31131593065218505,0.0
-1.5071524216817154,0.988129088723898,-0.2262843300095991,-0.32161588148998094,0.8780935645495954,-1.3032741142150854,1.0279239590095832,0.330951191729867,-1.321615648723019,0.7188732098064875,-0.5622003531925006,-0.37337768719411485,-1.4747190767449867,-0.4492906777769244,1.4708568016208399,0.5118717504518097,-1.3070249187460439,0.1977424324690724,0.03740943524684876,-0.45016799127948276,-0.9757764968964302,-0.32234081808729037,-1.4176008852787665,1.5886335851381737,-0.852784304105352,-1.5001350063268322,0.6734084657862238,1.4719396123618569,0.3407814274201205,0.30491502495972944,0.6381809335073548,1.5313391713807893,1.0
1.248297789389367,1.623976944158859,-1.4639773510067053,-0.737485986074642,-0.2292726949722933,-1.0318771011959893,-0.892651059717744,-0.8666722404233951,-0.9107702789214164,0.4617523574053103,0.9681896260217946,-0.05282284516891962,1.5472575193161224,0.8436965793484694,-0.2706396624324373,-0.34036641724871947,-0.07538640312191608,0.5355086636927584,-0.004680088697156273,-0.08582293612034099,-0.8840015399341649,-0.8603327653671224,-0.1796613141975846,-0.7299369429925954,0.8045826980903213,1.0593276521831487,0.3269619313205253,-0.4692581640207146,-0.2636456292734575,-0.023935263281092287,1.2235721643328101,1.5978919971598908,0.0
0.9939214559806099,-0.8410012470985743,1.7223950178959506,1.1773517952380819,1.5847674500204871,0.6190541578565939,1.6386786367108177,1.3415424404579446,-0.5809306507687526,-0.5651727128184205,-1.3310216367275591,-0.9544983030799518,-1.068709683632207,-0.9211328436099339,-0.9877418643166045,1.4863692922040317,0.47324971327962234,-1.553770086886585,0.8149646639635792,-1.4089970754951053,1.6044458346460293,-1.450802507328678,1.410624109793378,-1.5765856396731415,-0.7956200967981266,1.3138910362615623,-0.6135405151051961,-0.2921144654703432,1.0414549783927871,1.1190821533554582,-1.7031181438550131,-1.2443550183227616,0.0
-0.40513217320138695,1.3281424264662753,-0.7493719719813973,-1.229614374033038,-1.6155354683235146,-1.3475451709500557,0.8524200623539123,-1.4646098261750538,-1.6680703661792742,0.280654209626258,-1.4320243075741566,-0.3771274191560193,1.5933282163789368,-0.47152634307161334,1.5168114571804132,-0.09384833649963087,1.5947601852101863,-0.601297209282524,1.491559620837046,0.8035725551563954,-0.9414074013292862,-0.43990589645522166,0.1220659474625738,1.2082566762624176,1.5272921631717506,-1.2156114771786863,1.076162600610555,1.4647917410768885,1.1862095821379908,-0.33590471225424057,-1.0128002708578354,-1.1739486538296424,1.0
1.5011457375800765,-0.7197094959464989,-1.1209846289496381,-0.5844580948427083,-1.4954987284505747,0.993076473451595,-0.8944535047529469,0.020226064900971102,-1.2268292838113681,1.05502392079563,-0.5246904854811865,0.6119441045072652,1.71404622446667,0.6149684932452388,-0.6086206274384954,1.5818609615934627,-1.5795551768999707,0.0919241904625601,-0.9977960988205447,0.0016233729463152051,-0.7969471056719323,-1.1763372550222195,0.29799566378562103,1.3135645103441416,-1.0278504574851184,-0.8680808272676942,0.8791089883048592,-0.006549864373116023,-0.45941226605522817,-0.39340636572915394,-0.7194010804156932,0.3995667628555367,0.0
-1.0485094294516693,0.2917885057049507,1.565622387903438,0.7157159325692475,0.8262437503145881,-0.7054547954432588,-0.9704539084008192,0.9146232360245525,-0.589944387078272,-0.8619106686522388,-0.566633224134533,1.2198206818409587,-1.197626333045848,-0.6922941610801959,1.2375117908607325,-0.7372737998146466,-1.6362089463541036,1.4119806562930972,1.324310199142054,0.07794742777473158,-1.3576437188859196,-0.668522829737262,1.041296785011355,-0.07553976871762548,-1.718099960904865,0.5569968038484779,-0.5899002120150514,0.49176414355795667,-0.18007486166182993,-0.42317839040612887,-0.47210935411616617,0.48750201019431233,0.0
0.477751517285631,1.3931676053388184,-0.7112468762055634,1.7490384306563636,-0.4446860500643057,-1.2720133809084684,-0.5220251370836075,-0.095836026766646,0.9120189484444521,1.564305401945701,-0.3727589713762349,-1.7270043525379335,0.23929889150122757,0.37511501928198066,0.6885591455418699,-0.07574918846289277,-1.138202042064894,1.341310641955,-1.4678862449102705,-0.9147114631010125,-1.6001401990086443,-0.8408969469741011,-1.3586838099115275,1.5893338151294434,0.5583748341431685,-0.8735420253789967,-1.4563138719264277,1.019657403926612,-0.5089219449495237,-1.3200080777828196,0.48172448673831025,-1.6991886104240836,0.0
-1.1886546199491443,1.6748680219174015,1.6059534871952228,-0.8498628418834719,-1.689068320888773,-0.3746445567692926,0.38762741300707193,1.6393255719566706,0.7244554887048801,-0.4848983879229098,0.37140410058425294,-0.5489278845893432,1.201389080289045,-0.03957604310435525,-1.3432523428041587,1.2861820620176272,1.603201245828933,-0.8901394591763089,0.5023694580158791,0.9621298415204481,0.6797707815572698,-1.631086424490518,-1.40426988167114,-0.19124202563027437,-1.1159176426402433,-0.8731093492688347,-1.0815403538616926,-0.29076415838685127,-0.4784049900266659,0.3406653924952494,0.7398165862906754,1.1913707350620864,0.0
0.8556353711652323,0.5490851543882853,-0.7914787606654808,1.6943348388090735,-0.5966966085807792,0.9465895252080989,-0.41067931556148707,0.7160426517982561,1.0701976725814986,-1.4607165420422683,1.4333739284082325,-1.415136635603221,-0.13032763653910387,0.17543408562115315,1.648700862977672,-1.357985766524131,1.0313161816520715,-1.1917424233142024,-1.3945888562570508,-0.6407443064906765,0.9142469859785705,-1.366902517060119,-0.9569809700550812,-1.2598160261885194,-1.1115033706627655,0.6909261132975232,0.5901133712872754,1.5684182085753047,0.7949297921951624,-0.31209722009553176,-1.370025404522118,0.5570699090178219,0.0
-1.5867043198527004,0.3121418738485267,-0.03177425474238859,0.04905668542749071,1.437689948609342,-1.0821921628041475,0.6893612694690341,1.5364760836574054,-0.9646609469042221,-1.6403107453055277,0.06754254021241018,0.670184527983285,-0.34574024179320206,0.5629984597632812,0.3384363961468977,-0.2525746625666823,-0.49093218168460157,-0.38470647556416826,0.6882828450471199,-0.33277408505521755,-1.2465576724807517,1.6093259453725,-1.6355665775321746,0.276639062680766,-1.2038818486092637,0.8315901869347787,1.4656076662592095,-1.556648629728079,1.5079251201453934,-1.0540853722642973,-1.2278772751265108,0.4807324054522249,1.0
0.928877800527641,-0.6670579455555228,0.5957723246407617,-0.8415383019384262,-1.0540406203501198,-0.4902056376106654,0.5582135456800729,0.4509205095400644,-0.31462215801511006,-0.5190539528646699,1.3369597193380567,0.2072291858874927,-0.0860579878413221,-0.12028091642455291,0.15365518036194759,-0.058026103569857546,0.1753760935566077,-1.1305415172664242,0.7002577586956084,-0.28554666914037635,-0.9434017068478342,0.6400119726703162,0.9957755692869,-0.7782988801527606,-0.056220318553943195,-0.5690450661843629,0.942166144242682,1.1491363377595953,1.569133686388306,-1.6925128516454975,-0.6652128164238404,0.15993265568727155,1.0
-1.44816780083292,-0.34808932974940887,0.3580086919394285,-0.24209679616546614,0.26050813945524937,0.1055549191626401,-1.5961956372348904,0.891814738898975,-1.7212410394978395,-0.3050858701331645,-1.5146738652340976,0.864106935719419,-0.34228603921246115,-0.49653217681693096,-0.4488988072926411,1.5173282916405877,0.08567454233734159,-0.4713706328786543,1.2267098728099999,0.7447797734131777,1.0495214827401604,-0.7944410164328104,1.6843752574306745,-0.7906849659193795,-0.9330880882304488,0.9964902383045002,0.2964601930968587,0.693405392802804,1.5198141202095454,0.5302875024546596,0.9615702960502128,-1.7052063806358566,1.0
0.1697741618515529,0.5015429127225911,0.9124379137070345,0.5348031231368755,0.0370851098164894,0.7391705328182301,-1.20706671950243,0.8774135247471095,-0.5248829832270676,-0.8466609946910252,-0.5911424501459857,0.8520930307170655,-0.5086719426590397,-0.45193877410734873,1.5424213108330957,-1.4064962568138275,-0.462602060806563,0.7315505903823891,-1.7170973663312168,1.6591060413529657,-0.8638416789829827,-1.0828828836567164,1.5639839258813897,1.360768611071375,1.1085280713807713,1.6067149138269141,1.6936825670477331,0.599535239624361,-0.049060924917447436,0.15599966021373993,0.9225169164044644,-1.4776248307220716,0.0
1.2480760814613514,1.3676597133484978,0.15506078195015377,-0.3111241237516795,-0.36499037813819846,0.5523581621217583,-0.03758936529358223,1.333013494469791,-1.4811291608956363,-1.0430095514970368,0.4885243672517072,-0.0032407594710767377,0.06506720111417058,0.7239655692382242,0.2359989081624289,1.5808367309308966,-1.5512290087491911,1.142182260566374,0.0506179222817385,-0.4966824421790523,0.36238559212431876,-1.1280073389607788,-0.018883203040531687,-1.6282383506738551,-1.6924012744621677,0.19049414739684925,0.6650757378833959,-0.6607298650372161,-0.3863394298575007,0.11522539778117764,-0.7434204138303017,-1.12050806977676,1.0
1.39101287676673,-1.6712238047684933,0.8878055563416988,-0.9739521318010289,-1.5179522113593744,-1.1421747088696843,1.659941901428712,-1.5533205974930064,1.5241270754261604,1.5885214078735053,1.3517782784755694,0.2536948604941623,1.7065353674560824,-0.38941455427613975,-0.34206647589802025,0.421800627352371,-1.2701444709232228,-0.5948196349613695,0.12493763487893787,-0.40196082344042927,-1.478309197350112,-1.3539582217096031,0.37224192631988284,-1.6020426852767873,-0.21701386414023527,1.3303801240640252,1.343723321095318,1.7156907794368275,1.2149289672383556,-1.0590862499275415,1.0304060601658396,0.18856734119367938,0.0
0.24240450055555315,-0.5867216138586441,0.21029031245636506,-1.0567334968927526,-0.028329689873746993,-0.7982956799729445,-1.2232505000468936,-0.9344223177320763,0.12413139874598043,0.6358041649456565,-0.7434181722760718,0.8606103844785644,0.02640350124776649,1.3225967082842571,0.7750072604345473,0.9146457686365229,-1.1579710180077574,-1.5034299495067978,-0.5377040650275995,-0.5586766668295545,0.28272408070956406,-1.0915056970964148,-0.34632279425826984,-1.4151764843172232,-0.2280126560172653,-0.234289828204514,-0.6877212574176231,1.2556492978744862,1.3095216354554784,-0.5219069785783044,0.8800304572992272,-0.5005570731629346,1.0
1.2003160689681351,0.4756412116098536,-1.417053986456518,1.0486029501196144,0.042456103840150694,0.6779748007684742,0.03405267921329603,-0.06772449691462254,0.8279280483119554,1.658832651651196,-1.5821239597798842,1.6254656520890778,-1.1669943428683207,-0.6385398172479713,-0.5950299968897591,0.21053381094050136,-0.13905018411957892,-1.5181350077329117,0.36052239628035126,0.4406028325105842,1.3926927196257333,-0.3782550279039791,0.4692804526382946,-0.20549999814986963,1.1052957545393243,-0.8096940146494042,-1.660792914927213,-1.1072145092709842,-0.5736143653454007,-0.1186511803610974,0.9828517218584993,-1.5221315785351104,1.0
-1.2647026489720556,0.8851399811742209,0.9130197572485874,-0.08897210795742709,0.6102752327654972,0.14087763301159997,-0.28199855977339894,-1.5709189681940752,1.0907962349549123,0.1614155196803272,0.13480181581036096,0.16878409937099104,0.7451725451900598,-1.6390912632315817,-1.0933968181551348,1.4891506835379902,-1.0666154931420266,1.3416734840996731,1.1995928458434377,-0.5056520020486003,1.4100448690295995,0.6713675169938208,1.3821631196981432,-0.47120656799484706,-0.6596230170240377,1.0954782762989799,-0.9760425319159419,0.36569400542266245,-0.26013704501115575,-0.17000876689411837,0.9623296376129031,0.7785393226573871,1.0
1.0017504711529606,-1.1603789868263101,-1.514824297668957,0.8698314966929892,0.4239094814536127,1.6901636391297468,-1.3655598573654304,0.9277163884332708,0.5770132653123071,0.18804915684588472,0.9157892751080142,1.178915387326617,0.02557266911068675,1.2723499490924646,-0.20511693710945886,0.6246332886433746,0.697307006713916,-1.3172077254160526,1.5473695647712973,-1.3920055092601766,0.8380420657786931,1.4166820939363198,0.5522807357275932,1.5452085765348742,-1.6780518165298097,-0.7116538889810744,-1.6624879668051835,1.4366949076786344,-0.9846086893259641,-1.0183994529834128,1.2234881325703393,0.1632524847038437,1.0
1.3261813538163143,-1.3999206782978673,0.26240686967831384,1.3600328120278562,0.7655592591563778,0.79864003276273,-0.44460012557349093,-1.2859746028011436,-1.4732704004827426,0.9164052224631477,0.9198140870692901,-0.3638837792228522,1.5600685427580974,0.5133529857733113,-0.8255864830808292,0.5485622069226688,1.5438978084203197,0.9686824762319027,1.7025500128470878,1.1789356030031566,1.516622585611805,-0.18859808308262857,0.39862906748137,0.6060389210736995,-0.02280280416177009,0.8449282306982174,-1.4010898173885227,1.5769824429216839,-0.4336728591300688,0.975003476671618,0.4724657143642548,0.8440850614421787,1.0
0.5486722742589862,-0.6548294430283279,-0.08532739911560502,1.2335169475337386,-1.5445977974965253,-0.7840992114527912,-0.24903998489641974,1.587635749905876,0.6458164030921797,-0.17553567790593108,0.49715305328903764,-0.24264269183334786,0.9180710317333713,-0.07494653137334108,0.8632671932319423,1.0282983819870268,-1.4317904431321398,0.9780612567309319,0.8742810402486755,-0.1919719274585779,-1.3673400107902864,-1.03375935255283,0.6373826631942785,0.3915812015107875,-0.7567400745341027,1.151576339316872,-0.7069246932503305,-0.7957590372008659,1.0415971765214802,0.04728159257310212,0.1237843191679124,-1.6838719155997213,0.0
-0.04500557755633562,0.5437833167587107,-0.5482041648626128,0.12840064950515878,1.3518572616862605,1.6187501039201317,0.3475171302396,-0.478537730290762,0.4916763640510217,0.4315455656496891,-0.979116268804834,-0.5378632227568734,-0.6712068939333218,1.6777737258799048,0.35347879761339296,-1.597349796564119,-1.0983828917750573,1.3916293456215996,0.2894192262881928,-1.0898172041098573,1.5644428644297261,0.8769928644856321,1.1485763881195008,-0.25910751787621056,-1.5598009708267366,1.6680234368569338,0.10463886570200583,0.9617201665501681,0.4529355645307556,0.37442860551284934,-1.4702691857488768,0.20856211753999576,1.0
1.528739904049338,1.379538892598586,0.4949640692733118,-0.08485638920242046,0.14725499821123306,0.5722200630212283,-0.29569478974725644,0.3319208090873859,1.0988847967735946,-1.0088797138563776,-0.9015050652867892,0.02117383390922832,-0.04803727274547577,-1.0859689306369773,-0.7588847089115106,0.4492077405129708,0.7306921572178883,1.5324641510583754,0.8025317861953895,1.2546892858193555,1.7102408977903465,-1.6118893106219825,0.36562815492506484,-1.5934326204499296,-0.6265175141957325,0.7174248494859595,-1.2367019697546806,-1.1430506453844056,-1.4748599224705412,1.388943874817996,0.609866813105375,0.016482317906413187,1.0
0.21634903130099153,-1.152533433976384,-0.2268124762331578,1.207239893608147,-0.9700923892574403,-0.14030452888864553,-0.9772961426535386,0.22708784497692205,0.8335514677776329,1.2549890010707043,0.2853968633614315,-0.4127705406080743,0.820826408305583,0.2955135727726708,0.12534512518744476,1.1373341179176673,0.0214292250099964,1.5436020270182897,-1.4817223124054915,-0.999239982008395,-0.9242136277684504,1.413041074923224,-1.359494510351004,-1.6093567103829622,1.245016992043716,-0.6715159175320192,-1.2884638884948134,1.3420535893626337,-1.6788555031344679,-1.654853588186972,0.44909113374533144,-0.1308772500351524,1.0
0.2778475696192794,1.5452756495961626,-1.089573169082468,0.47550278328691126,-0.7710272045814425,-0.18705530854196245,-1.50296247707794,-1.3558239201226436,-0.9739432822594684,0.5324539210939914,1.1244813530847948,-1.738812317536867,0.0512669935210464,-1.6196406024935162,0.07754689720841194,-1.3565629659433371,0.8039895898136007,-0.9019831166918966,1.2479026635883703,-0.40050116173174377,-1.0951257644709715,0.3861512609092304,-0.34364671071233954,-1.60736044067101,0.24048730865644366,-0.6160875087058262,1.4978167171339252,-1.593424911387686,-1.3596871663888597,0.03299249383111737,1.65445342957809,0.24659628165996053,0.0
1.4431385466996418,-0.30154109147974073,-0.8690684428482076,0.984088873907832,-1.3287774707228297,-0.6575821841720044,1.1949074068875072,0.9600706394070921,-1.1899588420261253,-1.5463825741828143,-0.8205978314043956,0.6330326561119126,1.3500567637820804,1.2336534756068112,0.9494245964706535,0.6279425661434723,1.1434919461039454,1.3827404785668551,-0.9823656377234,-0.8596291659534029,-0.3768790152916892,1.1992486226293688,1.0966375132970163,-1.1022013188773958,1.3098861942754176,0.22045735024827892,-1.4320758561487525,1.478068992638458,-0.33143858712756274,1.2423962161887252,-0.7273825700001926,0.31824023385730005,0.0
0.632660540703851,1.68801760022536,-0.7949749709726879,-1.6214293216932398,1.1222338120421482,-1.184900049727171,-0.09095555806097753,1.601303299213079,1.0250819862008995,-0.2886630312417427,0.8526215981030819,1.2813509784182004,-0.14564003746149173,0.2082414022650628,0.9634607419327221,-0.22410389165637593,-1.3195275568730247,1.5627913242391243,0.7013880203108982,1.341753813619769,-1.169702334983769,-0.6219862976682229,-1.5152570881224936,0.21698131013512517,1.5644983894108884,1.6045102532231914,-0.9835353968629575,-1.4387264196597254,-0.5620205809614687,0.005985606174445017,0.03647837366120359,-1.165576373010589,0.0
1.6654055322479904,0.5275510881536115,1.5911624506167843,0.1426445831569115,0.4853961196945605,-0.22790678863828184,0.7200109210770197,0.5181043008178904,-0.42245721378986684,1.2975000583443412,1.204510819807144,1.4261356584567013,-1.613691855855755,1.1792427540990384,-1.45647856644633,-0.5960881595097991,-1.2491648971324332,-1.6493476069280295,-0.32050263101702825,0.09502485646311205,-0.6674325691821087,-0.567198959210632,-1.4016895379866339,1.4655435946992161,-0.019622745414764223,-1.0268943641690238,1.1618071657504878,-0.5227558252068386,-0.712657859465403,-0.00909681989245464,-1.4033844863727991,0.23533578053618187,0.0
-0.11384552091957786,-0.5937664214929894,-1.3600156654715727,-0.4869635893829966,0.5386305223683372,1.5783955915763839,0.5701308535555655,-0.170815099187963,-1.4411907211214237,-1.3369682237461955,-0.5296062751450497,0.998296408556901,0.986513350738821,-1.0435544924130942,-1.1353499870346835,-0.26600394225885726,1.4098953845453506,-0.9171229730998133,1.699199319136276,0.3655636479677542,-0.6122885608461888,-0.9505351750938537,0.8708921852072566,-1.1316693310099788,0.128665745572378,1.298464527598896,1.565572814353717,-0.7620520542361586,0.7005426930119097,-0.8401739427186677,-0.16759046972379693,-0.15365814570059605,0.0
1.082103758778035,-0.8878827645699915,0.7616720275328794,0.49878652003538765,0.5681912643558046,1.5778262711657176,1.3344528191275924,1.1492544148088852,-0.9182104724880522,-1.4942281893907565,-0.6358535313810121,-0.11118063230280213,1.6354723214583704,-1.6961167055462771,0.6239770780810225,0.8235051714299163,1.6100533794357539,-0.1522731658412499,0.8996047599047569,-1.3244930887172806,0.5291645806126093,-0.3944729853045836,-0.057889475614218935,-0.5573471416576602,-0.735225109652232,-0.3640315056191645,-0.3022256932965732,0.8520165490832718,-1.0669754097392072,-1.258154632637774,0.8316495520192203,1.113330001418556,1.0
0.06731858254553674,0.15820261717194434,0.49637123323663757,-0.6973677034742238,-1.4757864062528219,-1.2110259368138345,1.6491162048408523,0.10231394412368768,-1.0209182709232663,-1.3743793948758578,1.1243778705015455,-0.010411014643899428,1.2907841139164475,-0.16892546760869034,-1.3375848118689617,-0.9300695891451187,-0.4212682300542456,-1.4843585377084945,-0.35009451459005725,-1.1279202010873173,-0.6226383453067492,1.5578076188768581,0.8979556821639644,-1.4185210038807858,-1.1392923808830988,0.5043723808386702,-0.9764655285871172,0.14910413475636014,-0.8815227741831372,-0.34084421062735554,-1.1628993328334072,-0.626701293884896,1.0
-0.934251769977568,1.1459546580178124,-0.7362595282750493,0.784207551699917,-0.5853235195198322,1.0102737501953645,-1.1489481584020063,0.8259463828803231,-0.3363354064282905,0.18917968796283963,-0.85789633043503,-0.2465865536192642,0.7318245532915304,0.08126545754058755,-0.3075207903776551,-0.43029183254740067,-1.0435616159242276,0.4757897458139422,-1.2892586506924613,0.23274669854215826,-0.8051242195868425,-0.21536864050075383,0.36041805343402683,1.1547290073245553,0.19081598989037576,1.4632866055353377,-0.9182667039812724,-1.0414442618618613,-1.2269452132544978,-1.612282447035889,1.254556966931135,-0.17390353355701713,0.0
0.8568020999292744,-0.6546347262955773,-0.2500582658667272,-1.2723040572200672,1.6632731721381953,-0.1651982282829034,0.8094326303744567,0.03075102167756869,-1.5451922716268887,1.6080609255268836,0.676603595348037,-0.03349179588736172,-0.5207575010091731,1.6117645527563917,-1.5267223617512302,-0.8323958431358262,-0.27216234286212926,1.1269719791008412,-0.6828247221372893,-0.616439099131347,-1.1316936702860134,1.6417215594098353,-1.236802333744918,0.13544597713857653,-0.5962339484672354,1.329922985700285,0.5232431149223358,-1.6281995432978162,-1.673872386102899,-1.3626482706352974,-1.465349508018768,0.39249549611054557,1.0
-1.6311954294072684,-1.1665318897259964,1.6449325910010728,-0.8724520049102776,1.678971072584564,-0.3678865261692485,0.3208649077105021,-1.5601654324206478,1.1435804240910152,1.2669154427954075,-0.17382581474319686,0.8322150225016943,-0.6801643449397712,0.707424316891642,-0.028474115619502638,-0.5500216428526228,0.551395408569517,1.1820076306481968,1.1224081590563224,-0.1710966184630396,1.0606200927886411,-1.076129405649029,0.00033734623598010577,-1.7218449730593686,0.5782651870890387,1.4134600527785206,1.0068999608988591,-0.5601296830387754,0.21637815802810145,-0.44831627867837903,1.693016369301054,-1.3528775371212494,1.0
1.3614469092233903,1.2080393954429767,1.4406098825552085,0.2213789479575813,0.6115049950210177,-0.03381018619198421,1.4568081101816186,-0.07503460070355265,-0.4316723993836814,1.123195388187459,-1.327592767018755,1.3562083243206753,-1.1836941615763041,0.4089358317029048,-0.11014686680951206,-1.3653915758520534,0.7036461179302061,1.1886245241050695,-1.3455974892161318,0.49332237893016406,0.8549944315011235,-0.8160732264569756,0.8187278584530314,1.1673531098645227,1.6283162817426613,-1.300925115423029,1.6842938800636016,1.4264024646076494,-1.1470855076753752,1.6638494394468677,1.3944866577975128,0.24748115686847805,0.0
-1.3745732904419683,0.8615187265907378,-0.891307959454161,1.5649357544618079,0.8456397847379898,-1.2878425346628057,-1.3818730140625026,0.4134829566173945,-0.6047479250401273,-0.04509017560038088,0.2322471811178804,-1.409965991431343,-0.18918728190589412,-1.2422360577445264,-0.5290761483194862,1.454803598406165,1.0103330712105767,-0.19641742913034613,-0.4529606573153111,1.2451110224851558,-0.5736510056649436,1.4843796270980716,1.3924103732531314,1.5117649164913345,-0.5720030996772161,0.5201153699070022,-1.2473167340465665,-0.23908687705731207,0.5025333444395671,-0.6712243776746377,1.337557430498885,-0.8880782700316897,1.0
-1.3757422289195786,-1.4074891062097963,0.21824781363527634,0.9717550179906738,0.2933644673433023,-0.08524634858314938,1.4051171915721463,0.633600843806255,-1.633468094113503,1.6809647461898147,-0.2486679417605316,-1.6082227350100562,0.003779128250312191,0.2172362201484684,1.2683253227672633,-1.6416423931641737,-0.6599549600343695,-1.4213480138758892,1.1564409068203951,-0.6552228627040342,-0.9573772217731104,1.0350106096069787,-0.5826025954872889,-1.2885223846463885,0.13772637694676207,1.4085935932073348,-1.6577645039770588,1.516607279104396,1.026456167079406,-0.5567965015697679,1.440520785129244,0.4928174493839405,0.0
0.9898062327453173,-0.5928985828713671,-0.5173576302039289,-1.3992780448072015,-1.3797012769285004,1.5908724055056533,0.18503979494968312,-1.5651912209444878,0.05962659180619908,-0.5689869689730883,0.3820914295011199,-0.7676590504435098,1.631096157231794,1.2325492258378097,-0.48683296415690874,1.1409944459254275,-0.5342711084638543,-0.6463095379557128,-0.6489939720152396,-1.0059265205709762,0.5249699272166193,-1.6953413423997858,-0.20272072307893352,0.8484290606830783,0.2767882402595315,0.8421915160791716,0.752994676429214,1.1199104079945985,1.1644084451248773,-1.5959923834357053,-1.1462442375116944,0.8402284287589009,0.0
-0.11498646969199028,1.0397304814550963,1.0183187266756835,-1.638013377660451,0.9554565219814177,-0.45180464703548234,-1.520015136101853,-0.43785656766792036,-0.30492424024744735,0.7113887703833178,-1.6480959413989733,-0.4539733040162442,0.52202763590028,0.9328727091721029,0.04759621531794911,0.11695236668087951,-0.4786637946572709,1.2285264431625615,1.0197625175738876,-1.0432153574987384,1.6831386394480738,-0.4423471927283699,0.9463166657135579,-1.636292531165538,1.1514550219584092,0.31802351975353405,0.9253167768408636,0.730515026723068,-0.4088361011957395,1.08637773309258,1.0432843097270466,0.06852442785352637,0.0
0.20957331292951212,-0.49476791305046924,-0.8113254365120518,0.8891376905225786,1.0679930391772532,0.9187227893175745,-0.38037074653765063,0.8983852790304212,1.0229548309804344,-0.8640791126021848,1.0923900095729884,-1.579629552528109,0.5520471801273594,1.1258150331981769,-1.0135195433651807,0.005064776429641184,-1.5831436753668153,-1.2668124727737835,1.1176049326830229,-1.1009670569938497,0.44799465461520555,-1.5046551780702635,-0.4207219317325474,-1.044373992098406,-1.112310297121044,0.9492138754831965,0.3514344343833085,0.48491582845191983,-1.2308463880025373,-1.129650950824117,-0.7271289468625535,1.1557993704735217,0.0
-1.4132116053254007,0.5537051188151567,1.2679332839003519,-0.6232234365022976,1.5850262309267749,1.4843758703042014,1.1778054967145897,1.0361055993234412,1.553750565735999,0.22326909698748276,0.529078531100033,0.2702638040667741,-1.5753523266082838,-1.3618408352241034,-1.3494218411233403,-1.4046494138876613,-0.4583557221931873,-0.7041667847462465,-1.6645826053053896,-0.4229449937608799,1.181708419377429,-0.22988156558360404,0.5868953282062856,-0.3880527209395314,1.0594162216257768,-0.7324361022864875,-0.05858574108610413,-0.9186584883960839,-1.0609103504241093,-0.17924941902300923,1.020108349637599,-0.9977826850877086,1.0
0.5857807307819923,1.7015011870112204,-1.0015919524983288,-0.9591045101379942,0.7904081243003009,1.515039511472802,-0.06301251437290076,0.12441532106229886,-1.362132322554005,-1.6370139754358637,0.05228436357584484,0.15598038862075608,1.208120351018622,-1.6652426775311684,-1.7186654508657708,0.8431017671331312,-0.08896242629560701,1.2011969278690313,-0.18142031563377178,-0.7344233097230954,-0.44914452859987797,0.971614407974107,1.113200509323357,-0.6855982570980564,-0.29112506407408656,0.7044476239627975,0.8077420934137294,0.5409312977266025,0.08528693969203814,1.131181545922098,1.3744305678710722,0.05236617339029404,1.0
-0.36564385516536313,-1.3949098218531895,-1.4464175924429257,-0.2503186278686903,1.3548063318433843,-0.9092386148900523,0.8066047323114774,1.002164567700661,0.9475933998340628,-1.7074472401273482,0.9455878555696702,0.515366362401838,-0.5431201723181237,1.4135020788443802,-0.7319402835698202,0.6609089215804904,0.005386538219295675,-1.0864355284651623,1.3984078685297008,-0.06848638681350677,0.6995708371951592,-0.9836546528515447,-1.229980096522806,0.14002664833146347,0.3951051770820446,0.8910288764569255,-0.604780192741289,-1.3319154395514354,0.7522997205922789,-0.3942748826844766,-1.5004717290311094,1.3871060593770115,0.0
-0.18167783489569284,1.2925158278583004,-1.5527824168532203,0.7058330351997298,-1.619297744576465,1.4083295724717162,0.7717555013861535,0.7102765622653295,1.4446702549409136,-1.2475261588697606,-0.6158498342955755,0.6156126414857426,0.7572234604139638,-0.8479169577045843,-1.463983495312009,-1.3769775300200053,-0.9182032749107751,-0.7399656787078522,-0.5073072748199439,0.3020775631885218,-1.6187778067112817,0.7786326501331352,1.1076506857433952,-0.14401181983757735,1.4793299914944553,-1.5230056845314721,1.5697307490236407,0.15748863539537986,-1.6825866583808098,1.6981313074660567,0.9874979143980214,0.9585015916820179,1.0
-1.0891305939770217,1.3570523917085855,0.5861053362424208,-0.40079950248509316,0.1673042516744376,0.5253910840303744,1.3341183523694289,-1.0231220287759888,-0.01275562825798473,-0.5741809435325183,-0.3261257562012776,0.423728227833628,0.21720731308969798,1.2395488960741985,0.5873802551771476,-1.4308970948116573,-0.20228034400234746,0.22352565845407896,-0.646283194498623,-0.5340602080764615,0.04219576640313974,0.7119627864501756,0.10524352729560048,-0.10006470992499823,0.709446837160677,-0.170665035538821,-1.1936789170255693,1.2495122366702205,-1.6273349572246416,-1.6818758206661761,-1.406907708995666,-0.5503900890580138,0.0
0.8192811635401929,0.4354128804788228,-0.5086380684573201,-0.4325843782418911,-1.2806538066313482,-1.344051049148519,1.035611548804914,1.378111393192662,-0.9925288440068509,1.081158448319827,-1.202501405764974,0.9796149191427596,0.06748062586514071,-0.43569648415552914,0.1866517423075165,0.8912254811464091,-1.6640043163993703,-1.1093389819854818,-1.2020696837416325,1.5149276494259418,1.1691967277780266,0.5399544761469637,0.3448309863176851,-0.2234126798344232,0.6449019425150644,0.9109013997074044,-0.2782359581737185,0.5997718121964403,0.4771046095129638,-0.30552503260499075,-1.4119266969905129,1.055140174550726,0.0
-1.014413549093393,0.6327039580481234,-0.9916623621476056,-0.46182002065851446,-1.6816462485708321,-0.7072299934888419,0.1985522519794947,0.37990101522511766,1.3817568973470642,-0.3539897941975406,0.9679430292276683,-0.7518533397151123,-0.5575153651695602,-0.5014838243474952,-1.3896861247809726,0.8136582161847613,1.6371110688669357,0.3859977973536,-1.63415805969654,0.9050650416529538,0.6397216824546467,-0.08362699342538375,-0.04662614417508674,1.1243135348748379,0.3725342912919121,-1.4909509589991181,0.2429342556301938,1.1063981200464827,-1.2873763266851035,1.6504856335035751,1.1954199960548646,-0.6306940612156382,0.0
-1.404468505306979,1.7019890727573257,0.33666437582661024,1.5294903274101617,0.5409868294238789,-0.4906631402770034,-0.2560520253494375,1.5173860506641232,1.3606673956067383,0.300769283758554,0.6437790667251229,1.6563566526020104,-0.2549019996427823,0.3436343796972576,-0.35774301595240315,1.5561314422537629,0.49855789326457073,0.774546619036443,0.9968658535555507,-0.7612660592335533,0.3463696427941751,-0.44431728007006627,-0.7840161010535492,1.1022455410052527,-0.8341834964899497,-0.13227611522059762,0.7281221656447757,0.3266180540201806,-0.3040917230954459,-1.6393461105359302,-1.3072246488021213,0.6916745886827623,1.0
0.584032110778308,0.09068768951434367,-0.142303931405872,0.33267625886496327,1.3410798847970524,1.1416340205589341,-0.969017539070156,0.808614933459423,0.26046108273006224,-0.45355224426138485,0.6908115338524752,0.11945740880283691,-0.4294471013378151,-1.0716654157013836,-0.3833706967010807,-0.8767726274869649,-1.2564147999244504,1.3053111896771399,-0.23292200451601727,1.0239876062002857,-1.536044111467646,0.49796263021943027,-0.9114458566088071,-0.34292166952855635,-0.5333167397631788,0.5735653939750697,-0.7681733851592151,0.8548907522154825,-1.1706022960237987,-0.6091453636383687,-1.4186156252831887,-1.3839595523127537,1.0
0.32877262851343564,0.10952999746968327,0.37879985211893735,-0.9193002635287569,1.2345366154280315,-0.2555484273702888,1.0891460775890554,0.48182144050501124,1.3380267343773398,-0.48676692504859215,0.14816501351111047,-0.046141236169085255,-0.9474524578354129,-1.1872409673961577,1.4040208367718998,-1.6220897075113603,0.3661802714465897,-1.538657788109909,-0.09790585540768541,1.2373021389953083,-0.7288700952415579,1.3032571440417724,-1.5768085538702044,1.101491565290969,0.314146629773659,-0.6740095385061331,1.5270111504281982,-0.5861465212253711,-1.5467395308927192,0.06256963926193304,1.5630238163094046,0.23037150685762633,0.0
1.5737252528720067,0.7792184542148435,0.8583389691974943,-0.5299924314405012,1.606019186840259,-0.04464042902339479,-1.4961386201196252,-0.9683493396744057,-0.24551535409187403,0.6701302651404294,1.1524502734043174,1.446190819363186,1.5261285050363909,0.5119218844734705,-0.8760218213747615,-1.0122489037200415,1.2218320647211698,0.4754406824848893,-0.24901705327508536,1.1195433173438718,0.30967718898607044,-1.3315943978181832,-0.41641827054241004,-1.6708418175110822,0.9369416922896575,-1.4800973628647014,0.34376225563003393,-0.8545980154851707,0.6603686303926379,-1.387873624395981,-0.7665413713115858,-1.2424924488279092,1.0
-1.1736543476765953,0.4201987213827864,1.548531929187333,1.1870869109646909,1.5552398850722875,1.1668945990881787,-0.015034544324933083,-0.6371118286106654,0.4159605313859826,0.6520057490476092,1.3598381772645431,0.8293938658957103,0.6099991709493071,1.2203804185293543,0.7506601826272354,-0.8922284824477361,1.070635808924004,0.85184118172898,1.4484847801506533,-1.4954728321861335,0.5762114317699064,1.5403186373848368,-0.07889202166626637,0.8597571235023626,0.6381606483321892,-1.7184438017117079,-1.3900965017278673,0.10461005697904811,1.3573558494421378,0.06123770866613793,-0.08320271815016483,-1.6232656987394005,1.0
-1.4366154182980484,-0.561873716786448,-1.4495224743505042,-0.43714122520098014,-1.2620901472597945,1.4196070862804413,0.9029098410011002,-1.5729341501241887,-1.527005877905795,1.3817018395193643,-0.35569241824941,1.5251566314270704,-0.0379986037404845,0.6541376875873911,-0.6591807321920309,1.3924048419550412,0.5958325231811443,-0.8877143876270988,-0.07946701721445497,-1.090504103737474,0.35581068819424067,-0.9267778747900146,-0.8904649292351456,1.349207138255001,0.2778426241650154,1.2672522209241368,-0.1464740276992281,1.2809656354580419,1.6633291272241904,-0.8949764419101672,0.5972223246288596,0.6529071538480469,0.0
1.3689326822214711,-1.375927492876546,1.4445798061882815,1.0972393666172886,-0.7872161252089723,-1.2746926217627739,-0.7809288712062175,-0.6532104261518912,0.8878838319689674,0.2859768206911933,1.4270923154292827,0.236061524502443,0.9944476237366562,0.11840377413761811,-0.19892053565973225,0.3151250681256044,-0.9792491253488476,-0.41753067633125696,0.13436059358430913,-1.6130246639944266,1.6486004046310916,0.30063148993880495,-0.7756357747963283,-0.4753634157719655,-1.4113326505146067,0.12804812957544964,0.31470269083961355,0.39735632544296956,-0.39949121112971453,1.6542942184560667,-0.38955196711417084,-0.8038248461129708,1.0
-1.3671817985561334,0.14134029397097822,-1.1188028995637396,1.4378642309903538,-0.35301272969504105,0.3555742796369225,-1.178495172345716,-0.42552657416797196,-1.5737712100922336,-0.5193612103463912,-0.3718672597546175,-0.5630432633900317,0.49121044180762946,1.2395378775794532,0.39927157014240416,-1.4493515694133219,-0.00651325121231539,0.010434743903333593,0.42146863140222995,1.2761932306348103,0.9106212555138549,0.003497057953110902,-0.5308876284052311,-0.7394637562948645,-0.3793536345208668,1.4419524626335698,-1.7239788089823496,-1.0015802472809592,1.6915229975011274,-0.026135710832209686,-1.215080001627321,-1.039707515552817,0.0
0.6657568939580835,-0.8716053208434296,-0.6116574763986103,1.2941960901120408,1.530135925359773,-0.3508916907011588,0.0906937058435904,-0.7141687578483235,1.3981832212101863,1.4605516069996223,1.651032295176207,1.1364230999543827,-1.080572218161675,1.408784631477017,-1.157674664365832,0.5556734510800162,0.36069878646862835,-0.05872572463456087,-1.1093404303191297,-1.2201886068701662,1.0579507679002844,-0.9582093705531287,0.9339569584419907,-0.896238494734882,0.9527543768663604,1.4203217149071676,-0.6197689878285899,-1.5074138833959825,-0.5530280949535075,1.575802382239357,-0.70023267147099,-0.588309776315338,0.0
0.8707439194026261,1.0819205654366848,-1.3000011890262952,-0.5372994947741208,0.6641989805885016,-0.34340282517086224,-1.4764822660244692,0.30950458301443207,-0.3977945986329127,0.9226275540008742,1.575064336366641,0.5356156531323347,-1.09503110891656,-1.561763627130579,-1.0348619198521465,-0.06450187044280378,1.6954870022915878,0.26403996931692686,1.6809131356496125,-1.6468866690745925,-1.7208779460614037,0.7595455883505637,1.1594938207044563,-0.9042988175949097,0.22413667310755522,1.2400884172165465,0.8320153589140026,1.599745640149422,-1.5414194661214229,-0.9324438950870404,-0.7295765629257939,1.2651727308186616,1.0
-1.6812380760164989,1.193542844081122,-1.6592722898122685,-0.44063995559684305,-0.8744577303996195,-1.3857912245200255,-1.3746977832351719,-0.23822304535300262,-1.6268762258662879,-0.006175059954925648,-0.3999403965764194,1.4341842957229622,1.4833843596775484,-1.3478312306348519,0.9738424023528323,0.1637660898606522,0.07992630605782468,-0.0005025737403269233,-0.8452477879579874,-0.023802646082183347,-0.34341558352595225,-0.3117339670414778,-1.0008699755613892,1.1341812496202255,0.36619876584234284,-0.7786223659327185,1.1297544397325117,-1.3000626325250384,0.3452019344642538,1.5701416772072283,0.8234648583545642,1.0646154554111662,1.0
0.44110562746958104,-0.1313484571896331,0.2909230878519922,-1.199667901914024,0.2750529534701828,1.3496150250101673,-1.0718289450707819,1.4102650845305553,0.8527122791479471,-0.16354969585582257,1.0335025483518199,1.320216802576097,-0.863418969725829,-0.9986204307643203,-0.29416441901223306,1.1956215602569829,0.30489825133364784,-1.715077150376416,0.706700095706088,0.4271300936090936,-0.8012739952087049,-1.2435217284592652,1.081339209956259,-1.1140054152433765,-0.13564340008743328,-0.5377838350024471,0.021152196623721108,1.2665239552624712,0.8886584522172954,-0.3884438501222405,-0.17364534017237476,1.2262010940127497,1.0
-1.681863424956317,1.0995807167486213,-0.01777102402109689,-0.3065621044350887,-0.2959172569180502,1.047706384487963,1.1895868126114884,1.6063784902942981,-0.5640947133608969,1.1000922717987118,-1.6559253896124835,-0.6149320247534161,1.4655454916746269,1.4007605384086592,1.1765230438611827,1.3519703984851068,0.35424365923998924,-1.057003978299747,-0.007392408180505763,-0.5692730135404,1.5717819702431648,-0.3195383649686539,0.34308759432498126,-1.7064260929226687,0.6019288818540968,1.4456218006702788,1.4702974119613712,1.4122280806948182,-0.891331353799246,1.7109334929046713,-1.3677321013317785,1.3033786102325862,1.0
0.9939818548181423,0.16685912510358814,1.6669242172486147,1.325801411172705,-0.02124676062387547,0.11595908522971353,1.0796869166131216,0.8406971016918569,0.8910950827823247,1.4955782248500895,1.4779705182745575,1.0972192094109445,0.9149019277048324,-1.1493338936211588,0.7048771360789824,-0.8779165877529299,0.21543707678551482,-0.4868763933902714,-1.0362034062061423,-0.1971911380219867,0.6091828220815682,-1.3307077810129508,0.5318634381832823,-1.1178858564449936,0.29833240819417844,-0.18003102087752193,-0.3543860871617264,0.08251510045815733,-0.1710174591168571,-1.2014002720201786,-1.6551467024357729,0.642749652765655,0.0
-0.304244753957647,-0.35875718130998896,-0.24515268485709887,1.4664843628642628,0.14626189883582166,1.2484068113640214,-0.7531857724812627,1.447116442929098,1.7341401926292812,1.2696440068436108,0.653354508311331,0.02988605563095224,0.27524737258193943,-0.6356668018930731,-0.3096476697067807,-1.3495628073166397,1.2111513795914683,1.2597415844610773,-1.4020365555774477,-0.9148954540726956,-1.2476524647160687,0.48828889686024335,0.4176241648261416,0.22150516442082535,1.5808797650153301,0.29115020530718316,-0.09399025594415464,0.6028687622309336,0.6767847860974429,-0.22648385174162752,1.2349088130152344,-0.39662445776247557,0.0
-0.4492881428647685,-1.4451161093044183,0.1605459997622393,-1.725279176706239,0.21857973449634507,0.688492977084667,1.1790625036518643,1.3875082020171654,0.6032568842967484,-1.7145295985875957,-0.31655398421022013,-1.258958823117477,-1.4283864693001371,-0.8541415842774138,0.24368888599851818,-1.4548917303589375,-0.012278223015430776,0.20189444890938701,0.9250857601676041,0.18484771558067406,1.4206145345149495,-1.6051094821148386,-0.7597352368433886,-0.7853856376301902,-1.6873353133069562,-1.1173099111752411,-1.4326735688362828,-1.6661632963744186,-0.2874050818197586,0.582674726579591,1.0347757118143213,1.4642387130425698,0.0
0.32859290514321704,0.5541849825235831,-0.9907186133943663,1.5472034351291957,-1.195123399399372,1.2589169484959817,0.2617738201901869,-0.5263667793499451,-0.7362771471903007,0.8590281955475756,-0.4482117190266444,-0.5839066834497222,1.151151584988091,0.8150610888425155,-1.507322163808448,1.3927237990436667,-0.948645192336371,0.7740000593501627,-1.3258479792998503,-0.6270063139383428,0.6641853684994415,-0.6403107449959443,0.9133311950703857,-0.11030250236313949,1.3996579155109818,1.2143220197446036,1.2368415643884396,-1.5069791428901482,-0.15318395902062884,-0.5742788578807034,1.071725241697846,0.23209639472038396,1.0
