Bachega/quantifier_recommender/data/train_set/puma32H.csv
theta1,theta2,theta3,theta4,theta5,theta6,thetad1,thetad2,thetad3,thetad4,thetad5,thetad6,tau1,tau2,tau3,tau4,tau5,dm1,dm2,dm3,dm4,dm5,da1,da2,da3,da4,da5,db1,db2,db3,db4,db5,class
-0.5718926270573831,-0.2917673324822774,-1.5646818896366599,-1.709295853117451,0.7306149895970814,0.6506773852886161,-0.702537214010419,0.5454792164188406,1.0224056951536147,0.4321938936374357,-0.4780279135450236,-0.21616426960156943,0.7125295609548086,-0.723168623434309,0.09075129722294632,1.1881586908530934,-0.9866569754236664,-0.10024282707867957,0.4051253259991485,0.6894736205833538,-0.4878251374083547,1.2941786219644191,-0.7034386541348014,0.36390368975061665,0.5003960153637762,-0.09295457148471023,1.1367369500001745,-1.1896861657946955,-0.6676598798934245,1.5827873454560144,-0.6999286292758685,1.0876283987711515,1.0
-1.5270324780841755,0.08925830825520113,-0.11088438016201774,1.5325464517855132,-0.3143231410361977,0.9179780685236473,0.8811687666286865,0.22130848311514736,0.993143321338587,0.8495671643340993,-0.11052309663671911,-0.46515680577900276,0.38888849026375816,-0.2213274398006218,-0.79867330158186,0.24046080924483942,-0.6300464296350642,-1.5072803629829743,0.211426548932984,-0.4788475839905763,-0.0265885536174678,0.16304313204291696,-0.969220230404212,1.4799566620195095,0.3584353648123148,0.15848834637165132,-0.6289093941579009,0.031246444480391385,-1.1933076276595755,0.3273721727356046,1.711361266973543,1.0412296887552845,1.0
-0.3829039278470543,0.06589011249667862,-1.0885198189541447,0.8493984678362211,1.7270342807378245,1.3792313797237163,0.7659526869049581,0.1744070223721307,1.4857092046941462,-0.6524933779526371,-0.22391505463107325,-0.6107741034657375,-1.6941398267769425,-1.3222070810267468,-0.435739973149772,-0.14492804751849095,-1.7086943593248296,0.18160743937745166,1.006319651595582,-1.4631962159786365,1.4254027129149176,-0.709420354922673,0.7279139673184889,0.12753153552673027,1.1301875145237437,-0.9206807880239237,0.912800060125323,0.7099639366628251,-0.16597715370744476,0.03368301084506613,-0.5458892415655295,1.4867396044899337,0.0
0.011724398881643784,-0.5080640758651053,-0.8994412641810255,0.057147730376740716,1.6173524634540848,-0.6506516765284207,0.5787939101378923,-0.058695626539854606,-0.3201269462355913,-1.610758162063619,1.4206749274297579,-0.4133130707246096,-1.3430041948964557,1.1086971843931843,-0.6724230379979199,1.6651203714500484,1.1608327455110028,1.574633450775198,-0.06964314715850346,0.9312300910843794,-1.170989330912084,-1.4969546321115321,-0.0341104735808771,-0.4491953910324475,-0.396737135936352,-0.21416809574570841,0.37054438182129984,0.9816383481708224,-0.05789421084654662,1.2390433724654388,1.6091282247515661,1.647604348253808,0.0
-1.3713176457847296,0.051031840163122524,0.07849061322961691,-1.2298678195506265,1.0741617566784163,0.37209772657499945,1.0242198315493927,0.43652003273980156,0.9096112564428945,-0.20234132045599273,0.2828839246022396,-1.152367525146854,-1.3195234827747382,-0.7420924081000022,0.9479004958248717,-0.6025759039409964,0.06834560111206046,-0.4653263257597892,-0.551840816035756,1.2110604266590148,-0.2001023595084107,0.4267201798661287,1.4196051264714682,-0.056226627050533294,1.550782176622931,-0.6527977068722554,0.2705700381469841,0.05700673968297898,-0.3012817644219371,0.35262361269459286,1.4729402390904789,-1.2408727559200103,0.0
1.3335780017004755,1.408034628986206,-1.727528936779796,-0.26672460695619693,0.7056009765243593,0.631012078985384,-0.5905636241114376,1.5087892683285231,-0.6921694533396379,0.3256519943177483,-0.2887377190489664,-0.6506792234115004,-1.0482036891085191,-0.6255202312695451,-1.2401204105086305,0.666898183486629,0.6659438264526618,-1.4072890290044258,-0.23592883964536976,-0.9287254421108706,0.9157292608589715,-0.6675556114042813,-0.13223147800990437,0.7683187571424462,1.3627898298829324,0.5963428098379435,0.23160376870990598,0.3463472848202778,-0.5233890589121422,-1.0390474461827413,-0.5318406587306382,0.38429183661619215,1.0
-0.26247453837679846,0.5230645812626702,-1.6777934510420527,0.2509286263653856,-0.6695253706460242,-0.12106822268947165,-1.4194435547432591,-0.577535293817648,1.019092227481189,0.9923845582062737,-0.2796121698282327,0.5499037558068589,-0.9657991467649895,0.004732090319079129,-0.7382311593433765,-0.6020801571730046,1.5112605786367226,0.27327943068023747,-1.5251440956068099,1.2458239875004278,1.0757073138742184,-0.05789805575046854,-0.0852648992162112,1.4520088860521818,0.5379050311501156,0.9163335488925828,1.573562240610374,-0.9696583119055779,-1.029206350253037,0.5852940877858374,0.1752545376063917,0.5481670124705836,0.0
-0.6089561527378345,1.5468778693034768,-1.6608074446431418,1.5002827635056912,0.6207871933405641,-0.3664095087752083,1.0314082940286946,0.003645976763197993,1.591247738627938,1.0698237345204482,-1.187607252967357,-1.1675901082670024,0.22982290663350613,1.1000714403638419,-1.642530659191888,-0.8653672792645399,0.7805176481209374,-0.1274299612774648,1.6355484743647124,-0.8232326852383032,0.7282030369336967,-0.6517329114955197,0.7546995098388048,-1.3352642721557004,-1.1515069419572683,-0.7621822026374117,-1.2162770544041224,0.7575472835469654,1.1411729617701716,0.8505907245450457,-1.7140269944739497,1.0771847055321586,0.0
1.354755159967505,-0.1731316050780577,-0.902381376236129,-0.8412730338894051,-0.0855261683036193,0.275322757615765,0.08988951544044527,-0.3748211165067497,-0.6505530156380922,0.10227801030369726,0.34759209765143123,0.42921479430465864,-1.4831134957916137,1.0512464556132677,0.7506025231136255,1.596756078313736,0.4868509784308955,1.6468650642169533,1.4061932585646246,-1.0652436765834903,0.5794158517395702,0.019369358802025075,1.169524887475583,0.9038869688731896,-0.5115389474063261,0.005498354712749357,1.1891701460663031,0.7334906181004557,1.223363480154383,1.5764882958065463,0.46038347477118025,0.6022898167454181,1.0
-0.3891471052485826,-0.7195359282221745,-1.637278456825631,-1.691190385136495,-1.3775602519944286,-0.6164822201993991,-0.28848721488177376,0.22815036863637814,1.3245445544987688,1.425807254395521,-0.35258280331871605,-1.5624272880847663,0.9589596597154588,-1.5277009793239542,-1.18776812551081,-0.34773410989414644,0.24118893306873504,-1.0847055216150314,-0.5595275201997678,0.4023725751110436,0.5339681353080171,0.7717908204508005,1.200773142891305,1.445851161786853,0.6946977585061241,0.9389871245967177,0.46533548367708266,0.9928125617377385,1.0921532481671312,1.1802757711316192,1.3502874785880978,-0.06120570324141461,0.0
-0.2503380548887165,-0.28463209460500666,1.532245459081743,1.2933227006024508,0.783106226591263,0.40537410261925255,-1.0730616939794424,1.4854845335743447,0.273134481037611,1.553578587518053,-0.5305148669043602,-0.4466074427469836,-0.9000724871204653,-1.3830845388124207,1.6979148362846401,0.5631249866331999,1.4612408493292566,-1.3101116353714883,0.21272025902197217,0.4553129106966429,0.23045082673226344,-0.893184088042112,-1.2666237563871605,-0.7459117074644694,-1.6455027087070222,-0.06784101040513142,0.08839334137425654,0.3548362460755403,0.42922711783496403,-1.6144874980337658,-1.2617940223099529,1.082958052172348,1.0
-0.028196286442569822,-1.5464089205230926,-1.1535605114796128,-0.4065688978242478,0.7074198155437653,-0.0586695363445202,0.35994165144065954,0.5071126004767988,-1.0174622965349132,0.434752657498372,0.9538738014199263,1.443926955597997,-1.7418663910713748,-0.01129545328495034,0.8006011904051293,-0.662923371351701,-0.3545587455692119,-0.2458251999864787,-0.6575133382150721,1.527748753636055,-0.689279209743042,-1.0019279492097335,-1.4617971848564189,-1.171173973017422,-0.4581865069877304,1.0180430125976223,1.3397968085172334,1.234320897934554,-1.1771434099436493,0.7316039016658593,0.9689849532005906,-0.812426080657305,0.0
-1.3829768311420672,-1.508353103050728,-0.749161596187612,-1.161816589715825,-0.7684290737730166,-1.675155814299377,1.6312556799549134,1.2912078706528685,1.2943674517113488,0.5534466637267061,0.6323057105269783,-0.9715108665165605,1.7022597935116897,0.7770242162850223,0.4584736846528028,1.2060384035855984,-0.49363406724655323,-0.7182701680235981,-1.0172372153902256,-0.6111370926306808,-1.725250964484496,-0.06993403388443546,-0.09786086775871179,1.6937617549458222,0.49079897001998424,1.1458674608880917,-0.3437268775674342,-0.10675678287511277,-1.3542388141753734,1.1785203234339354,-0.5385815339310233,0.5393383711855989,1.0
0.010450130723946275,-1.0991380219097313,0.2347564288098285,1.1325259284028077,0.31870803900608297,-1.4597509886266398,-1.1488129015151882,-0.37147280287899787,0.03606374051980458,0.692438040392281,-1.4780160775167734,1.357742909507447,0.24912441484604478,-1.4164962953309226,-0.9681843561790822,-0.5671216648210562,-0.6351166691705669,-0.04962711338648214,0.2595389949360923,-0.21901246726359508,-0.4484049287892211,-0.4567779662540922,-0.9463507570543979,0.18928230008574876,-1.0063923617060215,0.12171852146212583,0.5845623062764164,1.3538084810610171,-1.109727586256946,0.0900123198785198,0.16311729540515427,-0.6557118966564609,0.0
-0.16738172468022988,-1.3734187829115203,-1.0995947068955099,-1.5866230502471739,1.135166959216214,0.765036973504654,-0.4061923153596608,-0.0835126694311216,-0.46345661979470093,1.3417995305773744,1.0050690572862202,0.705716929003394,-1.4368753801401943,-0.9190345747392761,0.0030323517943901123,-0.265362211815446,-1.6146110828047346,0.3472211482384499,1.1584747609412234,-1.142800470922183,1.1191284345667993,-0.2797134601140485,0.06930556286141897,0.45371279290716265,0.05168342444983336,0.8335655139112074,0.2543122530461573,-0.7596878647008983,-1.045163453303259,0.17673358441924872,0.6830386161644952,-0.8631532536686837,0.0
-0.294661962783286,1.023318121640299,0.10338483696763631,1.2249493067861081,0.6963040328540273,0.7146663684417968,0.24008934788453948,-1.2480268025694221,0.4752224341748665,1.6322512041535864,-1.4906416865922345,0.11975192515181327,1.0355480756532183,-1.2535771520701433,0.9065081144611464,0.08001580702177367,-0.5537943680864809,0.6117039830946813,-0.8162773169783578,1.1755593686727728,-0.03338641383142377,0.08982749428915973,-0.4172027197295609,-0.9682777262708836,-0.5429967832569655,0.40001946485635187,-0.4291752703381263,-1.7093992382002179,-1.1126828343228143,-0.9073305585308417,0.12152921223324173,1.6857220495438077,1.0
0.2066307110277771,-1.3475608383679403,0.5024647754594237,1.1926967021295043,-1.6534914757807735,-0.016293534583694258,-0.33341602424213085,0.26529150621477227,0.10225027592922065,-1.4356735871505018,-0.265214880214019,0.43562624545054474,-1.5601304754903977,0.5342340162928942,0.3828759342457806,1.508894665279491,-0.2748348256809632,1.2845296737623795,-1.611586750658866,-1.3703451721187911,-0.8165534199872801,1.429902294516436,-0.4652178044249777,1.593246503764869,0.6784316581100076,0.7588287425576796,-0.2499151049612201,0.7111882765326123,-0.3348343402660108,-0.1806304530509071,-1.4631142631370446,0.13994406727947611,0.0
-0.45876855064380007,-1.1225813331119743,1.4425709380315421,-1.4889497289995428,-0.7851665214497715,-1.5701253339680112,0.10386949083990976,-0.9673140980242484,-0.21518753739546279,0.5842334223557196,-1.5215521543845494,-0.6143112521983056,1.4683627847853937,0.0749174558305404,-0.705586589694258,1.3848425427249802,1.0909428643120678,-1.097997485750286,-0.04943104722232183,0.6255260251168163,1.1075470088415074,-1.1766426108100354,-1.334863114712727,-1.071977795438443,1.383158190692659,0.5592519178502054,-0.5280400140489241,-1.2242272975038124,-0.5077750861289827,0.5427567052443252,-0.06465308854729224,0.7855734617712515,1.0
1.5481640228855462,1.5738960922058816,-1.2025817493300641,0.6952178797895996,1.0333503120415226,-1.1030531150532725,1.3712324010571755,-0.7751750173989299,1.0859129550819049,-1.0335102968647818,0.8031914175042691,0.5466662903767581,0.2842757330127592,1.509452982739876,0.304461270547843,-0.24858914730084192,0.9813208159383524,1.0760393526493726,1.0206183091107033,-0.5293224405556233,0.30438159283658744,-0.34806355564468633,-1.2778886320176057,1.0051193415583595,1.004863382037818,-1.1466768465957053,0.3628737356646598,-0.35327769246605084,-0.38743528282753253,-0.908071713459147,1.468382661864108,1.2348193453880167,1.0
-1.229929859690702,-1.2679545120998381,1.6081102068713706,0.739921826769474,0.2602412486060297,-0.900815742318893,1.1604845291923696,0.9100649284168093,-0.7483133688727084,-0.9929126157273175,0.7290200924804804,-1.0023361729065388,-1.5714983367856956,0.7736773142162974,-0.9504557502466062,1.4207226863442626,0.6501789863382781,0.6023558221859201,0.5287679284848623,0.5703486659671705,-1.7144814071584278,1.0372101012968817,1.519251791918026,0.04511323708066476,1.4121737291295755,0.6206949832749049,0.14977536919035914,0.9232494722476815,0.23431212419351452,-1.594060470278901,0.23805376547616133,0.650845023335889,1.0
0.030931965788162808,-0.49143366248067344,0.2471141677454644,0.8413931362398582,-0.496179026810301,-1.6169148478726316,-1.0604203207044085,-0.827257847853951,1.3562556562806736,-0.008431711794361012,-0.2157223164976447,-1.2536959119189772,0.06235924022574058,0.4322573673687219,0.9661782598785175,0.18115338931066724,-0.8134406308367317,-1.3805167902537692,-1.5514407962714152,-0.08886492018550053,-0.24752285464489598,-0.8704250066588493,1.088507346032548,1.2156428741966405,1.2809936160607145,-1.2282920978772147,1.225068157040725,0.6170201033607705,0.04161820349696692,0.9805276127832101,0.08440856312432188,-0.0005035733340166926,1.0
0.5661746788619967,-1.5095243205518416,0.18716368673396078,-1.5209673608439218,0.8071205048807203,0.984165403147027,0.8910241420719835,-0.42629710659276837,-0.6030027773513627,1.1394124086700723,1.0434427476960066,-1.0982658314169755,0.1075550940044985,-1.6623616383346613,-1.2964594887596985,0.8390564100551465,0.8948238863345503,0.12896930174806576,1.6097498289548673,-0.7304322388956708,1.1002278922121405,0.37248620189711823,0.18339504966117057,0.06283550534653945,-1.3235790139261274,-1.6704733224451267,-0.11859762751079096,0.8220163818096518,-0.6435619339755623,-0.27250911244470877,1.080094805239937,-0.031351993846349326,1.0
1.4810741726683672,-1.3735230694013456,0.5992722128464615,-0.9544109651592148,-0.4016731245551192,-1.0077339692751008,-1.5087425037140734,-1.5079557774899666,-0.4767858474388995,-1.1354844976404133,1.5579581516121885,0.09051804043700551,0.1497152916740279,0.8089833831529357,-0.7743424260050232,-1.6708504161196818,1.5788292149741145,-1.3658163249661952,0.9727849590862682,0.4284931600576453,1.4199026120360847,0.2831208080354665,1.3592859253917626,0.699081981163608,-1.391303967318746,1.2874121756541579,1.567842589969698,-0.5412023410868954,0.3299156356298201,-1.4608720141461635,1.4596128015626102,1.6832731728740808,0.0
-0.32092661825564306,0.41119580727864624,1.4484114408380273,-0.3802933217150853,0.10602331107694918,-1.0154267377509378,0.07093590908332083,-0.2344573907181361,-0.8775020487827556,0.5607892354609472,-0.6574395578954257,0.2324225129724846,-1.0329597164762938,1.6369809951989833,0.5512272062592619,0.25294294225298125,-1.200054595594213,-1.4721198874784522,-1.3322502251752721,-0.6783796597484419,-0.3254068663068046,1.3867603267891084,-0.1531290190526482,0.4601638152609399,1.366171235993814,-1.3495209110466992,0.20440630883063796,-1.600628085351842,-1.4442007694189913,-1.4765237331290078,0.8042979772600881,-1.4111957637133918,1.0
-1.283355577772941,-0.21876241394772517,-1.4472201098940434,0.12596225239716563,-1.3168425837969508,-1.572713220456035,1.3925346256392073,0.46130684421535884,0.5292899298627758,-0.2594412275854191,0.113027906024232,0.8173718413950142,0.30293059272385375,-1.4346343835974726,-0.6295173961626706,-1.415535818880914,-0.6602792685924999,0.05313223155227601,1.5349551906039034,1.5823925389678202,0.03348048214783497,-0.4670949618058866,0.013572609982182328,-1.6317671412877517,1.1964999623636803,0.03156747257272138,-0.9919631457571362,-1.6849754244113253,1.5272578831202261,0.4319271900232566,1.6237910033776082,0.5511356759760832,1.0
-0.37576213359443283,-1.373708305544112,0.9351584994358394,1.1053821351415567,0.2607396414625836,0.5213137559544961,1.6883583442206511,1.4857352331192546,1.0267965434427897,0.3976141957603811,0.2753267603489104,-0.19696534670213373,-0.09976289205506035,-0.8849581423842463,0.08491457136234523,0.5879492922375222,1.4228315050950413,1.5115126964176286,0.036985394395273354,-0.6378602480095449,1.0781859726991212,0.07570982669815242,-0.522342073677488,0.4336472111178734,1.4002942346609388,1.5350940220228926,-1.5005936538959876,1.6518837771388561,0.285838852630675,-1.5192130294135886,1.467224551392238,-1.0493467767840663,1.0
-0.1216590680969508,-0.017070884073492897,-0.12627270745567862,-0.6108053450486816,1.3722522936253878,0.45273439860439996,-0.6429741975697939,0.506543365039533,-0.1423755588581159,0.78040776857999,1.3977832589607289,-1.2590341130112004,0.7841578649766786,-0.3379401244582326,0.6982260044071862,-1.240688090230509,-0.05632505781982545,-1.5458396130072232,-0.2525450731601926,0.8230296004118764,-1.6459969248988975,-0.02243958365869453,-0.5133734105299038,-1.698284383682077,-0.7666352984167635,0.8425324587384161,-0.39376155990026734,0.371431658388353,-0.6025269544249675,0.8341334023792613,1.3418216604817212,-1.4241749647614073,1.0
-1.6341586553023073,1.0637287718094854,-1.1861952403854712,-1.2219999248821685,0.9912176839742374,-0.4698153430566229,-1.1475705964134375,-0.27705493015633276,-1.0272848144154547,0.5894935528322667,0.2918626900169457,1.0445864067448831,-0.17541974644453512,0.5601035445785787,-0.32065627288175946,1.6205479919634025,0.3384535309172951,0.5304533693395438,1.1675214797637428,1.6910208086494858,0.8061055001501329,0.9146229277384736,-1.1353952902012112,-1.4576832088530247,0.577078620944675,-1.2191309839122302,0.38585961999179025,-0.23173315691092355,-0.34363516792660365,1.4413786678927767,1.4673360844587902,0.8417491146504621,1.0
-0.9080313087765761,1.0216546427361641,-0.36419816769069285,0.739939560566623,0.5587173764760451,-1.2786186670080897,-1.3349329936025063,-0.47112955873867607,-0.09446868072733777,0.7909633126888798,-1.315817770099224,-1.3571412733499082,0.6429030684752762,1.1985937226056038,1.4948668358944892,0.15692770873378586,-1.0605742927380803,-1.1266880418312208,0.0026920542533231005,-1.088943246994363,-0.9990592834514451,-0.6961443532848847,0.6631474952565102,-0.8972919109059584,0.5252754793259738,-0.39732769052060496,0.8277486098830161,-1.1457527957369222,1.5348113858910937,-1.2584983566624952,-1.4855706057696962,0.8890976732293181,1.0
0.9860799190980389,-0.7360401768322025,-0.6532427390764224,-0.9025026630875422,1.4988698835539491,-1.2111647954505824,-0.7008244501719108,1.617491853649831,-1.4207615253685097,0.9298694217279482,-1.4050792043016764,-0.5784725246498127,-1.4232364926469212,-1.2483496535518441,-0.40849197650413954,1.6716793375232062,1.0468761271791946,0.2665339349442399,-1.2009224604922795,-0.010066186787947275,-0.6263194304350483,-1.5219147552140782,-1.0389095843729572,1.0999498308365074,-1.4339066103102942,1.12939977755751,1.5519281065150428,0.9373931324498536,-0.5561039023023975,-1.393627932845556,-0.8187969047666103,0.5584389904156158,0.0
0.1507433720304948,-0.016036770489072434,0.0657216852424917,-0.9120471404947991,1.2632797277144365,-0.09084527498381316,0.2841257558286093,1.0405835356064927,0.3517265618173092,0.47491885504308423,0.5617753578117032,-0.09974837863627156,-1.0160324218189731,0.9294931630981997,1.5636892452668618,0.8724788552774637,0.5293913387270599,-1.091195343772293,0.6030120847121446,-0.5931397090838849,0.622491005784755,0.9381384234590673,-0.01722782995268564,-1.607966999545026,0.4078469301089562,0.6385891217672577,1.6054356528220912,0.21720784799008383,-0.33324852200472377,-1.3193666642009736,0.9037335257169002,-0.8806713076219285,0.0
-0.4270878872156339,0.26137550231208284,-0.9805823251483506,-1.4227420751600266,1.206639149009182,-0.09366922115430851,1.044079806066552,1.6778477690868772,-1.624533445300781,0.6767267451427398,1.176475112855879,0.586981814056934,-0.427927626923119,0.10170458241304135,0.3230268911346122,-1.5701234502759325,1.3146332013414919,-0.0991986990505476,0.7255614327841607,-1.7323152104851243,1.0627174194866364,-0.430811874084071,-0.49474583071769535,-1.305278765490096,-1.646148249873645,-0.5445216569723549,0.290156623138365,1.6532970678292005,-0.1590372667745217,-1.550211105410886,-1.6320211614038083,0.8489936436740444,1.0
0.9779953137229592,-1.2469746957411583,0.22387794064797617,-1.4680460156101103,-1.1325610878186132,0.040303784084913495,0.3595483773404011,0.8287468442672866,1.5907127788618654,-0.8590894863200716,-1.6452050343392601,-0.2894737438654392,-0.05121467813893449,1.1311789827437233,1.683351215121415e-05,1.2656677922401252,1.6637391361412102,0.6400715024982906,0.5956985364975194,1.378754398025228,-0.27482961771651876,0.3364898696105615,-1.4667293319110648,-0.6761927555705904,-1.1299351079726236,-1.3176725857789102,-1.1543402266062606,0.3211046841423055,0.3576087211926663,1.4275744655428098,0.7900263282920925,-0.6327793964972502,1.0
1.1516309230610067,1.3777135143885688,0.740819814238391,0.13680425262916066,-0.16428845952499693,0.2246846669684355,-0.33066237044854613,1.5138533991357024,1.0480412357428688,-1.1474925316628943,0.6471007842555266,-1.3222038101174558,-3.731992477591501e-05,-1.295915283788925,-0.896481385212123,-0.18051872964844917,0.1565905838941585,-1.3327548223745314,-1.44460254724195,-1.6081719021162866,0.38766729708651343,1.7312357560919458,0.09352774780167471,1.0309050038684338,-0.9582641937287375,-0.22888214127291331,0.7608752883248071,-0.9171146219354364,0.6951870787084405,-0.4354389036093567,0.6021863100155437,1.602158580770192,0.0
-0.9593747401063233,-1.082074418490641,-1.6804356533192435,0.9076163071518796,1.733113788866735,-0.6534675835146833,1.4624543501144867,1.2975771137967838,0.6116058379680938,1.4333725510507225,-1.364674026016469,0.6587079861439761,1.5566728903070277,-0.8859669061521069,0.2787415527736164,-0.7647773081801337,1.6686194367300156,-0.5442620984906811,-1.0057048461941085,-1.0616389867966,-0.9195207824002093,0.6983256279668991,1.067986587670247,0.2916801871642809,-0.6330236469536237,-1.3933924339481065,-0.9843859879952125,1.532491437515438,-1.621053509452838,-0.4359299379303869,-0.7220121764531949,1.205344647227369,1.0
1.7124599095417414,-0.01280972351371238,-0.6838663930864458,0.8946344287305668,-0.5520941342569031,0.14009125462664837,0.2785096546585647,0.16994899458235146,-0.49454770544605275,-0.8098584579988395,1.3693622445186415,-1.6616829883708608,-1.0864425121329555,0.15524157386344914,-1.736695863962481,0.7282831465332406,1.284777281510847,0.865074968642726,-0.06018934911847198,0.23502358681673613,-0.4863197980847937,-1.1052498076068957,-1.1841917357011522,-1.6082234434234077,-0.44041106986393863,-1.0938750722474568,0.2770100092059656,1.402445651220784,0.6188916001376297,0.5036887870773439,-0.667498480363046,-0.4649331110969404,1.0
-0.7472687541160312,-0.945448906953499,-1.080283533069483,0.6153692414013984,-0.4047327848431349,-0.32883290000135,-1.1203266250045116,0.35985242514835647,1.4709772931444847,1.3567551782402902,-0.4985174650284114,1.2816757583519087,-1.6385514293282766,0.7576739107169375,1.0003190753359252,-0.5135048035025145,0.4682756336587187,1.5095117061936278,0.8493674837435725,0.8730398797734238,0.5803245908000652,1.4809695624625625,-0.12214636454281234,0.021905833883179997,-1.655740684209104,0.7819058210268846,-1.107675724273118,-1.6198319406996593,0.7107454087455901,0.20197274852021155,0.2247553571026003,0.5902326185370473,0.0
1.5669185985105718,0.9149790442349738,0.6710949501925582,-0.11023049728984011,-1.5039618225339801,1.198489323957921,0.6253509477824964,-0.4426810592042297,-1.4850835357355048,-0.7029644621869403,0.1619692965489728,0.25039170094110674,-1.6398355438157786,0.05485161104250903,1.5522001229327682,-0.7079455644750806,1.6236071656291937,-1.1887355795499037,0.9403419790239197,-0.12390600074253506,0.7334309773832445,0.7456278745495477,0.9226040639066879,-0.6176022395248006,-1.1142945677070202,-1.2594875867526394,-0.20160765903568614,-1.2091726792805815,0.20689416109705114,0.11952808601920661,-0.9357217547689364,-1.7194200754188322,1.0
1.2452874229382052,-0.3567954284594311,-1.6468100985594385,1.0424426723349662,0.9778583961624677,0.8144538389835317,0.1576407191759824,-1.3507531531510406,0.8810964833051399,-1.2621767542481925,-0.91050805002949,0.8836963326755174,-1.552081513802917,0.16747002277520287,1.525572662429381,0.9081052631761781,-0.7320271396413252,0.8034606981263325,1.2679944901193783,0.7295591202806984,0.5162331161476987,0.23698728360516955,0.2135839898359762,0.1716844147788492,0.3622747977509429,-1.0129248884851012,-1.4436316347743403,0.36676472673915134,0.44651655552576025,0.3000737334508202,-1.338328623718132,0.4602503289473715,1.0
-1.3838047371589757,-1.5395880006676028,0.0892499374803042,-0.6350415344857043,1.4388636785318771,1.257621178164644,-0.8595035662542857,-1.4636431582239455,0.7083470070458682,-0.489453590349288,0.028043751929422638,0.8608930906481332,1.3048471594184134,-0.3285083615363279,1.4963932113519995,1.4253653120659322,-0.6421620009904205,-0.5687393989507653,0.9718551531462685,-1.3037312408209472,1.0302426835176812,0.41706969694763857,-0.33758730399899234,-0.5216722663129925,1.1265294479128811,-0.1418316830245282,-1.633523423006114,-1.431082360447603,0.022525013456343976,0.023477169378899865,0.5382091096209559,-1.1547320107523547,0.0
-0.8792748329704093,-1.5802619195278866,0.38258293850857866,0.2798236320951044,0.9595350860087197,-1.3879486492341304,0.25281599180561054,1.3517024081912175,-0.07869520176702409,-1.2841846226757805,-0.16899002225361875,-0.9078340698319923,0.5758737438071163,1.5764168101352718,1.0676776665733232,-0.025139751784880333,1.152341039129543,1.0178361044888127,1.1075883167854461,0.5237974168732646,-0.9886018649228059,-1.386696392239869,1.1698074744859155,-1.2902361054144948,-1.0373983187400249,1.1964875079953468,0.7624661236316189,1.6668646584565041,-0.2480687516543048,0.9422177288493192,-1.598964593898022,-0.4779154061142161,1.0
0.909293845743328,-0.07875306106240888,1.046450972246719,-0.2272787308310132,-1.3950799405303604,0.24009359063787747,0.35050674849333974,1.2784421023557382,-1.3461424721401891,-0.1256879294240191,0.0237180331657903,0.7809263658794572,-0.03958328328968991,-1.5997794913962247,1.2893296111641606,-0.3029494218653746,1.1838049561474853,-0.6545661104714268,-1.6370446214207184,0.9605582519706557,-1.5820161595736977,-0.6623289123356738,0.517737176049312,1.179513463594482,-1.3095492525715253,-1.0157793276994915,-1.2443159098358372,-1.5196511373517227,1.1783376792093991,-0.5021827436954145,0.9489273354239237,-1.0501481148225493,0.0
0.5320051413847785,0.3636995100105673,0.47210225224238545,0.44662403353791236,1.3492694526233848,-0.17287126421562352,-0.7384817316822572,-0.836329484621674,-1.727749343597495,-0.6856213209818466,0.6795510141730705,1.0945434656389164,1.1615374040886508,1.4492509221061565,0.03699371246125046,-0.49888671092221026,1.3204678659673272,0.8731570094939136,1.4528146227369212,-1.5856928051509114,-1.289392956317075,1.2784861245235593,0.5996333623496088,-1.7118451973945752,-0.646082022552736,0.45484854846988215,-0.8369425287545398,0.24811897328476246,0.7256963054721298,1.0968567123998196,1.0801803648526351,1.426605217941847,1.0
0.2963495013263336,0.13192096318368995,-1.3399365464402602,0.756026331305447,-0.6661641679344427,0.7739692380221991,1.6402627594884942,0.25107315526037044,0.8964954158183567,0.849674483932978,1.6898507405182568,-0.10187273465720875,1.545052324333251,-1.4047591981329648,0.8727187342034394,-0.27225422757455703,-0.19454296129711487,-1.480488221498644,-0.7560650580213878,0.08444230907514269,0.8631761583046659,-1.7182476765741272,-1.5632382006090182,-0.14614475724519385,0.17581637978306192,-1.6349250813236553,-1.214670893130964,0.15967923596541314,0.5754160679217599,0.1360513909218799,0.5497932700401125,1.0418902511924129,0.0
-1.1260239717127172,-0.8456241286300562,-0.3930652573805795,0.8587737352623475,-0.8769681263708708,1.5581405014844383,1.0994072236928056,-0.2630393508926669,-1.7472018833758074,-0.6367232774434364,1.5571640512215792,0.5757879783871939,-0.7203420004363716,0.22446650153628428,-0.685985070913497,0.06406813650694736,0.39660836588446213,0.1611994824639589,-0.9780573826713942,-1.2971734959385441,0.8639280591516743,0.5647177455182778,1.513547549206735,1.4475203503844623,1.0943399987400695,-1.6721398134701317,-0.588287920355354,0.0006410201067764177,-0.5785140182579541,0.9980560035617426,1.2190665340141484,1.4947483439208724,1.0
0.5869017921322903,-0.2736601348887825,0.34804158702407934,-1.3903128714401467,-0.43462824629343577,0.9890612663447881,0.5080001615407301,-1.7203182005218807,-1.1570569511414976,-0.5756179970654487,-0.2259707618344893,-0.5723164686336153,1.1641786294233405,0.6349976935372613,-0.01000108915503235,0.035470992011793545,-0.9102957631258676,0.3968248844722963,1.2263891437295358,-1.1506446193482698,0.37970391367821743,-0.6677090643128791,0.7814835081678073,0.612677285661983,0.9865438459307303,-1.2666718448503467,-0.5391498070538162,1.7097810736914423,-1.3529992174448155,1.1386636813887985,-0.6068993568197846,0.5071487149988171,1.0
-0.11455483897498984,1.352041535263908,-1.1571383711333587,-1.614799098284142,1.1359270820492124,-0.34981955585847846,0.8989263786659598,0.7629212546415897,0.1874110955938629,-1.1272899847068547,0.7199253678590125,-1.6783021252059547,1.3537719955943899,1.0698152938725165,0.7993436141294242,-0.9055245606571739,-1.7121538278293447,0.9775851221022677,-0.2568764577131931,0.8832529119599295,-0.25949483827436026,-1.4259648365471345,0.33581908581332864,1.2036207237544312,-0.39418417432263647,1.1922478936720988,-1.7010695544869536,1.270700843726651,-1.5142843536505108,-0.4459562449729266,-0.0676629534939737,-1.6981753354912528,1.0
1.4262629641788283,0.6812474958713701,0.4110072092199384,-0.35402882922914086,-0.6908773758511382,-1.1342531890606786,0.46688647849876724,0.08566823169327639,0.6813654867941382,-0.4096754348321548,0.3223959234277696,-1.1088758013422537,-0.8150322846030857,-1.6590811672736732,-1.0210327126202847,-0.9130622150840775,-0.80022828168621,-1.2291610936009751,0.11229196570159355,-1.3127329991105399,1.5466325014217526,-0.9326230355811529,-1.4799182699178686,0.033352137293095385,0.6862104291678122,0.0813603897308681,-0.041526407945332584,-0.42059180633582155,-1.5023968992181924,1.087129629396658,-0.14268039962699786,-0.8868747159893352,0.0
-0.19296063237523645,-0.8771026044819074,-0.20956607462096022,-0.11711121058366805,1.2368110857867132,-0.24848271526460844,-0.7058326304430512,0.5755203954150672,-1.4044038434837403,1.5951686074122722,-1.2404729085462447,-0.8496416252098159,1.1966573254729593,0.4262497502784953,-0.5867363583004722,0.3261602155408986,1.7361568904412552,0.740731874524191,1.054290236659254,-0.13465567326311673,-0.5500606932011318,0.10425361772674238,1.397774893875498,1.3402899550109197,-1.0286604579489522,-0.653866401575447,-0.4884177932521974,-0.8339747247048774,1.6523149547778633,-1.6942115234998116,-1.5759719758357842,0.956399239569473,0.0
-0.9557640681357839,0.5881116384197922,-1.2668361071577823,-1.2140980404358417,1.487824878547982,0.7423182388628273,0.047120405718516375,1.3336291830580254,-1.5546409891687936,1.0214189200974324,-0.7057593190016398,0.8851962254602792,-0.6883635195935931,-1.41449995896663,-1.717068045572654,-0.154599408541149,1.2860278458232781,1.0782975474316228,1.08725594344409,-1.1756275267866318,1.3901371793236308,1.6785363072089141,0.20506623055187245,-0.5254022194901704,0.6272248735690438,1.219691484404988,-1.401762627311153,0.5974997937931589,0.31338664880116146,-1.060674439059624,-1.4957537275309307,1.6321994753055207,1.0
-0.9398489744459745,0.8011579979903761,-1.5727364873357794,1.5811097163699477,1.0873374648729053,-0.5365924614687165,-0.7322319814011419,0.2792289262085545,1.5595500667983195,-0.7391789462825307,1.1573447794163065,0.7057479307243388,-0.9185164040475515,1.6272040927881564,0.8266485042806356,-1.5902085970163669,1.6922779887569472,-1.6478610258205273,0.5464064859436648,-1.34310377550302,1.6801464123554795,1.1924734442103646,-1.1586986813100597,-0.49105563129999397,0.8889979646456942,-1.4983156262169637,0.3110535782524084,1.1450792717669878,-0.952756308498865,-1.2427561032267112,0.6858636112337408,-1.5248821172077411,1.0
-1.172410278937664,0.5045723258605901,0.27432620311361405,0.6386611061402347,1.082568081161297,-0.7860264231638668,-1.6548589013414665,-1.2747484246504013,-0.4057458764948901,0.8948236921680915,-1.5499269319277378,-0.23081110647559872,1.5046856620616202,-1.5904707607123234,-0.012028294590662937,0.7753581000285712,-0.6767998424203201,-0.2219495744751566,1.0286457879227087,-0.9228852620180314,-0.9798496775584454,0.43641406360725316,0.44724175421502993,1.1507840712553212,-0.45753481780999694,1.5987799703225303,-0.9532083746556459,1.368787826193132,-1.6921371174807052,1.1692397747664605,-1.14534127802769,-1.1790877367714192,1.0
1.6070867717544306,-0.805712303349264,0.2641877081285028,0.08785971140602172,-1.0245646641296697,1.5475331633067546,-1.5428801658000515,-0.22055536360128236,-0.013252536492579544,1.5953281166790987,1.4364035461646414,1.1020672880577531,-1.0852540952237322,-0.7277888703044608,1.3237960032471296,0.9734004506954018,0.08698596940341197,0.7580916512265238,0.004274112121382449,1.2060758045845017,-1.1677649217583483,0.8071097898983948,-1.5594194154912537,1.4903879390605017,-0.5380753003628553,0.138436942891883,-0.5246683014525988,0.27146899338610025,-0.8717883848950417,-0.20987001238601455,0.8060886177258294,1.2145352829158385,1.0
-0.7799614663584613,1.4607481678501555,1.0382735327379413,0.9899343767930847,-0.5824290071606154,1.0141997954406803,-0.6055977211179496,1.7059010481622894,0.8116479617070624,-1.1800603545938464,0.579341709798052,1.1693572615048258,-0.6158628997982146,-0.29198196001675586,1.6076777903343722,-1.4249336731655458,0.021380798322235665,0.7349508958816291,0.33641066247640916,1.1340004079438664,-1.6531884182761132,0.18093202111492107,-0.2504362346595721,1.4889414113153792,-0.6472793477165434,1.0633027683895842,-1.679551897735859,0.8415136485942689,-1.310502070179623,-0.9835222058499751,0.4819032452148389,1.3249559518556753,0.0
0.974861203311975,1.5852844686052536,1.2090832301178787,1.662647498936595,-0.4168866402281804,0.3794857368849211,1.2203107084888687,-1.6378424743561564,-1.393657643329282,-0.592620067764517,1.5215939315069194,1.0796390192265592,1.111371537045342,0.06217212064351709,1.1378303069225284,-1.3059755302696359,-0.7442693369611464,-0.37227185995641215,-0.46781904875451213,1.3129377609380104,0.9574313117213783,1.4053591293170502,-1.4313302902452216,0.1498790071559894,0.1393863399466492,1.6405783172331965,-0.22637901844223476,-0.2899607333531012,-0.8052783014628355,1.2863974947998087,-0.04734865687921391,-0.6054070504491477,0.0
0.06503152900238601,-0.09968401591886289,-0.20811624703511866,-0.008626923249052742,-0.05526649668891366,1.5844812540405957,-0.47038567489846805,-1.659674717959791,0.002971591977787078,0.049897225261950055,-0.16978192088713745,-0.37682921212597803,-0.35162966600487,-1.0074038169923383,-0.47270129981460446,-1.569823137716562,-0.5450067388139886,-0.7794419854606217,0.8662150122683454,-0.4499380025648788,-0.5618066452876301,-0.11641011480766317,0.0020652963155506072,-0.4665414392372242,-1.7293877093040977,1.0424211771790104,1.6971692243916605,0.5875284134985679,-1.3896662414336196,0.426030174724132,-0.8255408356674486,0.6438294480375877,0.0
-1.440601005004003,-1.5904112557439514,1.6374120241631003,0.9982685225449193,0.20244832073687916,0.5706012636507192,0.053176826862495134,-0.7998379538052375,0.054709737052475636,1.155366275615709,-1.0044416127778,-0.7756095155934452,0.19229503290638691,-0.0553352109235161,1.2938434643675005,-1.0324195716057607,0.15392048195782546,-1.135137517765622,-0.759549902837971,0.499585738257874,-0.8398731096513505,0.4456475886225836,-1.3121357069637354,-1.283209236028424,-0.3995636840444931,0.69456487351726,-0.17213582575053346,1.0216283299654287,1.5220645601592857,0.10613819387760874,-1.5470176861887996,-0.5857062011825834,0.0
-0.3831455231971842,-0.5178640888040631,-0.6516163723629288,-1.2981237269608568,-0.5165571015960249,-0.16486496755470828,-0.4890503901875523,-0.13170523283042393,-0.839332632168039,-1.3066717539695938,-0.5352038755879108,0.29347744982857155,-1.0021385108302046,1.396843646406381,0.4856795508567273,-1.1271161702187018,-1.6941287674146055,-1.1841610127638933,-1.4284550716139597,-0.8464630786713842,0.1206317870713388,0.8564828757324255,1.6843351084565295,-1.4674879643228809,1.6284438529732082,0.8395939305273513,-1.6144456600974513,-1.488234607016693,0.37400942057913533,-1.1259160210197796,-0.08691233850069383,1.3935306865465475,0.0
-0.7679553559709067,-1.519662717625617,1.6344719121079967,0.10491592972232656,0.11868883013425562,-0.07873460935460033,0.6343991924555435,-0.7868893223106439,-1.2376500948118616,-1.460458533965512,-1.1477466426025116,1.2813317868766632,-0.4595355144302903,1.0235354671083066,1.3639776973115956,0.828802079892128,0.972310169633156,-1.2562762717626312,-0.9343410838240729,1.379528693364394,-1.0550336117411168,-0.42592618147901445,1.394732836988318,-1.131144158516527,-1.4144650621755048,-0.6349555506687559,0.8574871149826055,-1.3451588950312794,-0.6439112467699588,0.8077264972835979,-0.5337229702099843,-0.3226894213276973,1.0
0.8769443756751679,1.1596220223941338,-1.2844326447064895,1.1577042258133734,-1.3068725148632552,-0.7733457062890571,1.4032632901126105,0.655397694532961,-0.121641204744918,1.177873988750403,-0.2820451114131396,1.1736406659487097,-1.671623765722338,1.4172628145445767,0.7758439733281011,1.0486804848117752,-0.25851276659991584,1.6896942161040478,1.2956465795422911,0.5720797143590887,-0.20599763118004788,1.6901739277922785,0.5115912946224206,-1.3326015554783737,-1.3305523955284309,-1.2710826949486411,1.0142181098295198,-1.6976888958822902,-1.3029516586724228,0.7138407351025844,-0.6597935316695871,-1.6143937418847678,0.0
1.5540794261077828,0.3476131366359928,1.61084435661088,1.6378837290343884,1.2198060099931993,-1.152195186598375,-1.4694871326823034,0.0959830432631113,0.30491944755709083,1.341615764140938,1.3795805991752506,0.6327831660719276,0.6375559228111312,-1.673690456868415,0.34867945553811663,1.276733492774259,1.4281649592813943,1.004312962447036,1.1772389541151171,-1.503255650288326,0.8554910858438307,0.6159477665492813,1.1163599247503468,0.30667370829312635,-0.8416256639394438,-0.7176287944175163,1.125455506172197,-1.1338181703311792,1.636121370057099,0.853383482245906,0.34108892906717764,-0.24542372698393478,0.0
0.2830728056370286,-0.8609899771658384,-0.9079798733217912,-1.3437505703006958,-1.3089840490957558,-1.5067414821370797,1.2203717211062919,-0.6119961583203147,-1.393721062548412,-1.6332871921049397,0.34198789193729884,-0.38651060669533593,0.4066338403763967,-1.0897722086996646,0.4892110103664263,-0.9669346053084914,0.7123923938163479,-0.8928722576077107,-0.6627884064086697,-0.39213570555255506,1.5238678960230605,0.47508109651516517,1.6275351193798095,-0.6509552996352594,1.5181177935918182,0.22533756983710257,1.4623631591835642,-0.900314896946737,-0.36351508457053583,1.1686597404747432,-0.5427495093495751,-0.7668751182188299,1.0
0.8897334612370765,0.9059498761893393,0.12418923758171906,0.7743157874318247,0.29857989791617534,0.7070824943705675,0.2137715921136052,-0.1749826104462879,1.5187065974616991,-1.5667108173813762,0.4532221279830478,1.5411276846671735,0.5581606948155202,-0.4483118376804773,0.766822812808232,-0.8321019906414618,1.2264139690749858,1.197991056767992,1.0766780516557006,1.4472205051046811,1.6572987749614123,1.2030570448154807,-1.1546899606607606,0.8492413888966338,0.11055985285138668,1.3157440519701002,-0.4089312013904623,0.5764402263214985,-1.09851711856775,0.6830436762804586,-0.36932628581256227,-1.1867762503838908,0.0
-0.664800034034941,0.16431249277862603,0.09019662855233772,1.4199013722948042,0.6787172529720209,0.4512551887055691,-1.4008530837235695,0.10682874798687296,-1.5987427141517736,1.6594390808914354,1.6797549503396807,-0.3122725570755457,-0.6124328361026176,1.6772659378637818,-1.3489732853902483,-0.8349807887207357,1.120103358414177,0.10467265687056128,-0.29902611835978543,0.2232052334022956,0.9559105961023774,0.05349790568595089,-0.6660522382487547,-0.15358930767868847,-0.5713821505550359,0.5876510653634878,-1.3793070214196261,-1.309706805301104,0.7219728783849557,1.1160975853729451,-0.08926981140055659,-0.43494172006978055,0.0
1.3265098645667959,0.6252091870276093,0.20703169439178967,-0.36021866334237074,-0.25470400147224836,-1.1141471892945043,0.889367245208465,-0.5594841892325362,-1.3978171979957477,-0.180810509697393,-1.5623602542173027,-1.6982974970791886,-0.7897276605805508,-0.7212933533525263,0.7578512803238291,1.5618622096014108,0.25808254264217945,-1.4702490305130893,-0.9079163999206284,1.4064588385864016,-0.37703892876426376,-1.4986147135772732,-0.037825797880651296,-0.3616082896245126,-0.20375567818002535,-0.6275480745071486,1.5164776137579508,1.6961305290453577,0.8249567818267642,0.0821573052242864,-0.6604428680159524,1.2620663856810674,1.0
0.026564098634899096,-1.0033373893964663,-1.441781969182665,1.404079130696787,-0.6120214516522718,0.4843444710076775,0.2507893437786716,-1.550039382861098,1.0764314087677445,1.3102688854136677,1.0389526310696233,-0.4725772891280234,0.8959796388272031,0.7927345552561014,0.4698644794105471,1.149921290203446,1.2262234522441868,1.461498657674194,-0.05943070148583541,-0.872493201390242,0.768452027877038,1.1987061123464469,-1.033180634600654,0.09717748676045761,-1.1265475538506315,0.29546626417286265,0.18753395247929894,1.0546639998522231,0.24912236842319538,0.4072649912495044,1.4372679919965106,0.8338718689130968,1.0
-0.30638743954767134,-1.648688442376267,1.6200788241464734,0.8564831197972631,-1.076826610919135,-1.2716633109768776,-1.5245668243799835,-0.7221800830113986,-1.2381410341787735,0.8139657250704598,0.7919969505375769,-0.8487876016114058,1.6327878733744898,-1.5980238931401476,-0.0860334446640356,0.0007615455111554309,-1.4898882293807416,-1.1450980704797393,0.6234955707933348,0.19779608021286793,1.683729089192964,-0.9031275265133801,-0.985426518237183,0.1018026901238417,0.5879037315078279,0.8716685316407373,0.8091766038638024,0.5061121164360156,-1.0031006285833113,1.1428696972448744,1.027480226981629,-0.8564006657575293,1.0
0.5404565592121897,0.10495889454503764,-0.8547290522046788,-0.6739480076142714,-1.3195483556661116,1.5691176421368296,-0.3849952089016232,-0.6217505826721158,1.4847131498995756,0.17977599187753127,0.4315979376790669,1.2453683143081777,0.33668700332600865,-1.0468864897959813,1.1919838946239132,0.07554856861660394,0.235080282032385,0.2575562710777189,-0.5193700805722133,-1.202591403686781,0.11994907955380947,-0.25842225655343437,-1.2947990710894368,1.6866765330604785,-1.1100017189489786,1.7063924815941252,1.6882801639104394,-0.5435296621693642,-0.7788217213668799,0.8100251516989215,0.09562909518951396,-0.4937163071278545,1.0
1.5577630186260745,-0.21575925475122057,0.9334615170712851,0.303322391134013,-1.0391795185608348,-0.8635468150506711,0.7330360122592214,1.194189358827565,0.3142928081445001,0.6810673083713605,1.3925680303325696,1.0259765165434,0.11188502101976226,1.500853481930383,-0.21781523793911403,-0.3927252901075827,-0.7239728915251981,0.9456841019817532,0.9799242650600647,-0.9891741425992354,-0.8021043151624566,-1.3765126992147352,1.4466423721758501,-0.7687259990879081,-1.5719187007259128,-1.3897047492212136,-0.9325688957762307,-0.031032053212261726,-0.6193944346251876,-0.9755122084881666,0.4449476039304075,-1.0342172670999676,0.0
1.546828619319127,-0.029046327775727344,1.3766365161723362,-0.4155096872202227,0.1633878865057775,0.7182240728822656,1.5019133415682597,-0.620630545587651,-0.5602791146946539,-1.5363761241859957,1.0813577387119566,-0.227263623836049,-1.4742870579466074,-0.14918649721144575,1.2713243602706523,0.0014476228065170048,-0.29790818915068706,-1.619450638990543,-0.7785638946226107,0.11366620841079873,-1.297299447432244,-0.14436179461317822,1.0195097897721568,-1.432398149563024,0.5633900742067165,0.4118301466620103,-1.4491535804491404,0.671619209574043,-1.7358475857352844,0.31895246861218635,-1.6667369742558364,-1.6949003690289584,0.0
1.2709178906164713,0.001008601026202262,1.3246626614119061,-0.417975423932154,0.5065129365546437,0.30019453196211526,1.3853696860967433,1.2871104077967976,-1.5956426334990086,1.0361959467841324,1.7071822384149615,0.6719398158977355,1.3319345363397193,-0.7130790655201049,1.6694617465196118,-0.6224859852187029,-0.06301175476588079,0.4782959592773623,-0.4888160097577916,-1.1499960511730871,0.9471891613288969,-1.2469410932710527,-0.57894131788348,1.1586969772750817,1.2397112584551875,0.04717133257382809,-0.1827490574457846,-1.5046671836630092,0.7070297098175841,0.3603988342716589,0.949961690027428,-0.8431368195375433,0.0
-0.25125287630597676,1.682724513909617,-0.4002665826293816,1.1440410740182518,-1.1368969582171242,0.12452227810748112,0.3441129202240926,1.2065193523275133,-0.9491053316143313,-0.3956011309983864,1.3194718966879326,0.26549618226717947,-1.7000862243227106,-0.4078883865931472,1.2300664017101945,-0.5271916351814179,1.4842167121932646,-0.034057051735302546,0.15060675508321159,0.7935849119102009,0.262940938996658,-1.4702724263680544,-1.4710468908230216,-0.2843035128252164,-0.03325442304994874,1.5376136341414328,-0.4221544451545962,-0.9516880135407457,0.3062860161575428,1.2989495596311482,0.30891087544176776,-1.3543255147351876,0.0
0.003589706665683507,1.5941488202403955,-1.0360840201430253,1.6917220593624478,0.7540261830394068,1.5151666767506657,-1.3863511931630146,1.3589358274134693,-0.1250591276017931,0.0016489798427779371,-0.5224050616213373,0.9779629702981254,0.12966492150594944,1.2045104714041053,1.4968317625559588,-1.6199197004079702,-1.1030079756289866,-0.05214251272698253,-0.6855478353877698,-1.2573517166339452,0.8799378579636418,-0.22474011813088438,-0.1844436746948417,-1.1814670467706634,-0.695052468052185,0.4633598838241995,1.1871593792815855,1.4400868053354603,0.7276020695229749,-1.6444896950487236,-1.43124789095789,-0.5630011077640232,0.0
0.42165646521293204,-0.7378108593307728,0.525709093933596,0.16258476023457916,1.3438674933630737,-0.6243920466495211,1.0971365251961738,-0.3235773921755739,-1.1215041368972376,-0.7607972298648739,1.526511922927873,0.7292214004331029,0.5515448084206938,-0.34004241667966856,-0.361273430905696,1.4134925631970578,-0.1758286469560514,0.977433555130442,0.6565013687132287,-0.1851136639890924,0.06223722987943511,-1.531180830846384,0.18331475171287961,-1.2944221294412495,1.179505322650947,1.4326277573477815,-0.20850127869853693,0.17930400614926795,-1.4032229782462402,-1.3442651732417215,0.19753059391228744,0.23144820816029843,0.0
0.3815030233928616,1.2405753217161322,-1.6201747576749517,1.547394073448548,-1.4740272859040977,0.5519079678047228,-0.7253279994392232,-1.468343774691005,1.6358374185439886,1.5786237476070566,1.264163024657716,1.037255237877632,-1.6438520363348965,-1.3439716485212165,0.6867278292509073,0.4767507449342643,1.5603440663526023,0.002870174127671886,0.7471474250794465,0.22827571793026055,-0.05881880648892918,1.6616611373512842,-0.9155595822674096,0.001588414991767467,-1.0841493322285136,0.46462733433771286,-1.5936881712771649,-0.9017112895962184,0.3625717450103981,1.3668565372651469,-1.1761549614006195,0.025946769874441538,0.0
1.5533546400573928,-1.4114220925008962,-0.5947707732590037,0.8712287721266907,-0.47285778000776785,1.2077168457872882,0.7264040142544907,0.5817871466862107,-0.3130210092591934,-1.717807991813616,0.009088091219022912,0.4511721322319755,-1.1519018353636254,-0.8853910183520719,-0.33876361175467873,0.22538487967304213,1.1828415308877336,0.48201623949490063,0.03192311761083001,1.0123363779184575,-0.6972733457422181,-0.45284709174697807,-1.147197544408681,1.691530539644694,1.0122963274706462,-0.7420834035413358,-0.5334684713290081,0.6435377380311184,-0.16100949299421213,0.05443381435536031,-0.4961164647289605,-0.812979901154944,1.0
1.3693569472265772,-1.1963228205606764,-0.7566895188225701,0.5749613067808792,-0.5363947592754559,-0.048418845612799785,0.4442177183048096,0.13708080954146495,-0.4428476119028422,-0.33501995249711447,1.115636894852604,-1.681337341313701,-0.9577094202743552,0.31357846348699386,-1.4624474635108344,0.052312772306843114,-0.6203931068621772,1.2224591713509956,-1.0827785113764483,1.0971746149615065,0.39928408829131745,-0.24982424358381247,0.2240489743661377,-1.1276952186911084,1.2840092155105098,1.0454850744396624,1.596705982390878,-1.6712603599728553,0.4559124514422943,1.7072937010000329,-0.38117323647071855,-0.9101460057825761,1.0
-0.6758456555914912,-1.4987441604637577,-0.7832880807221293,0.699576699347191,1.1719285932598376,0.1939917924026247,0.41042040371120464,0.2154723451799666,0.19164376888944304,-0.31904623877634253,-0.6001285547509931,-1.4676911958307073,0.09155405080449426,0.6762877652382514,1.3158862275308576,0.35064703447511714,-0.538016375329932,-1.1781381393582158,-0.09749260832324115,1.229571451668426,0.43289051960464486,0.6564655345366467,-1.46328115270849,1.6716569068661695,-1.3392379982250628,1.4200419278818681,1.5533151064694402,0.10705259197649064,0.9176004083017009,-0.8340667033508521,-1.1075789318235387,0.9761109177284495,1.0
0.7030472835648763,1.0706780442678372,-1.2329582485613748,-0.3047303509712357,-0.8488620132384047,1.429490897877175,1.712220158367355,0.695918851858022,-0.12450476901575114,-1.210556027187545,0.6975995509622199,0.07400667148900564,0.9224218744781256,0.005816931992565117,0.36622695860216026,0.25007361587044336,-1.146504641652764,0.4972816362229155,1.701521521036176,1.2297983738668348,0.8130417470230478,-0.15142992858496063,0.8213529836856233,0.12087167264924127,-0.23176909080589903,-1.1286894457615864,-0.039270425699063784,-0.4387387660369467,1.1304370030538946,1.2500931791708767,0.8866613272832868,0.9551291651880165,1.0
-0.9936636021162275,-1.1834737040275987,-1.3201185582019326,1.0633914591254856,1.378599429871057,-0.5689567555200147,-0.5398628741244849,1.4867748988790281,1.1321366125261274,-1.1708022015261954,0.2993383892579296,-1.2826160887432714,0.9676397338303719,1.7049525576645972,1.1036124728394532,1.5546933076396612,0.466731804722125,-0.1555035326145032,1.716847128395476,-1.3767112597390243,-0.8517743623217915,1.0801412650285596,1.1178438926024175,0.9037288028883196,0.3014340797995229,0.08371641052860529,-1.7135418259000879,-1.4416113760906668,-0.6501138673182483,0.9031129831082603,0.6232935608979824,-1.2145322486203018,0.0
-1.3082826199653106,0.8195561767687678,-1.6562983410910317,1.0207712333106236,-1.1200820974487449,1.3056216855486924,-0.009131022270400562,1.6010584984809904,0.3835794242066811,1.380045736394202,-0.4813577041847589,-0.8537921651353648,0.9992817079476886,1.3479507447514758,1.7194222991084798,-0.06758904585026698,1.534853899106203,1.5253267245669495,1.4130365069256847,-0.5280207044309656,1.4932629175795902,1.6034590841700445,0.9008881014679009,-0.762224302195289,0.6105637634590653,1.3012318200349149,-0.07665658800577309,-1.1839807727251976,-1.5564151861711373,0.8966850369495216,-0.39344492949190907,-0.915807969529386,0.0
0.3834895558907287,-0.07784948790930808,-0.9605900045214669,-1.6482317393593717,-0.1553734204400124,0.6572329746129802,-0.7297944170713163,-0.31640591048794686,1.2942883642145513,-0.7605421620511007,-1.1144274525532845,0.9959971142534891,0.6127258446910618,-1.6069144239425848,1.3888178057425296,0.49737398520333936,-0.12596765085376577,-0.08959333358353655,0.2665426078373845,-0.4807120258369646,-0.31418370826526065,-0.27695905790618525,1.0291578970975879,0.8922210757949595,0.35706589533740796,1.353998429893645,-0.7692094204842678,0.6772401124392265,-0.5766669882167863,0.7376390203677736,-1.1800341731263169,0.16027918024445337,1.0
0.3623543821814962,-1.241433655533523,0.5646550966530114,-0.4075435177592306,1.7336077581180531,0.6837301258442119,0.3429338330150937,-1.2969545055165923,1.6604403450241145,0.22746926265866638,-1.6122263827200172,0.6376644608483201,-0.8071104636526301,-0.7031471498045766,0.5574522285545123,0.4196235624555392,0.080077781038682,-0.9158645079398064,-1.2779421568389642,-0.398701116725445,1.5780047570076705,0.46325282231808845,1.6079455083794219,0.18712018642849607,0.6696138731744957,1.2468369414223948,0.741805188399318,-0.7300640628828591,-0.8927533350861702,-1.2997421706645427,-0.7048865032616457,0.26613933849423643,0.0
0.34078168518574786,0.6213469405233139,0.5888755293871593,1.107352803349744,-1.4350236212735206,-0.5567817764169396,0.9041705233972553,-1.1727992426580032,0.03892581257371704,-0.40113029553787594,-1.5435917428595882,-0.9818765133553446,1.4128214825103365,-1.2249052913875518,-0.7179572015731752,-1.0746400046492888,0.9367450322575718,0.83034163642244,-1.6734442881199483,-0.17257007949460126,0.43288129382738105,0.499382457131306,-1.4631792360818128,-0.08569924595937474,0.28092277773147284,1.16048824407353,1.17359283387128,0.9996163274633191,1.3820596830387761,1.4072978170487604,-1.6494111526845843,0.7865650789192586,1.0
0.22069553788976204,-0.9852258161460558,0.5534124965403769,1.2873774451082347,-1.6376689771202662,-1.6004520602337657,0.11867129884514785,-1.6061909194596855,-1.0480654272531944,-0.5678895158146918,1.5022338814109137,0.7936016409286348,0.8130795884753768,-1.1897223918486028,0.8379514402384547,0.3393733474352319,-0.35003488389461646,-0.4920388563094238,-1.6871369527090003,-1.3241021079024542,0.19530061535677515,-0.06426557644259165,0.9984856250417229,-0.3829146298193845,1.05066760181526,0.9344386743220464,-0.29057949146953865,0.025857505630687835,1.5574208883531857,-0.33500550565385334,0.28601909549449483,-1.0713448982265903,0.0
1.4466578838426931,-0.1596589574344867,-1.2880759709534064,-1.1571858519352816,0.4486787217032935,1.082725071005938,0.8226459050513615,0.40826619402846165,-1.425743291558284,1.573567230342081,-0.5757822587642312,-0.3754695652216812,1.6194517074427455,0.3179981828967652,0.8461269975291369,-1.510372239968485,-1.404035039551378,-0.6126800419645809,-0.3685487724506178,0.944118658650776,1.5535303075560674,0.8261410506232943,0.9318630350211705,-1.3346853539392343,1.662330153212571,-0.24544155805441323,1.0919820630738601,-1.6310875720998237,1.6611621513934645,0.9095501361605185,-1.679735923984956,-0.1258851306332518,0.0
-0.1742009007518851,-1.4350506398459053,0.9460811223796046,0.9660188735211735,1.383719752931363,-1.3626456822789312,-1.5459859285544284,-0.4627864253543968,1.1513772575016996,-1.2655654073360743,1.0135340793798298,1.173466465802448,-1.1133256940277716,0.4938099022670837,-0.09211250761082387,-1.1850443777687092,0.6258101685190675,0.1803550981354984,0.6235711271632518,1.4518218126548548,-0.3778584853112074,-1.4444163862839974,0.6268034085069337,-0.21914373383501823,-0.17855651764007172,0.9894695715275961,-0.740372082205878,-0.8734639100157318,1.5920940472766287,1.617569454689752,0.38400929763680935,-0.7990895261596962,1.0
-0.09641898314907768,0.720896052461065,0.07035730850275226,0.7421053005434496,-1.3422620940162775,-1.4539883552015995,-0.7145706663865486,-0.7989796765397227,0.5838185205791829,-1.4379089220833106,0.2754566640172448,-1.483071740100432,-1.0107826200931889,-1.239528411250594,0.41612179698690976,-0.2892327957229525,0.6713799128555578,-0.20069804784978548,-0.047497420939137995,-1.5363264941902548,0.45167420211396087,1.548510542656957,1.563854213811073,-0.8125241565681338,1.718664379019853,-0.9916931812701913,1.1083164780064214,0.47635466647660696,0.05956608034888239,0.07710885861119253,0.7982125498069752,-0.542822240246704,0.0
-0.22420229937450797,1.6181704474316687,0.6240994988319128,0.36979235738969174,-1.6125082478072275,0.872202222667287,-0.480049191388181,-1.2715070270050375,-1.5395539299920045,1.4367928119656712,0.6858128113382065,-0.8958275461917686,0.6304866149368613,1.2089559768347737,0.7634800466101821,-1.2995815832235902,-0.17962125408777777,-0.3449836811097429,0.008839875617799798,1.6154526500630673,0.2638173878367292,-0.5717389952639982,-1.0012930839812304,0.9682958433332767,0.5739047102087793,0.7476479637816561,1.0429527641333853,-1.519383841068984,-1.250483640448592,-0.7852655642516959,0.8304272718378269,1.1941831531199283,1.0
0.2905622614910565,0.05087504579030841,0.8800165029137554,-0.16385971659318405,-1.0089832519545072,-0.6099821743297341,-1.262726398611519,0.7042288044201809,0.5630729748390798,1.448531076859464,0.5341359671367127,-1.2003079959070442,-0.07455412792799541,-1.5355457361033604,0.7249993778343061,-0.42764683824435007,-1.4208171868391986,1.6339068536156176,0.6218687958900183,0.5989377964505201,-0.7278475715948081,1.1964012186587187,-1.4026716436618858,-1.127266788499082,1.5588237751557183,-0.36385109649902614,-0.6995207189081272,-0.4958986935337012,1.3426507081771422,-0.17157700775690898,-1.2250217230527303,0.3264547222440652,0.0
1.1930446381861757,-0.2393207086901884,0.14326355474481278,-1.0178225903148985,-0.6712557375607165,-1.3994804935985834,-0.6963764098342222,0.16361661901856975,0.8051210048958982,1.5859450024346708,-0.38365913681184194,-1.631643058911486,-0.5627879608666186,1.2901620545061847,0.8568352094941205,0.8648340005547362,-0.3708251890842677,0.2778187849374396,-0.9977976407872777,-0.019463525666658533,0.13366012219752033,-1.6218963002978213,-0.41687843955377013,0.998418017694545,-1.0524886120112213,0.01997236437671956,0.21239266989402505,1.6162627070000526,-0.44255251401417606,1.280673875995298,0.43501199390590545,0.4554840693014911,1.0
1.5988224430091325,-0.8629816303386538,-0.0023466533222070585,-1.0482596974883691,-0.36073855623916545,-0.9316270121434049,-0.0928682668626079,0.6230876846553003,-1.1164596975967938,-0.35707780539541295,1.0222545052959275,-0.9791269559620192,-1.0772551736074714,1.5054043031396622,0.8462070569745639,-0.17780458276340452,0.9478015038612235,-0.5686444782209351,-0.8880481585659059,-1.186679251152393,-1.5261786803134407,0.22602082574324842,0.7421436902704496,-0.436231922641449,-0.19912161480534038,1.1824217121879608,-1.7240339824611988,1.5279550816365397,1.654058427486179,-0.23591324518766463,1.575889843068798,-0.12296597063592113,0.0
0.02852043171400001,0.6184721339296712,0.3914415248182134,0.11720619005482658,1.2387729547087396,1.4433161022527599,-0.13729427344805525,-1.28566491512802,0.28760227019230766,-1.3561203617515663,-0.27471913165430384,-0.21588451597685251,-1.5380483346641258,-0.4866569994913553,0.9530436826566316,-1.2017581981996035,-0.9689782987397599,-1.1560461049799935,-0.8096962029619079,0.7669905502115152,-1.702260327542838,-1.1624133411036845,0.6433818464464075,0.45945590730923996,-0.15546919891664115,1.6797454429933718,1.0205676576870544,1.5827815433086938,0.25453053420900756,0.868614753091368,0.8365738133000091,1.3815477436004302,1.0
1.4216940130908526,0.2531572893481659,-1.6455169494493878,-1.5067581558782526,-0.6312516008793353,0.39697827094051275,-0.9768198031825714,1.306198228735272,-0.43880892680695377,0.7286848673806839,1.53443017534403,-1.0876927683023458,0.41269585413861676,-0.08868519986359234,-0.31813313527693454,-1.2100063908085847,-1.6627001937883512,-0.0019217917492399385,-0.5911455480599606,-0.18093246915759548,1.342030901410528,-0.7785764657307948,-0.217526429390751,-1.297147805394107,0.2771171588539538,-0.5485655732669784,1.1257145150034602,-0.215867432726278,0.17934945619023196,-0.28653428023913957,0.124112806966662,0.42169019005311326,0.0
1.5748794599258287,-0.6390807245124182,-0.01614907078579468,-0.7780786477487972,0.006910961236340346,0.8513420012530922,0.2214496257158455,0.7023773145458613,0.7158349515539666,-1.20315023979917,0.46511381802837093,0.8118535350668257,1.4702470323049852,0.43424506267282004,0.07003405292641214,1.179195040297225,0.09815952032616064,1.3136703378202508,-0.9809855774973639,1.5231167809239345,0.7983896750984182,-0.7750935497144363,-0.9488291841122273,0.22313749880836767,1.3749014117709983,0.12398586659064238,0.8362560538021989,0.4563028367145833,-1.6883889602841935,1.5566689230239563,-1.2006891803416397,0.19550402027583663,1.0
1.0756830677198563,-1.1936879458212468,-1.159639342108428,1.4237592120829354,-0.6399749504041068,-0.28993786501331636,1.6936730577624606,0.7438127878582406,-1.3108552725078142,-1.2384811748683755,-1.0124016985786748,0.3219067660712384,0.2699638552567324,0.9749128386139213,0.24658430350643404,-1.5367042925600067,0.8937338582256983,-0.8482625765465435,1.6017547314442553,0.19588717388165652,0.6672052729238275,1.6952564741285665,-1.248482596838638,-1.5922563569119645,-1.5810946073086225,0.002296857275720666,-1.0143053394976957,-1.3262930005007185,-1.5637971238084738,-1.441813744561171,0.6819217576487469,1.0188448211551921,0.0
0.7033522240372965,-0.7304991366245672,-0.31593825482824045,0.7261374940271673,-1.6019911263593856,0.44060034625741906,-1.3901773458580515,-0.6012477840081062,-1.4273683157849317,-1.0826810497948631,-1.19896685171583,1.5984823446876257,0.992084470938608,-1.317758535223047,-1.1169346432961877,-0.6407427036666734,0.00727201223708443,-0.6060570245896545,0.7170975773867162,1.7127884738576868,0.959416391462662,0.1540018106706789,0.5132543886668332,-1.1701773737535321,-0.9796546613856167,-0.07589214961401133,-1.0670542504705711,-1.6583917337630592,-1.0118380853387263,0.36179674760434216,0.2716970274690165,-1.1615186323253754,1.0
0.8860579710018682,1.6032122642652031,0.0913522242587594,0.03113298886731196,-0.35960021515851576,0.8155522838837012,1.4019511512921226,-0.6196012027503152,-0.6404596603864426,0.9557209489400336,0.0986577714141334,1.4030452814424705,-0.11719912067120405,1.6766274138073123,1.6813853114691344,1.292616355733021,-0.6173003173781626,1.193355250801446,-1.0797655083801638,-0.29807338779579656,-1.0420068142444794,0.5630344136118404,1.1367015569203067,1.6680267671745892,-0.15211392185298026,-0.6995756512769058,-1.6218159173136917,-1.2133910447541523,-1.5952507316225004,-1.4764915090016901,1.3377041041206519,1.6107180467295084,1.0
-0.2768369399993093,-1.3546873249313796,1.004806863193023,0.05352412449261998,-0.08668957648060453,1.5571677601922724,-1.4889281048870378,-1.0221369270348137,-0.840989739058482,-1.042937515053954,1.6977146829261835,0.6493380850564929,0.6096126937171356,1.6749739537971295,1.318148597432021,0.07639164158431831,0.6128550009093696,0.8786516949674716,0.7734317900101878,1.3515314005066255,1.013866928874245,-1.5200454197820674,-1.009420162863072,-0.10837072751880447,-0.6838969018918322,1.211271882501589,1.5493502789754883,-1.002663258081712,0.7521327923542487,0.2646425382239704,0.46298234800686805,-0.4334875545173213,1.0
1.5851391600232674,1.6933909069178916,0.16841376021792748,-1.2070739789483922,1.1509887206091816,-0.8265607209004567,-1.008660303467975,-0.38120141992470535,-0.16321735258960457,-1.405903424447853,1.2758976560305897,1.1182546152082578,-0.3389979566827958,-0.8798307018566088,0.544321086762584,-0.9058020675778022,0.5330130539720964,0.8219901431768958,-0.7971646393228059,-0.25276714427694563,1.4485517256996063,0.8863286914400276,1.0997490587932943,-0.9099298337747003,-1.1269625446006033,0.23129107080166372,-1.680417814834461,0.08426174340915861,1.5409846394345437,1.6034276662440767,0.945925109728376,0.07556166093665152,0.0
-1.447803198094157,-1.1578936136981683,-0.9734685338836759,0.28934668116413953,0.8457194096322321,0.038286679677416814,0.9015403650220697,-0.3445130162303543,1.4573257466454137,0.4678482576347687,-0.4872363956161629,0.6600823957725324,0.311920391227686,0.0716411224200684,-0.9104078754639283,-0.9514700143167505,-1.467036149291416,1.5088089865969814,-0.6339320409672823,-1.1268407873867767,0.2895772955871033,-0.08608223996295027,0.5264495034388901,1.684578914270843,1.634661029208896,1.5863225676879014,-0.49748156974977376,-1.445969534447739,-1.3213647707062561,0.7478341204581676,0.9795500375185108,1.4531390983203405,0.0
-0.21777645231800336,-1.425889472816646,0.2607635846317537,1.4740352659086815,1.698735003510067,1.731251909743468,0.41587331450693643,-1.6793789648381023,-1.08511045841816,-0.8619540375312377,-1.2919096237734542,-0.7107982035495373,0.7341515325441184,0.9183552708468329,-0.4968921584083108,-0.77657786984573,-0.11229898130081709,0.7916292884468521,-1.2680257687790326,-0.25374229642686585,-1.143719470949517,0.16259982364030076,-1.4479565981154072,-1.31833897618252,-0.004572414215787241,-0.5323853214159384,1.3144599209524834,-0.4514891059607034,1.1332253228817326,-0.5535280543704093,1.1206088097024507,0.22704858387179352,1.0
-0.9943412476104944,1.2903907171495548,0.5514345227309766,-0.7633182172550786,0.8573129416874241,0.3240387523965307,-0.8148313039238168,1.1242795786746458,-0.22435422593935445,1.208449783510388,0.9457955546551992,0.5497716294247367,0.29710999100124114,1.5642408476632161,-1.299228398880668,-0.42185098746597605,-0.561426876384854,0.6226290529022347,0.24125281144942942,1.2090533918095725,0.5861399057354149,-1.1316204574450384,-1.4717927352273406,1.0914411150873338,0.6766963819740145,-0.7292086137050316,-0.8673798979195496,-0.9756509716697436,-1.5052161316827029,-1.066401126828641,-1.081755207291148,-1.6143643491767925,0.0
1.322745985788857,-0.14881316249266643,-1.1433153574382118,-1.5293739196007816,-1.189147108725961,0.9456087447317004,0.32678533687588684,0.9604983033366442,-0.9472393143549896,-0.6788859135535905,-0.43250878745781546,0.49190101219141663,1.6152816860489525,-0.19550930067715075,1.1028169154682947,-1.3424772884715435,-0.4066643359857305,1.2340027568819587,0.03667237514847415,1.0309976622214096,-1.0146493093979052,0.24066860338213913,-0.6681245429911888,-0.23493729844073058,0.4426262289621477,0.7240541202056148,0.1036196889399349,1.0695419567391604,1.4582036896898927,1.3861910136557196,-0.7681456140496647,-0.7092607696334627,1.0
-0.2873676982944545,-1.3139499590458175,-1.671609432516345,0.19677847677078855,1.506202746499637,0.4135616463428704,-1.230216229718012,-0.22273055082917664,1.674232906022192,-0.012158495125285211,-0.5072393587825693,-0.06085745784713405,-1.3119811362290634,0.7841275106638991,-0.18114234811651933,-0.32017602432465214,1.3255160072147634,-0.9534638338091594,0.6200261456440816,0.8645210977844989,-1.1640884495186812,0.3204935664112651,1.704480628329701,0.08804839180849292,0.9175431802326428,1.0055198676565027,0.6842117394641769,0.27552145082210855,1.5725047094174167,-0.7087716239286781,-1.3383102895154109,0.7708013055367465,1.0
1.6568369996014611,-1.161138892577344,-0.525986715647616,-0.8376745508845789,1.1988757218205541,1.4333577454931405,1.2675697587797286,-0.6187849545261528,-0.8215409298224716,-1.1483591741771269,-0.06627438439067956,-0.3522972550878102,1.4983715465133456,0.08904780666303519,0.1960804190999049,-0.790110878410896,0.035598134157136016,0.44350138787654053,0.30841471447203644,-1.013206430017235,-1.0811087335480078,0.7186728636352294,1.2632387698964833,-1.4279341833686823,-0.4354849759614958,-1.2935894971313076,1.1258018730116377,1.2438959423616351,0.7832880932243883,-1.218727645623539,0.5953109839952054,-0.5583663418117165,1.0
0.05403820400028467,-0.897834466948695,-1.5646237788404742,-0.7277479147151749,-0.21420663280708827,-1.4415575838729362,1.5852925964654656,1.2764040625259416,-0.834112111270952,-1.4626137467320346,0.730280231455227,-0.5711494752809045,-0.0918935691218625,-0.7991995747273811,1.270714037568821,0.187548462844917,-0.22982419577099153,-1.5429843362147502,-0.49150057383994694,-1.1785560497525869,0.4576017640060214,0.8230394418343611,1.1161591798796193,0.3978602375509195,1.1213389895326784,-0.9160711821153075,-0.7196191911754954,-0.36338732945861013,-0.9434005990100048,-0.518333169410555,-1.2046325617768605,-0.775128281221352,1.0
-0.8589749309899798,-0.5795703319060157,0.12046941104615294,0.6521203192681424,0.9568366868149517,-1.5661890570336716,0.8281032263977505,-1.4073146572407158,-1.1813121910790996,-0.3912282248769529,-1.3881454905193065,0.4388061362560338,-0.29087046892617807,1.0231725654400963,-1.347393359007658,1.3247320516491143,1.2053619055024216,1.0420898819399418,-1.1965633205380846,0.3715050230950191,-0.7921558520128762,-0.22341174295241548,1.2114666677358332,0.5140062805764565,1.0611099986867727,0.06091453241215337,0.3190567978787771,1.168679690110202,1.6766694755801055,0.730597281307747,1.31292695699358,1.1316354705486111,1.0
0.2997340459417209,1.4591838705027775,-1.2196001212357113,-1.1104225677614745,-0.5379260639545422,-1.4481540999533946,0.9117074193784684,0.8062288636731634,-1.644582125738915,1.2384485516599635,-0.5903344052938039,0.6031189479449565,-0.5151237031854249,-1.0531788275336134,-1.738291574752984,-1.6943806856417967,-0.7861021821933583,0.40077328063732975,-1.3422668410728489,0.9450616123806517,0.15689524223667153,1.418712632423827,-0.20898241885432142,-0.15053655061148793,-1.0799855917037968,1.2879151807433566,-0.29620412111886296,-1.4055693911158258,0.23427966592500857,1.3148575371502802,-1.6193063918168629,1.4197953915993726,0.0
0.44842935480598933,1.4574489225356855,0.5719211529152859,0.38384565272209226,1.281077366112677,0.24061906095272897,-1.1554331380515,-0.792836062986226,-0.4050393117829362,-1.2651743523593384,0.656421555938277,-0.29590807723392754,-0.3597683659108966,1.3010702271440808,-1.0033537579356397,0.24841475853701825,-1.4411422490958856,-0.16160907891390397,-1.0353568664697248,0.16644861841237021,-0.7965273328064245,-1.0397889668401616,0.4340651697387323,-1.4121759373809508,-1.6046092128042462,-0.9680458265144478,-0.510439674296106,1.471795210921757,1.3598103127939154,-0.39601498555962805,0.30964424355060355,0.6877282308909284,0.0
0.3114573129925379,0.6592423172421014,-1.7279916164101838,-1.1242408902816503,0.5138605448511171,-1.2643439991503995,0.9671664184326592,1.0810154733876298,-1.1595996887743794,-1.1168388199338604,-0.28521857729945554,-0.3005044514321123,-1.0904386222504967,-0.9058972600306905,1.3671051224034618,1.1604250340506574,-1.5710183262124504,1.4026983275034115,0.313663569231173,0.45751313606635274,-0.743246931477814,-1.6307175174981312,1.2884044557291583,1.1069613443017172,-1.0458610560338941,0.7573487762162067,-1.043115091036661,0.6997820989502154,1.5310755937492502,-1.4505648968512848,-1.3676266796661332,-0.3933278335153574,1.0
-1.4404315936304364,1.228568519139335,-0.6363751610089778,-1.654288569993984,-0.9729854270815786,-0.1134214968142406,-0.31622810833139997,1.6295969549109632,0.5192032895872695,-1.0026559121871597,-0.21683200207121311,0.8565868039816469,-1.5101569775067936,-1.2659042416558075,-0.5573463014392807,-0.13407725334621876,1.3590281997597538,0.5727328995813307,-1.3174380927380611,-1.5325715451098234,1.4714331909436411,1.4483119934600452,-1.446909636404997,-1.1002234762704772,0.01050250902763254,0.3699217196102427,-0.5919722826651568,0.15142531109669713,0.10498138051593656,-1.7009709178252461,-1.2547720226678474,-1.2264270134424935,0.0
1.0537899622567102,-1.2188662049905814,-1.6252311325227828,-0.2606936381090939,1.0878292223216055,0.7711993736365425,-0.1464998277612056,-0.11028811817909612,1.246676945034073,0.6561243224210153,1.3093467497481512,-0.44812357452843077,1.4431962463162027,1.4246779186087692,-1.5058558851628283,1.6606088781511492,1.2019637158280994,-0.5836848209604817,1.2519472423290334,1.6427998414875562,1.0539006516814289,0.17626178259365366,1.4703626949392874,-1.6545107956752292,-1.0068411665171022,-0.4996487105650959,1.109541022717541,0.35662590222146534,-0.5938389578882282,0.7657139076726871,1.1179274325545192,-0.14487281998525894,1.0
-1.5752278041503391,-1.1637540768606527,0.2033773344493945,0.62094947623763,-0.6319026081165203,-0.12154618873385671,0.9028311861810484,0.5706524001342,0.1899956153005242,0.10244045983350679,-0.37871765998192397,-1.5731686462559535,1.3037185911763909,1.5461060969490161,-0.9034720905653206,0.7010874683116698,-0.610340512405428,0.2845566257758706,-1.4414939423082194,-1.407066703550531,-0.45951583987405414,-0.3691579054740688,-0.0741945916912404,-0.10210704739953377,0.9320801525038768,-0.20944993858683966,0.5644285842864497,0.9233032387413359,1.1391590034909735,-1.6846332852752126,0.5781639209004819,0.03697212933441803,1.0
1.1561357924555027,0.7298953201844419,0.1123140389283318,-1.231794153265941,0.04507487813967642,-0.4628789887335972,-1.6767940399427925,0.7146711778172786,-1.1592967687394762,0.4339227682714266,0.8695765955373258,-0.8219895663994099,-0.16243875371523708,-0.38295005827310363,-1.4377021311644698,1.5912339871584955,0.7862891615720891,-0.209540985519128,-0.542869653583154,-0.6454468090752754,1.20399020909931,0.6217712269291027,1.3256395408665025,1.5195119785657942,-1.6581015204756102,-0.8647203251824077,-1.1131409638724343,-0.35990786922640433,-1.2172340084439066,1.6070843374535,0.24546689477631287,1.4984038686022143,1.0
0.252484477282773,-1.2499661865192209,1.5080904929407661,0.8793094723609371,-0.4535679121100226,-1.1499325216543137,-1.324684344058951,-1.4250590235591145,-0.5867353745902956,0.31637913993518246,-0.26032771339233124,-0.4378834108458521,-0.37597205052998933,0.2819830898252474,-0.9849093291043287,0.3576106167195165,-0.7492390246628735,-0.6806065410146828,1.6445751476197028,1.6838666263672106,1.3189341680303353,-1.4801972644867654,-0.8851621762653101,0.1519674123931084,0.6703408754883354,-0.3618146138886526,-0.8845143282954211,0.7124018631036687,-0.6568188182124619,-0.5040317948105444,0.9351384871275789,1.0011674277850284,1.0
-1.1734628391673458,0.16381804354714713,-1.364550514313132,-0.4532878475051821,-1.0496140660442772,0.9289807883985973,-0.17732296102837075,1.4562684510215127,-0.8392796584673539,-0.43454638433941717,1.438377054436682,-0.3214490664752298,1.6925957757720849,-1.6137169957107336,0.19676977990312197,0.3395149860847216,-1.423881313271746,-1.3034319717545664,-1.1839901237971915,0.0568160646769347,-1.1778164060873757,1.397698884122193,-1.148036040291797,1.5066452524762206,-0.2555465237765051,0.4119524579299004,0.6292191070181107,0.17597816447036002,1.4687139861584622,0.6825434350659092,1.5568299114901931,-0.7693843272891375,1.0
0.06921672650067343,0.8092952613013518,1.1846229984020036,-0.4231921159268302,-0.11803303137805309,-0.6045988442334949,-0.31854732288526005,0.7584816606418775,-1.4809933691558521,1.2015805941164064,-0.1938155673670608,0.33853328426846213,1.4435670483453416,0.7108969029522927,0.04376995877811836,-1.5019105433605084,-0.5696426084344879,1.229050038156141,-0.5287329025749977,1.0143694781555548,-1.0286017598800214,0.9882369230428338,1.4836798008250938,-0.21326088055310458,-1.4945628879283934,-1.5831568371890798,-1.476257551933692,0.31474026747915795,0.5522748681089044,0.6978192058967143,-0.6282846764434901,-1.4333470366343133,0.0
0.33199954689428696,-1.1805726434924615,-0.668249300506536,-0.07227426012517581,-0.7922863140766071,0.3526787116432625,-1.632266590692232,0.8537305286207583,1.039449796821909,-1.3835949141302557,-1.3358111923182385,1.571346243090088,0.5908913071458322,0.08767703276492086,1.175324194867858,-1.3616948553784367,0.7631009609735848,-1.5864748712516288,-1.1476043347985585,0.9690617013786066,-0.1158417981275981,1.606108084380083,0.07987091982694422,0.8067131660716269,0.5571129548626987,-1.3240128961281745,-1.072291133171318,-0.006391637263218515,-1.2479086178137926,0.7393238818818092,-0.4696586823524724,0.4308390571565651,0.0
0.011360532714070044,0.3048068143054371,0.4157722945071437,0.009728295708419345,-1.4481034846879028,-1.4944349527465592,1.41120154620362,-1.035443911408308,1.3905124801293014,-0.8602964642745842,-1.1458347835290024,-1.1858914575314625,-1.2547262745550134,-0.38513439484648965,-0.41557529919200076,1.0117982264820145,0.5840013632655053,1.3548001024474823,1.36631799884921,-1.6495560714220938,-1.7256661244613718,-0.1357885821136328,-1.3357710992049412,1.0258651906417982,0.7350194893756052,0.7888087632084442,1.4054578461374005,1.3374941907007407,1.2070709749962665,-0.9674454352829889,1.3702014784434513,1.1922958318709915,0.0
0.11892938921704349,-0.1741606137294098,-1.017574628188418,0.7952483182416241,0.43573082917844247,-1.114809325741313,0.0774649942393858,-1.348560269484682,-0.5001502338748403,-0.05635138282518537,1.4883804257980322,-0.3280096211361366,-0.7459337171937429,1.387721910093879,1.4968718735219484,-0.9521379758426269,1.1143056783708798,-0.2502573856777438,0.6335769492936976,-0.36123902163268085,-0.13323546352915197,-0.13776331954346843,0.33564150381230057,1.6896018359845317,-0.32735529354940146,0.4355080792347265,0.9088582215808917,-0.026959625364324547,-1.2973394694845737,1.1218457558935073,-0.1528375479343776,0.30442875507819633,0.0
0.9662948803790142,-0.05047391969211809,-1.3712832752939579,0.79122570192165,-1.0116182461398973,0.2702814582668839,1.4619206734849772,-0.7461934126557486,1.743472517251371,-0.07569978338466994,-1.5627675792790292,-1.6306938157416024,1.4805766664692306,0.1371526344842469,-0.5594560268309836,-0.7672138791758844,-1.3665915014594157,1.1073769723089588,0.6816184648270878,-1.3063163139730938,-1.0285817706959497,1.3394410298832817,-0.2649315585174186,1.0778357692043383,0.06596525425997343,-1.183966494393765,-0.27674933943806573,1.4314288636715695,0.38643166362588377,-1.0048100781488962,-1.6819558903644118,0.3809085812297787,0.0
0.5134685908318217,1.2036513408326397,-0.15834913137033782,1.037080415422025,1.3758649045678641,-1.356839929593006,-0.38612283968628924,1.2254420065069884,0.9131358728096,-0.7259926018696214,1.0900062405631008,-0.12773776569600634,1.6237804982376711,0.033489241466180486,-0.907286230250842,-0.7162507481913635,-0.033294319081476696,0.6465705105326326,-0.42075822406331054,1.2472085195623421,0.17854506621597496,-1.4421254428606873,0.7509949948782239,-1.0759964399278112,-0.4971372313795271,-0.012184796842492735,-0.17487151074346097,-0.1207114922567281,-0.8559271110185039,-1.3894802273151023,-0.16061736128894716,0.1795654376301036,0.0
1.6770661907477065,-1.3250867351725344,0.19022369827992774,1.393826040311783,1.1636498160612525,0.03544227012887441,1.3172678435839664,-0.1773598320133154,-0.2403858584269501,-0.9955345952423879,1.6989652809535385,0.9127493740181468,-0.23210967472880928,0.8029807038113915,1.238637497693274,0.7588766810110338,1.6555924034533736,-1.0461233068980818,0.29699490884742835,1.3146074790060338,1.4135014602444766,-0.07170726749490017,1.4952349844224375,-0.5828656109447505,-1.2096056469533192,1.4493522943409334,-1.1900512607912501,0.15212427551420407,1.508277524203457,1.3726307939840139,-0.803387007379692,-1.7413269247681697,1.0
0.8301279108755996,-1.203838011313464,0.09415846080872672,-1.3343730861499257,-0.39994718124566264,0.19216105090234237,0.644808092006307,0.9534993619240434,-0.4309971712270624,-1.5591837441449534,-1.202022156638294,-1.3488195256848472,1.3713128724224968,0.24216661606669349,-1.5351768620270376,-0.17746298096292273,-0.21405288335466363,0.0004527574760285729,1.4565754795987111,-0.8375073181247122,-1.1553654771156565,1.6442977082390244,0.2149058176001518,1.5334551547077355,1.197011784288646,1.7137189265407553,0.9672118384468407,1.4043751002502105,-1.513948951542617,1.6963068080669779,1.3939839950729143,-1.334852072209274,0.0
1.2914395005249164,1.2642848187140825,1.6907540571628328,-0.2769075010608193,0.17217390377138792,-0.9981497999997707,1.1661822255495706,-0.33104307715266873,-1.510925002259816,0.9262558385218687,0.21873353001595264,-0.27113696406275634,-1.4473163638975812,0.9619829093499973,-1.0596952038478946,0.3806027007547699,-0.5446820604100329,1.1973067089255058,-0.0946615574014504,0.2671852086669311,-1.5757334052569765,1.1404203575787,-0.6353753336189498,1.206209732011624,1.6566032808629605,0.32011657132530696,1.7061425776877899,-0.3326574740568236,0.5395975958096094,-0.23948398539090754,0.25092437578623455,0.36871679535857393,1.0
-0.33248047393289343,0.5981107437484163,-1.6185962036418642,0.3380407325025482,0.9633578181998912,0.30698910430867205,-1.5283069713372068,-1.2359585688884236,-1.7251857149277234,0.20030196776169842,-0.9801635712608406,-0.8410785070031125,-0.9788358142908581,0.025520515190919045,-1.1101215125320065,-1.0296923666533713,1.165940362590233,0.7415509485638547,1.0477553816447944,1.0456985408588841,1.1453619322167214,1.2802376577227068,-1.351310296390571,0.43593524332618755,-1.5948384861465772,0.7164310704343511,-0.7383720435976032,1.707450680237908,0.9682213964843644,1.3872329271056558,-0.5137600791473754,-1.717461592876903,0.0
-1.173939400726901,-0.8833561474906559,1.2426469961830053,0.7470345572426685,1.4141836476544494,-0.09068887630873915,-0.5278485341345359,-0.9710886008783471,-1.126967143043939,-1.1466957203945072,0.17949014555545306,0.7506613048751257,-0.8578011717394961,-0.4997168875574069,0.9101735093144564,-0.978779375888707,1.6518490089317868,-1.5467061474118018,-1.051720217440335,-0.7740212333454798,-0.14719713978853252,0.4568977018610036,-0.5516014106816932,-1.4018045484313173,-0.044479154335296936,-0.36520263600921427,0.6760353364180882,0.7945724272629151,1.2739025498498644,-1.011314748420296,-0.527261691601093,-1.737589409901423,1.0
0.27764869539813586,1.6688689962859187,0.4298343716043194,0.6413256091618782,0.5980174226574131,-0.8853907402809854,-1.3458807154252126,-0.8753995339926686,-1.670434037781671,-0.7584722169110844,-0.9559383719140514,1.6738275986268756,1.1995037197372855,-0.41744770802268116,-1.744962204811025,1.0667148482820044,-0.6190429615612624,-0.3468070777101911,0.39032707126253435,-1.6873876817163211,0.6584638489662751,0.08147128590278276,-1.3483238303906697,-1.4861346590245983,-0.8196326911937165,-1.1157106913475752,1.3841409595454504,1.6856307009274212,0.6228005030448373,0.14078987211982327,0.7777026883631927,-1.4911795100525493,1.0
-0.6903104406093314,-1.6312944768600381,-1.625547431793159,1.3660726477735337,1.3001659599721989,1.413286094968688,1.4274294322546548,1.5263529835042662,-0.843770485290216,1.4106524039155082,1.2660183719659044,1.083493566530706,-0.20219853519725994,-0.8003283760801093,-0.5842167953997922,0.884825878669788,1.1430506506881746,0.9039220428154922,-1.6702277455149075,-1.631678282006892,-1.3857377482840625,1.1456951075580806,0.824458352416648,0.20062725441798024,-0.347216443442496,-1.3715415259395018,1.63242774475231,-1.2949886117095963,-0.7849300583733189,-0.9874566183472312,-0.03920368732045321,-1.2101032316238216,0.0
1.3834401883682976,-0.534765792917271,0.5348361668332013,1.0499122954757851,1.1565292861668777,-1.5102604523262448,0.6224657125609748,-0.44405843199802847,-0.2923478360397444,1.1303416973675862,1.0101881425214316,0.2788247078648385,-0.2987801624636365,0.2680296978471536,1.1330272508689196,1.5059797506090227,-0.9915246319083169,1.2953460440244824,1.0701570743418378,-0.5845503972224818,0.09609275717888836,0.10952991773550257,-0.5830488667768294,1.6128560147045814,-1.4354220950490804,-0.13200550154039015,-1.6072945641999725,1.4779906471762758,-1.656525760034259,1.5282150186024979,0.4926058360531657,-1.010252928192363,1.0
-0.5706868600203018,-0.8461280584515192,1.4614760718639694,0.8232019549060147,0.176877670672,1.60325494172892,1.6663732193785445,-0.8411112097650281,1.3282788273428334,0.9138633651143635,-0.2298003513337485,0.7851433380641736,1.2593800504250432,0.7006501143184696,-0.7362846632993812,0.7628599662900213,-0.37698885468714305,0.7013550814397919,0.6218348726218924,0.0378051975277847,0.13758415279376887,-1.4032693063684425,1.6350506985015885,0.5951085766047196,-0.6156217015048064,0.5709402883879738,-0.16644376184928242,0.13592519906890105,-1.1698155694204897,-1.2890974672739555,-1.3297359940429356,0.49078471157975817,1.0
-1.1802650741016445,0.3882564258978665,0.8056177654633375,0.7699414508017279,-0.09646426951639059,0.5657762914411927,1.6269899423777183,-1.124087583730417,-1.3159855142811987,0.410130895278917,-0.650257426266497,-0.10380812780762476,0.32062638971684565,0.3046337774686833,-0.9117077214555288,1.550793313519106,0.4394924516445893,-0.28239417664332,1.3269423363552868,-0.7678222708578589,0.556657396859054,1.5611463821608973,1.1972956240537778,-1.3927599110440887,-0.061948727906331644,-0.013339109433207666,1.0637976109618494,0.5411863045250774,0.9137579675633387,0.6358644849229561,0.7873984259020963,-0.10540924206691933,1.0
-0.47350365728815763,1.1236453712328995,-1.100100785728112,0.3204850122332121,-1.6007031199682615,1.2456574103564122,1.2737393840572395,-0.8501548271718495,-1.2845221205081307,-1.6577964892652957,0.6154534617569535,-0.6063718590915647,-0.7503721184690474,-0.14393323553219706,0.3958168042852687,-0.333021001482266,-0.7684793984598123,-1.5880180986011265,0.46743774364646634,0.21744018295622705,0.6545951730336095,0.7903539723030075,-0.6708160684502522,-0.3073189670119363,0.0926783625359353,1.6477472864224174,-0.12633264272608827,-1.5931622236615461,-0.3820101150915503,-0.15105637658459795,-1.5851619949496365,1.2027317901868333,1.0
0.44518549528778134,-0.9731067050417544,1.4836346747030822,-1.132433165656293,-1.3663869624366267,-0.44346801298609306,0.8419692625719064,-0.4390466531546395,0.5566101833555058,-1.6501540107067911,0.9057742160227534,-1.1548926891314357,1.4518049936196824,0.04653779099822061,-1.0583835891874536,1.523034552122409,-0.569173736389362,-1.2763657849373389,-1.0016664353203781,0.8856785262699511,-0.9045427330122553,-0.12858559558581023,1.1405465932903969,0.28761701050441574,0.1949228613123188,1.3250274772029753,0.820248081952827,0.37618154405633547,-0.27528578261239817,-0.9112189365605012,0.37365505665017984,0.5291344605642987,0.0
1.3998126927667371,0.42445696483795636,0.951547215119528,-0.7646630302055476,-0.8517823299614964,0.9920401495204969,-1.0958642408766655,-0.7260954200216082,-1.0218777664032797,0.06084088408459295,0.16112088615013345,-0.17878948059387909,-0.7215336868775886,1.05323344225899,-0.15810405306117034,0.3915235900807986,0.24018577249811915,-0.6114353556201947,-0.12476999983003514,0.7530884990427644,-0.753427576688536,0.2659402823900203,-1.4085828080091571,0.2796058265911439,0.29318805989730556,-0.1934867892363052,0.5416465353117335,0.7879591485434247,0.7250996915843552,1.490462151726526,1.2383434203249504,-1.1121419768962277,1.0
1.4087082630213688,0.6784864563575367,-1.3335892292214742,-0.028853057805748664,1.243965529987895,-1.5921833938328898,1.3399130808410862,-0.6188726993668713,1.201771661239293,-1.618690256525947,-0.2568283874566341,-0.41406006457213856,0.01655638971652392,-0.6725422748125552,0.5854842924508372,1.4937802511923153,0.8877291569816441,-1.2149428868601193,1.3954164530676783,1.6718443496258213,-0.680599290967249,-0.43070182199810697,1.3572861976410533,-1.6258673964928907,0.16213705506176934,0.14979201522465013,1.1307690187046788,-1.4878213731083205,0.4035309886011457,1.2015037986226644,-0.9482516544784463,0.8435962142990114,0.0
-0.09800997691822601,-1.6919986945282857,-1.1868168052307457,-1.265262261935469,1.6324996250486108,0.2956085427747814,0.07756202635384206,0.2821938170029148,-0.7584268690527874,1.2750261582339515,1.0472855477378082,1.2474410007942067,0.3863210033101992,-1.614358857319553,-0.31203366866168286,0.3153985058949651,0.174287775984698,1.3655873840988304,0.08396449484962575,1.3599167890410795,0.5094045033428629,-0.368399941107358,-1.2921507829871455,1.050807812896595,-1.5822442853863221,1.420480719555425,-1.4068508481383348,1.2914224503810556,1.1343953661797779,1.6823460885271817,1.5153900297902743,0.6174255143680377,0.0
0.3579570521806557,1.1944004728366076,-0.9938205529831505,1.4158381160230302,-1.4515900228811622,-1.038083351423693,1.580948204068219,1.0032809180271125,-1.164788127007671,-0.43092618554162593,-0.05586300902914439,1.7065757498516494,-1.473979420493003,1.5189426270491135,-1.391676051159092,-1.2742825203151593,0.8700758609675046,0.2645834670441806,0.45716824520467747,1.072881673666956,-0.8357645635098239,0.2914212153641713,1.3360705531877717,-0.33858208629319003,-0.16153113787178455,0.10263490588953943,-0.2418996245617742,0.9317753019557357,-1.6763083018726734,-0.5620904653433768,-1.2132985282629403,1.44254380058758,1.0
-1.2943820484785664,-1.5658674668273993,-1.7161848266687616,-0.26106383112458015,-1.6466923945335252,-0.3947410556813735,0.13315260683596974,-0.7048891879286456,0.9970768051415658,0.1690763748824755,0.7294699848459548,-0.34185779462772875,-0.43959760688752125,-1.2357369289208706,-1.033626000712592,-0.18222696854640988,-0.9724915335811397,-1.2578746143746107,-0.2390251088452365,-0.9174789939667449,0.18773855325945887,0.8603858497107032,1.0197522278083426,-0.8132504916248672,-0.13331176687370289,0.5972295665301482,1.3625451403659872,0.8087037979808236,0.28330247079171583,1.052022209925237,0.21328731330067605,0.35686844007529034,1.0
1.6105582317701697,-1.4574080588568916,-0.23260148846074438,0.9584251138003114,-0.8874682906653094,-1.180170086058577,0.19517597545148227,-0.9509633262349078,0.09035432263735929,-0.9671169535119087,1.2873137665443835,-0.7022771591069734,1.3404394238290214,-0.383416584083802,1.0459839709484797,0.9540031054669682,1.6856467686846992,1.3028738702918223,0.14977255108065768,0.6681628662881658,0.13914945966954514,0.7001856632226314,0.9550150953813165,-1.3536115264006248,1.4439789276079693,-0.8575834627010079,-1.564755812007424,-0.8471429070936055,1.5416708999686686,-0.7534066437103419,1.1308637404243422,0.7143564773318681,1.0
-1.2330183026879424,-1.1175084881943236,0.7786411155987237,1.4602272881035092,-0.5621453026199196,1.435015279114953,1.5730180339867477,-0.6527252487973303,-1.414214423628916,-1.5081334281030034,1.203131785949515,-1.016567439092664,-0.7530278595982617,0.4298107357565299,0.9941377387108092,0.046809532586853365,-0.002590573926875611,0.05957612432413607,-0.38938845284713103,1.114541829430288,-0.9646563600343335,-0.243188567808988,0.12804968880156986,1.0111327201675928,-1.5728916234841803,-0.4540633010223758,0.1439729583314104,-0.02414379728236723,1.0945876183050722,0.35685878371348023,0.13236014249061448,1.526770925767584,0.0
0.4656599646401037,-0.4966027718504705,-0.7270765513183541,-0.8760578769972494,0.2669068844286683,-0.044718628360931795,0.6431556056934455,0.8993652193103775,0.11148112980070263,-0.9927097375814921,0.6741765251153712,0.6750997770254742,-1.2151539230524493,0.3558168343944325,-1.36200099288562,-0.43866150196597514,-0.3229023006837953,1.2966427836723238,-1.2574833422255023,-0.024451214257366155,-0.8989057831040078,1.2134670421300617,-0.5675683488611043,1.2170156935216285,0.16796998060303986,1.343823661296019,0.22425650044318618,1.0055874806300233,1.51352339864674,-0.8661128307270988,-1.1066561102865864,-0.7126857936048938,0.0
0.36020138459482,0.7412005591024153,1.110919383766715,-1.6877138219870682,1.3241817127967344,-1.4235724670743544,0.7803759226454614,0.10517560569367332,-1.5747381666568505,0.7829929948077731,-0.18240092469132718,-1.5025245818571307,-0.9795356796428353,-1.2835532184834268,1.1645084400177876,1.3700200959886437,0.25281186978468484,0.08527208447687909,0.8900584438607454,1.2815933656537077,-1.5022992934953596,0.24210858067595206,-0.8844966298092826,0.9051999001068196,0.8433904812237943,-0.298679066294521,0.7292869390871428,-0.777856330999485,1.2330824131241422,1.4641902810691456,1.6225289990903193,-0.04419660723153044,0.0
0.0012164742933705765,-0.10390287846179122,1.0641600534893043,-0.7080109373965067,0.7107788064527291,0.7918673854640806,-0.6294264561347254,-0.41686637959454204,1.5624158693945338,1.6820813110576005,1.1884901012982652,-1.540667770662526,1.4449867440638093,0.2307323445946434,-1.6899734594445128,-0.8915020354934712,-0.5223709491864178,-1.737058954229674,-0.16097229478744085,-0.548388504996278,0.7068684270109105,0.589412813596882,1.5432670552223002,0.6192803316322856,1.4049943891550634,0.9802457730378178,-0.9716976204565863,0.9795798595566256,-0.09644226877685774,0.20800479825761964,1.4830515518910565,0.2589752526714284,0.0
-1.4223686583522768,-0.6212776350745673,0.21426538514732796,-0.1078386513993632,0.3840004522847987,1.4814751864660296,0.6347307188466025,1.323429398338208,0.7778343262838839,0.0742146702626669,-0.2110303721379736,1.5296312131501146,-1.353814658957282,0.29677788789479426,0.8111525796350287,-0.8976605465048756,-0.5758280024796043,1.2899263765470805,-0.4575958093147129,-0.3179336799308832,-0.19980559700642184,-1.530449216979129,-1.464006922625736,-0.0781917362503494,-1.3626142734706959,-0.6718538024095663,-0.09242700737676773,-0.7160770936050513,-0.8323979576154115,1.0771217361411571,0.8245129636101093,1.505167285405781,0.0
0.24295324609167143,1.6729398157698643,0.11095174532661764,0.13831236429504368,0.801316734811501,0.7278542847582017,1.4832353946272043,0.6982702661189558,1.1903785850497095,0.2463420756806543,0.362426069088577,0.740370947930065,0.10744404585756924,-0.07325713552552496,-1.6419197329685775,-1.0413203457282,-1.1661230441139696,0.16675846907707909,-0.5512008998415603,1.5745959215427512,0.11033581964481781,0.7830161332191441,1.5375442822152505,1.7249695929119753,-0.17216258608495086,1.2426447227154542,-0.9093914368697633,-0.13277362106170854,0.3456439851686672,-1.4140119950973307,-1.6011051120656874,1.3832107520779764,0.0
-1.1545874658672555,1.5320531436729417,0.06389009179310282,-0.501296930928709,-0.10640632228359341,0.24775054820213208,1.6225676302521965,0.7660903918298914,1.353298082343836,-0.4822212784769086,0.34365462205474184,-0.03308286842537451,-0.6052634017095669,0.45384342153235363,0.2794742974862285,1.0870125334601162,-0.8721905015062074,-0.612895910075969,-0.5544344040806642,-0.7307818217418686,-1.3279182645416092,0.7490332890969174,-1.1275461657557617,-1.5651546921840875,1.3193049472969995,-0.552702751903368,0.3924605136974145,0.3634081613495842,-0.6555575826362338,-0.16969880147896785,-0.7306949492917688,-0.34498611080386454,1.0
-0.9180847689409769,-1.313026695436596,0.11575581633784611,1.1661366463577425,1.1309239845276522,-1.042667148106236,0.3020678759017048,1.217353996777235,0.48418692732600255,1.1231211465471387,0.8842946077677097,0.9931671000129496,-1.735754685060487,-1.6158012742934575,-0.555428217329528,0.7578587035074782,-1.6778525461005414,-1.544403554223663,-0.2189610377154228,-0.2518947204195485,-1.1228307735944862,-1.6545957200935926,1.027261630164869,0.2927950270188018,0.836155809149286,-0.860962311476478,0.11173478812063585,-0.46655294129713215,0.27454801208613094,-0.01442147331112788,-1.1288954981870407,0.2334175195946395,1.0
1.220248421925044,-1.1905170531096387,0.5943607471992447,-0.2969370860324467,1.2910695530725511,1.4016533953838604,-1.2346260452833389,-1.5987141742085504,-0.4671528411072875,-0.9682099962758307,0.24185051162723384,0.9113838220241463,1.1674536570132017,0.035342840317634704,-0.6102450751363451,-1.3190158956567601,0.7944137266257668,1.1064185791335763,-1.6612334535613107,0.35743431353555877,0.7533140650165094,-0.6875587405503009,-1.519951429714893,1.2060469592504954,-1.05677684976093,0.5735179983587619,-1.5517164798394532,1.0740153290112067,0.6053765953845167,-0.5721336516907018,-0.8383503319684523,-1.5303460669218756,1.0
-1.4892633172042593,-0.3082672054353895,-0.5012940407469992,1.6840499753708442,0.6384978341691697,-1.4881614657052724,0.07734149882098691,0.043270514539404926,0.4060178900433242,-1.1746333641930153,-1.7311630989870626,0.6868162131339995,0.916660727223821,0.5604943582428132,-0.6145052404072195,0.18475585260802874,1.1202489852079207,-0.908606134066823,0.15212713428195082,-1.3885633448316066,0.0498177960526716,0.7914947939265233,1.0402297488138719,-0.6378290584831322,0.9885865226222577,-1.5305324141792724,-1.0934424993267209,-0.3233666239533439,1.1523834294593673,1.4704540376267903,-0.125349994505065,1.6463218979953094,1.0
1.0973294218345466,1.605642941681898,-0.295641404206157,-1.3262273619927996,0.7079919351542473,-0.8622042712837973,-0.8164080757837312,-1.139060982725959,0.7082947794536435,-1.3645331892116113,0.3453162147389739,0.2201915959235169,-1.3650678315629343,-0.9925547265472323,-1.2319027692009696,-0.4821934431536505,-0.8994214174758515,-0.5986532076628988,1.138429193412206,-1.5230009480661106,0.1962078167877262,1.3572927182501713,-0.17482953957830255,0.5559079818303277,0.460675252580365,-0.2483647973569916,0.12598333903337997,1.0789987148802027,1.4115596122151157,-0.0793055209062833,-0.6181596129908721,0.3174203320032539,0.0
0.11442378325135813,0.45595950680284414,1.1643195275626332,1.5081750421452291,0.9497611302404729,1.0852040630893542,1.1632925797773919,-0.3942591794564951,-0.7293107324959888,-1.5582178677550451,1.169324539745246,1.4523203024757163,0.19568477237406387,1.2456018444405232,-0.5678970639353365,0.11156336206059997,-1.397193492781309,-0.051721493360800154,-0.4950779366605099,1.1340464056867874,-0.8879501726031174,-1.4897221950254937,-0.5366737132561259,-0.6876620928617976,-0.4132814338352274,-1.604338091005985,0.30304882602940514,1.0994607061795323,-0.35406663717165876,0.01988648090636502,-1.1141563270496622,0.43914017668262584,1.0
0.35290785667717794,-0.3482658145783438,0.826582522451704,-0.44101605987804565,-0.23877533628608472,-0.9215349125915492,0.7853260306662835,0.16543714012557684,0.11712320197788877,-1.1020588529841775,-1.2799841734527448,-0.8740230024605371,-1.605106969179377,-0.5943609111083412,1.2860719182822864,0.6456147291717745,1.5969545498382598,1.5917880762227372,-1.1258733976303703,-1.5227065625114178,1.6970880146711018,-1.2620817802527127,-0.46165381087390606,-1.037683417379195,0.7683309505761188,0.4354117591112626,-0.6951742748521367,0.151259403059135,0.7811783057715063,1.5686409535635792,-0.22418815352322138,0.8639916596645697,1.0
0.1916378044671223,0.041241307814148795,0.4869175629508761,-0.1348198848534147,-0.42218980563822783,1.5769207666871348,-0.10581911377541503,1.1918172987217561,-1.3530574053507365,-0.3169593871241741,-0.16950156381762482,0.8829707447781647,0.17715216069608916,-0.6428058035101071,-0.27959318212192813,-1.0950718568714557,-1.0776526634166663,-0.3817424992262447,-1.20166260452412,1.4110248812003359,0.47103603333181493,-1.7325931984839618,1.459792705399822,1.3248864307950818,-0.7754715273856073,1.034094837617377,-0.652358122668709,-0.9668271219682907,1.633507706626459,-1.3209303016170046,-1.1987335320514103,-1.3267628895775612,0.0
0.5746032629825358,1.2724264576819742,1.0518221752055292,-0.08555391855694941,-1.1272048391457377,-0.25805884535570583,0.21159645554787718,1.3734505937121468,0.6141664822040237,-1.1902726229994736,-1.3284558557981974,0.673199076277068,1.6186349969012974,0.5019809162186911,0.08123334567639354,1.3833886142864669,0.792257363656251,-0.4524706907858507,-1.4899949639280439,-1.2504781205834863,-0.8967423383356213,-0.5053760373982343,-1.6453660156063084,-1.1171779484932938,-1.6340873890772425,1.5666579735928368,-0.7607985301530709,0.6692627009664472,0.143552622923752,-0.305687687723832,-0.6839152310493871,-1.3702053119649702,0.0
-0.5829713943174573,0.933203655289041,1.110445670440849,0.7677232483416687,0.9224630623310586,0.8985020484673504,0.7258791587262955,-1.3231024680506898,-0.0127324988957138,-0.19117273151515207,0.9392431255541287,1.0915503232953097,-0.44691180502692374,1.0184823214103818,-1.3088919615902146,0.7979559591715262,-0.19978418518076357,0.566693185401006,0.5376018558982272,-0.12921874004988287,1.1302777863902318,0.28791039881897657,1.6158471353295234,0.9571213397226037,-0.6588760336740885,-0.1758311577163382,1.4269739702918602,0.8911293689385453,-0.42012539610845,-0.8468780956829859,1.0849869816659652,-0.3345501524880228,1.0
-1.5527262908847317,-1.3213776366602903,0.6779991012431461,1.5488585895297728,-1.2353487163425374,-0.7744609603926224,-0.13313953472906406,-0.7294452083525654,-1.7354059086176332,0.7039837180606886,-1.4095473033571555,0.42376661091670265,0.8632096761721179,-0.39522164390598574,1.527136363369132,-0.650583267815487,0.1420612368748217,0.6384440712755569,0.7962606074922729,-0.055925936479944385,1.36727262800458,1.3994101165574668,-0.28458448136165115,0.8325510385126297,-0.5402686033265953,1.3111329171706354,1.2134755960959045,-1.1171382678140527,-1.467246140058163,0.6854129168794303,1.4697561992179489,0.2610992625687974,1.0
